%
(Header)
(Generated by gcodetools from Inkscape.)
(Using default header. To add your own header create file "header" in the output dir.)
M3
(Header end.)
G21 (All units in mm)

(Start cutting path id: path4657-8-3)
(Change tool to Cylindrical cutter)

G00 Z5.000000
G00 X180.284870 Y367.265700

G01 Z-3.000000 F400.0(Penetrate)
G01 X116.325220 Y366.625410 Z-3.000000 F400.000000
G01 X116.090220 Y16.551390 Z-3.000000
G01 X181.010230 Y16.761390 Z-3.000000
G01 X181.010240 Y54.772990 Z-3.000000
G01 X165.596280 Y101.814900 Z-3.000000
G02 X163.478572 Y109.811874 Z-3.000000 I46.843664 J16.683726
G02 X162.725386 Y116.714890 Z-3.000000 I51.128040 J9.071164
G02 X162.821345 Y123.715260 Z-3.000000 I63.080209 J2.636160
G02 X163.420180 Y130.376090 Z-3.000000 I162.870941 J-11.285409
G01 X172.668570 Y171.117690 Z-3.000000
G03 X174.098988 Y181.637049 Z-3.000000 I-112.471588 J20.650767
G03 X174.475789 Y190.327939 Z-3.000000 I-95.489514 J8.493646
G03 X174.051077 Y199.020413 Z-3.000000 I-93.085696 J-0.191523
G03 X173.031240 Y206.609190 Z-3.000000 I-100.306212 J-9.616994
G01 X163.782870 Y246.090790 Z-3.000000
G02 X162.926510 Y253.298430 Z-3.000000 I125.214540 J18.531788
G02 X162.618091 Y260.901754 Z-3.000000 I77.302418 J6.943585
G02 X163.100770 Y268.463796 Z-3.000000 I68.615939 J-0.583276
G02 X164.689570 Y276.962000 Z-3.000000 I65.239555 J-7.799377
G01 X176.839380 Y314.553610 Z-3.000000
G01 X180.466210 Y330.304200 Z-3.000000
G01 X180.284870 Y367.265700 Z-3.000000
G00 Z5.000000

(End cutting path id: path4657-8-3)


(Start cutting path id: path4657-8-3)
(Change tool to Cylindrical cutter)

G00 Z5.000000
G00 X180.284870 Y367.265700

G01 Z-6.000000 F400.0(Penetrate)
G01 X116.325220 Y366.625410 Z-6.000000 F400.000000
G01 X116.090220 Y16.551390 Z-6.000000
G01 X181.010230 Y16.761390 Z-6.000000
G01 X181.010240 Y54.772990 Z-6.000000
G01 X165.596280 Y101.814900 Z-6.000000
G02 X163.478572 Y109.811874 Z-6.000000 I46.843664 J16.683726
G02 X162.725386 Y116.714890 Z-6.000000 I51.128040 J9.071164
G02 X162.821345 Y123.715260 Z-6.000000 I63.080209 J2.636160
G02 X163.420180 Y130.376090 Z-6.000000 I162.870941 J-11.285409
G01 X172.668570 Y171.117690 Z-6.000000
G03 X174.098988 Y181.637049 Z-6.000000 I-112.471588 J20.650767
G03 X174.475789 Y190.327939 Z-6.000000 I-95.489514 J8.493646
G03 X174.051077 Y199.020413 Z-6.000000 I-93.085696 J-0.191523
G03 X173.031240 Y206.609190 Z-6.000000 I-100.306212 J-9.616994
G01 X163.782870 Y246.090790 Z-6.000000
G02 X162.926510 Y253.298430 Z-6.000000 I125.214540 J18.531788
G02 X162.618091 Y260.901754 Z-6.000000 I77.302418 J6.943585
G02 X163.100770 Y268.463796 Z-6.000000 I68.615939 J-0.583276
G02 X164.689570 Y276.962000 Z-6.000000 I65.239555 J-7.799377
G01 X176.839380 Y314.553610 Z-6.000000
G01 X180.466210 Y330.304200 Z-6.000000
G01 X180.284870 Y367.265700 Z-6.000000
G00 Z5.000000

(End cutting path id: path4657-8-3)


(Start cutting path id: path4657-8-3)
(Change tool to Cylindrical cutter)

G00 Z5.000000
G00 X180.284870 Y367.265700

G01 Z-9.000000 F400.0(Penetrate)
G01 X116.325220 Y366.625410 Z-9.000000 F400.000000
G01 X116.090220 Y16.551390 Z-9.000000
G01 X181.010230 Y16.761390 Z-9.000000
G01 X181.010240 Y54.772990 Z-9.000000
G01 X165.596280 Y101.814900 Z-9.000000
G02 X163.478572 Y109.811874 Z-9.000000 I46.843664 J16.683726
G02 X162.725386 Y116.714890 Z-9.000000 I51.128040 J9.071164
G02 X162.821345 Y123.715260 Z-9.000000 I63.080209 J2.636160
G02 X163.420180 Y130.376090 Z-9.000000 I162.870941 J-11.285409
G01 X172.668570 Y171.117690 Z-9.000000
G03 X174.098988 Y181.637049 Z-9.000000 I-112.471588 J20.650767
G03 X174.475789 Y190.327939 Z-9.000000 I-95.489514 J8.493646
G03 X174.051077 Y199.020413 Z-9.000000 I-93.085696 J-0.191523
G03 X173.031240 Y206.609190 Z-9.000000 I-100.306212 J-9.616994
G01 X163.782870 Y246.090790 Z-9.000000
G02 X162.926510 Y253.298430 Z-9.000000 I125.214540 J18.531788
G02 X162.618091 Y260.901754 Z-9.000000 I77.302418 J6.943585
G02 X163.100770 Y268.463796 Z-9.000000 I68.615939 J-0.583276
G02 X164.689570 Y276.962000 Z-9.000000 I65.239555 J-7.799377
G01 X176.839380 Y314.553610 Z-9.000000
G01 X180.466210 Y330.304200 Z-9.000000
G01 X180.284870 Y367.265700 Z-9.000000
G00 Z5.000000

(End cutting path id: path4657-8-3)


(Start cutting path id: path4657-8-3)
(Change tool to Cylindrical cutter)

G00 Z5.000000
G00 X180.284870 Y367.265700

G01 Z-12.000000 F400.0(Penetrate)
G01 X116.325220 Y366.625410 Z-12.000000 F400.000000
G01 X116.090220 Y16.551390 Z-12.000000
G01 X181.010230 Y16.761390 Z-12.000000
G01 X181.010240 Y54.772990 Z-12.000000
G01 X165.596280 Y101.814900 Z-12.000000
G02 X163.478572 Y109.811874 Z-12.000000 I46.843664 J16.683726
G02 X162.725386 Y116.714890 Z-12.000000 I51.128040 J9.071164
G02 X162.821345 Y123.715260 Z-12.000000 I63.080209 J2.636160
G02 X163.420180 Y130.376090 Z-12.000000 I162.870941 J-11.285409
G01 X172.668570 Y171.117690 Z-12.000000
G03 X174.098988 Y181.637049 Z-12.000000 I-112.471588 J20.650767
G03 X174.475789 Y190.327939 Z-12.000000 I-95.489514 J8.493646
G03 X174.051077 Y199.020413 Z-12.000000 I-93.085696 J-0.191523
G03 X173.031240 Y206.609190 Z-12.000000 I-100.306212 J-9.616994
G01 X163.782870 Y246.090790 Z-12.000000
G02 X162.926510 Y253.298430 Z-12.000000 I125.214540 J18.531788
G02 X162.618091 Y260.901754 Z-12.000000 I77.302418 J6.943585
G02 X163.100770 Y268.463796 Z-12.000000 I68.615939 J-0.583276
G02 X164.689570 Y276.962000 Z-12.000000 I65.239555 J-7.799377
G01 X176.839380 Y314.553610 Z-12.000000
G01 X180.466210 Y330.304200 Z-12.000000
G01 X180.284870 Y367.265700 Z-12.000000
G00 Z5.000000

(End cutting path id: path4657-8-3)


(Start cutting path id: path4657-8-3)
(Change tool to Cylindrical cutter)

G00 Z5.000000
G00 X180.284870 Y367.265700

G01 Z-15.000000 F400.0(Penetrate)
G01 X116.325220 Y366.625410 Z-15.000000 F400.000000
G01 X116.090220 Y16.551390 Z-15.000000
G01 X181.010230 Y16.761390 Z-15.000000
G01 X181.010240 Y54.772990 Z-15.000000
G01 X165.596280 Y101.814900 Z-15.000000
G02 X163.478572 Y109.811874 Z-15.000000 I46.843664 J16.683726
G02 X162.725386 Y116.714890 Z-15.000000 I51.128040 J9.071164
G02 X162.821345 Y123.715260 Z-15.000000 I63.080209 J2.636160
G02 X163.420180 Y130.376090 Z-15.000000 I162.870941 J-11.285409
G01 X172.668570 Y171.117690 Z-15.000000
G03 X174.098988 Y181.637049 Z-15.000000 I-112.471588 J20.650767
G03 X174.475789 Y190.327939 Z-15.000000 I-95.489514 J8.493646
G03 X174.051077 Y199.020413 Z-15.000000 I-93.085696 J-0.191523
G03 X173.031240 Y206.609190 Z-15.000000 I-100.306212 J-9.616994
G01 X163.782870 Y246.090790 Z-15.000000
G02 X162.926510 Y253.298430 Z-15.000000 I125.214540 J18.531788
G02 X162.618091 Y260.901754 Z-15.000000 I77.302418 J6.943585
G02 X163.100770 Y268.463796 Z-15.000000 I68.615939 J-0.583276
G02 X164.689570 Y276.962000 Z-15.000000 I65.239555 J-7.799377
G01 X176.839380 Y314.553610 Z-15.000000
G01 X180.466210 Y330.304200 Z-15.000000
G01 X180.284870 Y367.265700 Z-15.000000
G00 Z5.000000

(End cutting path id: path4657-8-3)


(Start cutting path id: path4657-8-3)
(Change tool to Cylindrical cutter)

G00 Z5.000000
G00 X180.284870 Y367.265700

G01 Z-18.000000 F400.0(Penetrate)
G01 X116.325220 Y366.625410 Z-18.000000 F400.000000
G01 X116.090220 Y16.551390 Z-18.000000
G01 X181.010230 Y16.761390 Z-18.000000
G01 Z5.00
G01 X180.284870 Y367.265700

(End cutting path id: path4657-8-3)


(Start cutting path id: path4657-8-3)
(Change tool to Cylindrical cutter)

G00 Z5.000000
G00 X180.284870 Y367.265700

G01 Z-19.500000 F400.0(Penetrate)
G01 X116.325220 Y366.625410 Z-19.500000 F400.000000
G01 X116.090220 Y16.551390 Z-19.500000
G01 X181.010230 Y16.761390 Z-19.500000
G01 Z5.00

(End cutting path id: path4657-8-3)

(Start cutting path id: path4655-9)
(Change tool to Cylindrical cutter)

G00 Z5.000000
G00 X122.696400 Y626.249040

G01 Z-3.000000 F400.0(Penetrate)
G02 X127.036335 Y634.471853 Z-3.000000 I12.614027 J-1.400885 F400.000000
G02 X131.875002 Y635.991527 Z-3.000000 I4.187748 J-4.870821
G02 X137.127413 Y633.486345 Z-3.000000 I-0.875369 J-8.594056
G02 X140.038000 Y626.693540 Z-3.000000 I-7.112847 J-7.067686
G01 X140.037990 Y520.469040 Z-3.000000
G02 X137.318485 Y515.304929 Z-3.000000 I-6.616824 J0.186404
G02 X131.838406 Y513.407502 Z-3.000000 I-5.848635 J8.029418
G02 X126.624697 Y514.938747 Z-3.000000 I-0.317794 J8.559605
G02 X123.363370 Y520.765240 Z-3.000000 I4.368498 J6.271223
G01 X122.696400 Y626.249040 Z-3.000000
G01 X122.696400 Y626.249040 Z-3.000000
G00 Z5.000000

(End cutting path id: path4655-9)


(Start cutting path id: path4655-9)
(Change tool to Cylindrical cutter)

G00 Z5.000000
G00 X122.696400 Y626.249040

G01 Z-6.000000 F400.0(Penetrate)
G02 X127.036335 Y634.471853 Z-6.000000 I12.614027 J-1.400885 F400.000000
G02 X131.875002 Y635.991527 Z-6.000000 I4.187748 J-4.870821
G02 X137.127413 Y633.486345 Z-6.000000 I-0.875369 J-8.594056
G02 X140.038000 Y626.693540 Z-6.000000 I-7.112847 J-7.067686
G01 X140.037990 Y520.469040 Z-6.000000
G02 X137.318485 Y515.304929 Z-6.000000 I-6.616824 J0.186404
G02 X131.838406 Y513.407502 Z-6.000000 I-5.848635 J8.029418
G02 X126.624697 Y514.938747 Z-6.000000 I-0.317794 J8.559605
G02 X123.363370 Y520.765240 Z-6.000000 I4.368498 J6.271223
G01 X122.696400 Y626.249040 Z-6.000000
G01 X122.696400 Y626.249040 Z-6.000000
G00 Z5.000000

(End cutting path id: path4655-9)


(Start cutting path id: path4655-9)
(Change tool to Cylindrical cutter)

G00 Z5.000000
G00 X122.696400 Y626.249040

G01 Z-9.000000 F400.0(Penetrate)
G02 X127.036335 Y634.471853 Z-9.000000 I12.614027 J-1.400885 F400.000000
G02 X131.875002 Y635.991527 Z-9.000000 I4.187748 J-4.870821
G02 X137.127413 Y633.486345 Z-9.000000 I-0.875369 J-8.594056
G02 X140.038000 Y626.693540 Z-9.000000 I-7.112847 J-7.067686
G01 X140.037990 Y520.469040 Z-9.000000
G02 X137.318485 Y515.304929 Z-9.000000 I-6.616824 J0.186404
G02 X131.838406 Y513.407502 Z-9.000000 I-5.848635 J8.029418
G02 X126.624697 Y514.938747 Z-9.000000 I-0.317794 J8.559605
G02 X123.363370 Y520.765240 Z-9.000000 I4.368498 J6.271223
G01 X122.696400 Y626.249040 Z-9.000000
G01 X122.696400 Y626.249040 Z-9.000000
G00 Z5.000000

(End cutting path id: path4655-9)


(Start cutting path id: path4655-9)
(Change tool to Cylindrical cutter)

G00 Z5.000000
G00 X122.696400 Y626.249040

G01 Z-12.000000 F400.0(Penetrate)
G02 X127.036335 Y634.471853 Z-12.000000 I12.614027 J-1.400885 F400.000000
G02 X131.875002 Y635.991527 Z-12.000000 I4.187748 J-4.870821
G02 X137.127413 Y633.486345 Z-12.000000 I-0.875369 J-8.594056
G02 X140.038000 Y626.693540 Z-12.000000 I-7.112847 J-7.067686
G01 X140.037990 Y520.469040 Z-12.000000
G02 X137.318485 Y515.304929 Z-12.000000 I-6.616824 J0.186404
G02 X131.838406 Y513.407502 Z-12.000000 I-5.848635 J8.029418
G02 X126.624697 Y514.938747 Z-12.000000 I-0.317794 J8.559605
G02 X123.363370 Y520.765240 Z-12.000000 I4.368498 J6.271223
G01 X122.696400 Y626.249040 Z-12.000000
G01 X122.696400 Y626.249040 Z-12.000000
G00 Z5.000000

(End cutting path id: path4655-9)


(Start cutting path id: path4655-9)
(Change tool to Cylindrical cutter)

G00 Z5.000000
G00 X122.696400 Y626.249040

G01 Z-15.000000 F400.0(Penetrate)
G02 X127.036335 Y634.471853 Z-15.000000 I12.614027 J-1.400885 F400.000000
G02 X131.875002 Y635.991527 Z-15.000000 I4.187748 J-4.870821
G02 X137.127413 Y633.486345 Z-15.000000 I-0.875369 J-8.594056
G02 X140.038000 Y626.693540 Z-15.000000 I-7.112847 J-7.067686
G01 X140.037990 Y520.469040 Z-15.000000
G02 X137.318485 Y515.304929 Z-15.000000 I-6.616824 J0.186404
G02 X131.838406 Y513.407502 Z-15.000000 I-5.848635 J8.029418
G02 X126.624697 Y514.938747 Z-15.000000 I-0.317794 J8.559605
G02 X123.363370 Y520.765240 Z-15.000000 I4.368498 J6.271223
G01 X122.696400 Y626.249040 Z-15.000000
G01 X122.696400 Y626.249040 Z-15.000000
G00 Z5.000000

(End cutting path id: path4655-9)


(Start cutting path id: path4655-9)
(Change tool to Cylindrical cutter)

G00 Z5.000000
G00 X122.696400 Y626.249040

G01 Z-18.000000 F400.0(Penetrate)
G02 X127.036335 Y634.471853 Z-18.000000 I12.614027 J-1.400885 F400.000000
G02 X131.875002 Y635.991527 Z-18.000000 I4.187748 J-4.870821
G02 X137.127413 Y633.486345 Z-18.000000 I-0.875369 J-8.594056
G02 X140.038000 Y626.693540 Z-18.000000 I-7.112847 J-7.067686
G01 X140.037990 Y520.469040 Z-18.000000
G02 X137.318485 Y515.304929 Z-18.000000 I-6.616824 J0.186404
G02 X131.838406 Y513.407502 Z-18.000000 I-5.848635 J8.029418
G02 X126.624697 Y514.938747 Z-18.000000 I-0.317794 J8.559605
G02 X123.363370 Y520.765240 Z-18.000000 I4.368498 J6.271223
G00 Z5.000000

(End cutting path id: path4655-9)


(Start cutting path id: path4655-9)
(Change tool to Cylindrical cutter)

G00 Z5.000000
G00 X122.696400 Y626.249040

G01 Z-19.500000 F400.0(Penetrate)
G02 X127.036335 Y634.471853 Z-19.500000 I12.614027 J-1.400885 F400.000000
G02 X131.875002 Y635.991527 Z-19.500000 I4.187748 J-4.870821
G02 X137.127413 Y633.486345 Z-19.500000 I-0.875369 J-8.594056
G02 X140.038000 Y626.693540 Z-19.500000 I-7.112847 J-7.067686
G01 X140.037990 Y520.469040 Z-19.500000
G02 X137.318485 Y515.304929 Z-19.500000 I-6.616824 J0.186404
G02 X131.838406 Y513.407502 Z-19.500000 I-5.848635 J8.029418
G02 X126.624697 Y514.938747 Z-19.500000 I-0.317794 J8.559605
G02 X123.363370 Y520.765240 Z-19.500000 I4.368498 J6.271223
G00 Z5.000000

(End cutting path id: path4655-9)


(Start cutting path id: path4653-9)
(Change tool to Cylindrical cutter)

G00 Z5.000000
G00 X9.294478 Y749.419840

G01 Z-3.000000 F400.0(Penetrate)
G01 X46.620238 Y749.777240 Z-3.000000 F400.000000
G03 X48.610036 Y745.028461 Z-3.000000 I19.263836 J5.280524
G03 X53.065604 Y738.197727 Z-3.000000 I67.917481 J39.432878
G03 X58.200383 Y731.790816 Z-3.000000 I72.621038 J52.940595
G03 X61.833638 Y728.209940 Z-3.000000 I26.870817 J23.630233
G03 X71.288469 Y722.576898 Z-3.000000 I42.577677 J60.713596
G03 X78.283850 Y719.799077 Z-3.000000 I19.790622 J39.641559
G03 X85.658035 Y718.293686 Z-3.000000 I11.882998 J39.395070
G03 X92.460588 Y717.949740 Z-3.000000 I6.299043 J57.140030
G03 X99.415277 Y718.561329 Z-3.000000 I-5.694481 J104.603276
G03 X105.795918 Y720.010115 Z-3.000000 I-3.870738 J31.822211
G03 X111.772850 Y722.714115 Z-3.000000 I-10.575618 J31.334100
G03 X121.085800 Y729.047440 Z-3.000000 I-38.636518 J66.827611
G03 X125.555970 Y733.344517 Z-3.000000 I-19.989549 J25.268415
G03 X129.483362 Y738.587115 Z-3.000000 I-37.804172 J32.412642
G03 X132.811843 Y744.296444 Z-3.000000 I-56.184741 J36.580029
G03 X135.898840 Y750.614840 Z-3.000000 I-129.807069 J67.333527
G01 X173.331780 Y750.196040 Z-3.000000
G01 X173.331770 Y709.364640 Z-3.000000
G03 X175.659162 Y695.296118 Z-3.000000 I186.850044 J23.684309
G03 X178.635568 Y682.239265 Z-3.000000 I293.991783 J60.149916
G03 X182.089933 Y669.278605 Z-3.000000 I463.620596 J116.626711
G02 X185.542520 Y656.807240 Z-3.000000 I-1407.836036 J-396.460579
G03 X190.744714 Y636.834834 Z-3.000000 I2118.500655 J541.140216
G02 X195.464839 Y617.563352 Z-3.000000 I-496.124647 J-131.728578
G02 X199.141400 Y598.139631 Z-3.000000 I-285.362071 J-64.073725
G02 X200.652880 Y580.649940 Z-3.000000 I-129.453690 J-19.997700
G03 X200.492160 Y570.395551 Z-3.000000 I201.800371 J-8.291326
G02 X200.268187 Y561.919552 Z-3.000000 I-117.333913 J-1.140487
G02 X199.339768 Y552.993770 Z-3.000000 I-109.024355 J6.829048
G02 X195.331040 Y529.716840 Z-3.000000 I-452.720457 J65.983372
G02 X189.665271 Y508.122209 Z-3.000000 I-1108.669758 J279.340393
G03 X183.646515 Y485.730940 Z-3.000000 I2976.582246 J-812.107533
G03 X177.948583 Y463.235310 Z-3.000000 I1042.294997 J-275.972988
G03 X174.073840 Y444.743240 Z-3.000000 I298.509050 J-72.200187
G01 X174.522780 Y400.435240 Z-3.000000
G01 X137.207090 Y400.077840 Z-3.000000
G03 X132.574500 Y408.166013 Z-3.000000 I-88.578564 J-45.363572
G03 X127.307051 Y415.229077 Z-3.000000 I-50.403462 J-32.093892
G03 X121.047560 Y421.328569 Z-3.000000 I-39.455730 J-34.229126
G03 X112.912900 Y426.854640 Z-3.000000 I-34.022073 J-41.331886
G03 X102.398610 Y430.832614 Z-3.000000 I-17.363995 J-30.010949
G03 X91.774031 Y431.685465 Z-3.000000 I-8.885913 J-44.092791
G03 X80.962905 Y430.119155 Z-3.000000 I2.010409 J-51.970343
G03 X72.179998 Y427.038540 Z-3.000000 I13.016794 J-51.171635
G03 X63.728583 Y421.211201 Z-3.000000 I22.293323 J-41.374333
G03 X58.071924 Y415.296090 Z-3.000000 I28.326938 J-32.751540
G03 X53.388912 Y408.411129 Z-3.000000 I45.979628 J-36.309547
G03 X48.860698 Y400.373940 Z-3.000000 I304.493994 J-176.848459
G01 X9.807948 Y400.113740 Z-3.000000
G01 X10.232588 Y455.137440 Z-3.000000
G03 X13.480673 Y467.118757 Z-3.000000 I-25760.137541 J6989.965215
G03 X16.783662 Y479.324465 Z-3.000000 I-27754.130303 J7517.021585
G03 X23.115903 Y502.789056 Z-3.000000 I-24654.093653 J6665.831515
G03 X24.000338 Y506.229040 Z-3.000000 I-149.702142 J40.322765
G03 X27.961207 Y521.576168 Z-3.000000 I-238.247002 J69.672755
G03 X30.954580 Y535.784302 Z-3.000000 I-545.015564 J122.243394
G03 X32.521765 Y544.010075 Z-3.000000 I-643.816010 J126.922801
G03 X33.756238 Y551.139740 Z-3.000000 I-340.884346 J62.694472
G03 X34.636709 Y573.134537 Z-3.000000 I-209.357016 J19.395769
G03 X33.297182 Y594.208265 Z-3.000000 I-206.623499 J-2.554350
G03 X29.819301 Y615.049174 Z-3.000000 I-206.856691 J-23.809098
G03 X24.362188 Y635.214440 Z-3.000000 I-211.851595 J-46.510132
G01 X9.421838 Y693.624340 Z-3.000000
G01 X9.294478 Y749.419840 Z-3.000000
G00 Z5.000000

(End cutting path id: path4653-9)


(Start cutting path id: path4653-9)
(Change tool to Cylindrical cutter)

G00 Z5.000000
G00 X9.294478 Y749.419840

G01 Z-6.000000 F400.0(Penetrate)
G01 X46.620238 Y749.777240 Z-6.000000 F400.000000
G03 X48.610036 Y745.028461 Z-6.000000 I19.263836 J5.280524
G03 X53.065604 Y738.197727 Z-6.000000 I67.917481 J39.432878
G03 X58.200383 Y731.790816 Z-6.000000 I72.621038 J52.940595
G03 X61.833638 Y728.209940 Z-6.000000 I26.870817 J23.630233
G03 X71.288469 Y722.576898 Z-6.000000 I42.577677 J60.713596
G03 X78.283850 Y719.799077 Z-6.000000 I19.790622 J39.641559
G03 X85.658035 Y718.293686 Z-6.000000 I11.882998 J39.395070
G03 X92.460588 Y717.949740 Z-6.000000 I6.299043 J57.140030
G03 X99.415277 Y718.561329 Z-6.000000 I-5.694481 J104.603276
G03 X105.795918 Y720.010115 Z-6.000000 I-3.870738 J31.822211
G03 X111.772850 Y722.714115 Z-6.000000 I-10.575618 J31.334100
G03 X121.085800 Y729.047440 Z-6.000000 I-38.636518 J66.827611
G03 X125.555970 Y733.344517 Z-6.000000 I-19.989549 J25.268415
G03 X129.483362 Y738.587115 Z-6.000000 I-37.804172 J32.412642
G03 X132.811843 Y744.296444 Z-6.000000 I-56.184741 J36.580029
G03 X135.898840 Y750.614840 Z-6.000000 I-129.807069 J67.333527
G01 X173.331780 Y750.196040 Z-6.000000
G01 X173.331770 Y709.364640 Z-6.000000
G03 X175.659162 Y695.296118 Z-6.000000 I186.850044 J23.684309
G03 X178.635568 Y682.239265 Z-6.000000 I293.991783 J60.149916
G03 X182.089933 Y669.278605 Z-6.000000 I463.620596 J116.626711
G02 X185.542520 Y656.807240 Z-6.000000 I-1407.836036 J-396.460579
G03 X190.744714 Y636.834834 Z-6.000000 I2118.500655 J541.140216
G02 X195.464839 Y617.563352 Z-6.000000 I-496.124647 J-131.728578
G02 X199.141400 Y598.139631 Z-6.000000 I-285.362071 J-64.073725
G02 X200.652880 Y580.649940 Z-6.000000 I-129.453690 J-19.997700
G03 X200.492160 Y570.395551 Z-6.000000 I201.800371 J-8.291326
G02 X200.268187 Y561.919552 Z-6.000000 I-117.333913 J-1.140487
G02 X199.339768 Y552.993770 Z-6.000000 I-109.024355 J6.829048
G02 X195.331040 Y529.716840 Z-6.000000 I-452.720457 J65.983372
G02 X189.665271 Y508.122209 Z-6.000000 I-1108.669758 J279.340393
G03 X183.646515 Y485.730940 Z-6.000000 I2976.582246 J-812.107533
G03 X177.948583 Y463.235310 Z-6.000000 I1042.294997 J-275.972988
G03 X174.073840 Y444.743240 Z-6.000000 I298.509050 J-72.200187
G01 X174.522780 Y400.435240 Z-6.000000
G01 X137.207090 Y400.077840 Z-6.000000
G03 X132.574500 Y408.166013 Z-6.000000 I-88.578564 J-45.363572
G03 X127.307051 Y415.229077 Z-6.000000 I-50.403462 J-32.093892
G03 X121.047560 Y421.328569 Z-6.000000 I-39.455730 J-34.229126
G03 X112.912900 Y426.854640 Z-6.000000 I-34.022073 J-41.331886
G03 X102.398610 Y430.832614 Z-6.000000 I-17.363995 J-30.010949
G03 X91.774031 Y431.685465 Z-6.000000 I-8.885913 J-44.092791
G03 X80.962905 Y430.119155 Z-6.000000 I2.010409 J-51.970343
G03 X72.179998 Y427.038540 Z-6.000000 I13.016794 J-51.171635
G03 X63.728583 Y421.211201 Z-6.000000 I22.293323 J-41.374333
G03 X58.071924 Y415.296090 Z-6.000000 I28.326938 J-32.751540
G03 X53.388912 Y408.411129 Z-6.000000 I45.979628 J-36.309547
G03 X48.860698 Y400.373940 Z-6.000000 I304.493994 J-176.848459
G01 X9.807948 Y400.113740 Z-6.000000
G01 X10.232588 Y455.137440 Z-6.000000
G03 X13.480673 Y467.118757 Z-6.000000 I-25760.137541 J6989.965215
G03 X16.783662 Y479.324465 Z-6.000000 I-27754.130303 J7517.021585
G03 X23.115903 Y502.789056 Z-6.000000 I-24654.093653 J6665.831515
G03 X24.000338 Y506.229040 Z-6.000000 I-149.702142 J40.322765
G03 X27.961207 Y521.576168 Z-6.000000 I-238.247002 J69.672755
G03 X30.954580 Y535.784302 Z-6.000000 I-545.015564 J122.243394
G03 X32.521765 Y544.010075 Z-6.000000 I-643.816010 J126.922801
G03 X33.756238 Y551.139740 Z-6.000000 I-340.884346 J62.694472
G03 X34.636709 Y573.134537 Z-6.000000 I-209.357016 J19.395769
G03 X33.297182 Y594.208265 Z-6.000000 I-206.623499 J-2.554350
G03 X29.819301 Y615.049174 Z-6.000000 I-206.856691 J-23.809098
G03 X24.362188 Y635.214440 Z-6.000000 I-211.851595 J-46.510132
G01 X9.421838 Y693.624340 Z-6.000000
G01 X9.294478 Y749.419840 Z-6.000000
G00 Z5.000000

(End cutting path id: path4653-9)


(Start cutting path id: path4653-9)
(Change tool to Cylindrical cutter)

G00 Z5.000000
G00 X9.294478 Y749.419840

G01 Z-9.000000 F400.0(Penetrate)
G01 X46.620238 Y749.777240 Z-9.000000 F400.000000
G03 X48.610036 Y745.028461 Z-9.000000 I19.263836 J5.280524
G03 X53.065604 Y738.197727 Z-9.000000 I67.917481 J39.432878
G03 X58.200383 Y731.790816 Z-9.000000 I72.621038 J52.940595
G03 X61.833638 Y728.209940 Z-9.000000 I26.870817 J23.630233
G03 X71.288469 Y722.576898 Z-9.000000 I42.577677 J60.713596
G03 X78.283850 Y719.799077 Z-9.000000 I19.790622 J39.641559
G03 X85.658035 Y718.293686 Z-9.000000 I11.882998 J39.395070
G03 X92.460588 Y717.949740 Z-9.000000 I6.299043 J57.140030
G03 X99.415277 Y718.561329 Z-9.000000 I-5.694481 J104.603276
G03 X105.795918 Y720.010115 Z-9.000000 I-3.870738 J31.822211
G03 X111.772850 Y722.714115 Z-9.000000 I-10.575618 J31.334100
G03 X121.085800 Y729.047440 Z-9.000000 I-38.636518 J66.827611
G03 X125.555970 Y733.344517 Z-9.000000 I-19.989549 J25.268415
G03 X129.483362 Y738.587115 Z-9.000000 I-37.804172 J32.412642
G03 X132.811843 Y744.296444 Z-9.000000 I-56.184741 J36.580029
G03 X135.898840 Y750.614840 Z-9.000000 I-129.807069 J67.333527
G01 X173.331780 Y750.196040 Z-9.000000
G01 X173.331770 Y709.364640 Z-9.000000
G03 X175.659162 Y695.296118 Z-9.000000 I186.850044 J23.684309
G03 X178.635568 Y682.239265 Z-9.000000 I293.991783 J60.149916
G03 X182.089933 Y669.278605 Z-9.000000 I463.620596 J116.626711
G02 X185.542520 Y656.807240 Z-9.000000 I-1407.836036 J-396.460579
G03 X190.744714 Y636.834834 Z-9.000000 I2118.500655 J541.140216
G02 X195.464839 Y617.563352 Z-9.000000 I-496.124647 J-131.728578
G02 X199.141400 Y598.139631 Z-9.000000 I-285.362071 J-64.073725
G02 X200.652880 Y580.649940 Z-9.000000 I-129.453690 J-19.997700
G03 X200.492160 Y570.395551 Z-9.000000 I201.800371 J-8.291326
G02 X200.268187 Y561.919552 Z-9.000000 I-117.333913 J-1.140487
G02 X199.339768 Y552.993770 Z-9.000000 I-109.024355 J6.829048
G02 X195.331040 Y529.716840 Z-9.000000 I-452.720457 J65.983372
G02 X189.665271 Y508.122209 Z-9.000000 I-1108.669758 J279.340393
G03 X183.646515 Y485.730940 Z-9.000000 I2976.582246 J-812.107533
G03 X177.948583 Y463.235310 Z-9.000000 I1042.294997 J-275.972988
G03 X174.073840 Y444.743240 Z-9.000000 I298.509050 J-72.200187
G01 X174.522780 Y400.435240 Z-9.000000
G01 X137.207090 Y400.077840 Z-9.000000
G03 X132.574500 Y408.166013 Z-9.000000 I-88.578564 J-45.363572
G03 X127.307051 Y415.229077 Z-9.000000 I-50.403462 J-32.093892
G03 X121.047560 Y421.328569 Z-9.000000 I-39.455730 J-34.229126
G03 X112.912900 Y426.854640 Z-9.000000 I-34.022073 J-41.331886
G03 X102.398610 Y430.832614 Z-9.000000 I-17.363995 J-30.010949
G03 X91.774031 Y431.685465 Z-9.000000 I-8.885913 J-44.092791
G03 X80.962905 Y430.119155 Z-9.000000 I2.010409 J-51.970343
G03 X72.179998 Y427.038540 Z-9.000000 I13.016794 J-51.171635
G03 X63.728583 Y421.211201 Z-9.000000 I22.293323 J-41.374333
G03 X58.071924 Y415.296090 Z-9.000000 I28.326938 J-32.751540
G03 X53.388912 Y408.411129 Z-9.000000 I45.979628 J-36.309547
G03 X48.860698 Y400.373940 Z-9.000000 I304.493994 J-176.848459
G01 X9.807948 Y400.113740 Z-9.000000
G01 X10.232588 Y455.137440 Z-9.000000
G03 X13.480673 Y467.118757 Z-9.000000 I-25760.137541 J6989.965215
G03 X16.783662 Y479.324465 Z-9.000000 I-27754.130303 J7517.021585
G03 X23.115903 Y502.789056 Z-9.000000 I-24654.093653 J6665.831515
G03 X24.000338 Y506.229040 Z-9.000000 I-149.702142 J40.322765
G03 X27.961207 Y521.576168 Z-9.000000 I-238.247002 J69.672755
G03 X30.954580 Y535.784302 Z-9.000000 I-545.015564 J122.243394
G03 X32.521765 Y544.010075 Z-9.000000 I-643.816010 J126.922801
G03 X33.756238 Y551.139740 Z-9.000000 I-340.884346 J62.694472
G03 X34.636709 Y573.134537 Z-9.000000 I-209.357016 J19.395769
G03 X33.297182 Y594.208265 Z-9.000000 I-206.623499 J-2.554350
G03 X29.819301 Y615.049174 Z-9.000000 I-206.856691 J-23.809098
G03 X24.362188 Y635.214440 Z-9.000000 I-211.851595 J-46.510132
G01 X9.421838 Y693.624340 Z-9.000000
G01 X9.294478 Y749.419840 Z-9.000000
G00 Z5.000000

(End cutting path id: path4653-9)


(Start cutting path id: path4653-9)
(Change tool to Cylindrical cutter)

G00 Z5.000000
G00 X9.294478 Y749.419840

G01 Z-12.000000 F400.0(Penetrate)
G01 X46.620238 Y749.777240 Z-12.000000 F400.000000
G03 X48.610036 Y745.028461 Z-12.000000 I19.263836 J5.280524
G03 X53.065604 Y738.197727 Z-12.000000 I67.917481 J39.432878
G03 X58.200383 Y731.790816 Z-12.000000 I72.621038 J52.940595
G03 X61.833638 Y728.209940 Z-12.000000 I26.870817 J23.630233
G03 X71.288469 Y722.576898 Z-12.000000 I42.577677 J60.713596
G03 X78.283850 Y719.799077 Z-12.000000 I19.790622 J39.641559
G03 X85.658035 Y718.293686 Z-12.000000 I11.882998 J39.395070
G03 X92.460588 Y717.949740 Z-12.000000 I6.299043 J57.140030
G03 X99.415277 Y718.561329 Z-12.000000 I-5.694481 J104.603276
G03 X105.795918 Y720.010115 Z-12.000000 I-3.870738 J31.822211
G03 X111.772850 Y722.714115 Z-12.000000 I-10.575618 J31.334100
G03 X121.085800 Y729.047440 Z-12.000000 I-38.636518 J66.827611
G03 X125.555970 Y733.344517 Z-12.000000 I-19.989549 J25.268415
G03 X129.483362 Y738.587115 Z-12.000000 I-37.804172 J32.412642
G03 X132.811843 Y744.296444 Z-12.000000 I-56.184741 J36.580029
G03 X135.898840 Y750.614840 Z-12.000000 I-129.807069 J67.333527
G01 X173.331780 Y750.196040 Z-12.000000
G01 X173.331770 Y709.364640 Z-12.000000
G03 X175.659162 Y695.296118 Z-12.000000 I186.850044 J23.684309
G03 X178.635568 Y682.239265 Z-12.000000 I293.991783 J60.149916
G03 X182.089933 Y669.278605 Z-12.000000 I463.620596 J116.626711
G02 X185.542520 Y656.807240 Z-12.000000 I-1407.836036 J-396.460579
G03 X190.744714 Y636.834834 Z-12.000000 I2118.500655 J541.140216
G02 X195.464839 Y617.563352 Z-12.000000 I-496.124647 J-131.728578
G02 X199.141400 Y598.139631 Z-12.000000 I-285.362071 J-64.073725
G02 X200.652880 Y580.649940 Z-12.000000 I-129.453690 J-19.997700
G03 X200.492160 Y570.395551 Z-12.000000 I201.800371 J-8.291326
G02 X200.268187 Y561.919552 Z-12.000000 I-117.333913 J-1.140487
G02 X199.339768 Y552.993770 Z-12.000000 I-109.024355 J6.829048
G02 X195.331040 Y529.716840 Z-12.000000 I-452.720457 J65.983372
G02 X189.665271 Y508.122209 Z-12.000000 I-1108.669758 J279.340393
G03 X183.646515 Y485.730940 Z-12.000000 I2976.582246 J-812.107533
G03 X177.948583 Y463.235310 Z-12.000000 I1042.294997 J-275.972988
G03 X174.073840 Y444.743240 Z-12.000000 I298.509050 J-72.200187
G01 X174.522780 Y400.435240 Z-12.000000
G01 X137.207090 Y400.077840 Z-12.000000
G03 X132.574500 Y408.166013 Z-12.000000 I-88.578564 J-45.363572
G03 X127.307051 Y415.229077 Z-12.000000 I-50.403462 J-32.093892
G03 X121.047560 Y421.328569 Z-12.000000 I-39.455730 J-34.229126
G03 X112.912900 Y426.854640 Z-12.000000 I-34.022073 J-41.331886
G03 X102.398610 Y430.832614 Z-12.000000 I-17.363995 J-30.010949
G03 X91.774031 Y431.685465 Z-12.000000 I-8.885913 J-44.092791
G03 X80.962905 Y430.119155 Z-12.000000 I2.010409 J-51.970343
G03 X72.179998 Y427.038540 Z-12.000000 I13.016794 J-51.171635
G03 X63.728583 Y421.211201 Z-12.000000 I22.293323 J-41.374333
G03 X58.071924 Y415.296090 Z-12.000000 I28.326938 J-32.751540
G03 X53.388912 Y408.411129 Z-12.000000 I45.979628 J-36.309547
G03 X48.860698 Y400.373940 Z-12.000000 I304.493994 J-176.848459
G01 X9.807948 Y400.113740 Z-12.000000
G01 X10.232588 Y455.137440 Z-12.000000
G03 X13.480673 Y467.118757 Z-12.000000 I-25760.137541 J6989.965215
G03 X16.783662 Y479.324465 Z-12.000000 I-27754.130303 J7517.021585
G03 X23.115903 Y502.789056 Z-12.000000 I-24654.093653 J6665.831515
G03 X24.000338 Y506.229040 Z-12.000000 I-149.702142 J40.322765
G03 X27.961207 Y521.576168 Z-12.000000 I-238.247002 J69.672755
G03 X30.954580 Y535.784302 Z-12.000000 I-545.015564 J122.243394
G03 X32.521765 Y544.010075 Z-12.000000 I-643.816010 J126.922801
G03 X33.756238 Y551.139740 Z-12.000000 I-340.884346 J62.694472
G03 X34.636709 Y573.134537 Z-12.000000 I-209.357016 J19.395769
G03 X33.297182 Y594.208265 Z-12.000000 I-206.623499 J-2.554350
G03 X29.819301 Y615.049174 Z-12.000000 I-206.856691 J-23.809098
G03 X24.362188 Y635.214440 Z-12.000000 I-211.851595 J-46.510132
G01 X9.421838 Y693.624340 Z-12.000000
G01 X9.294478 Y749.419840 Z-12.000000
G00 Z5.000000

(End cutting path id: path4653-9)


(Start cutting path id: path4653-9)
(Change tool to Cylindrical cutter)

G00 Z5.000000
G00 X9.294478 Y749.419840

G01 Z-15.000000 F400.0(Penetrate)
G01 X46.620238 Y749.777240 Z-15.000000 F400.000000
G03 X48.610036 Y745.028461 Z-15.000000 I19.263836 J5.280524
G03 X53.065604 Y738.197727 Z-15.000000 I67.917481 J39.432878
G03 X58.200383 Y731.790816 Z-15.000000 I72.621038 J52.940595
G03 X61.833638 Y728.209940 Z-15.000000 I26.870817 J23.630233
G03 X71.288469 Y722.576898 Z-15.000000 I42.577677 J60.713596
G03 X78.283850 Y719.799077 Z-15.000000 I19.790622 J39.641559
G03 X85.658035 Y718.293686 Z-15.000000 I11.882998 J39.395070
G03 X92.460588 Y717.949740 Z-15.000000 I6.299043 J57.140030
G03 X99.415277 Y718.561329 Z-15.000000 I-5.694481 J104.603276
G03 X105.795918 Y720.010115 Z-15.000000 I-3.870738 J31.822211
G03 X111.772850 Y722.714115 Z-15.000000 I-10.575618 J31.334100
G03 X121.085800 Y729.047440 Z-15.000000 I-38.636518 J66.827611
G03 X125.555970 Y733.344517 Z-15.000000 I-19.989549 J25.268415
G03 X129.483362 Y738.587115 Z-15.000000 I-37.804172 J32.412642
G03 X132.811843 Y744.296444 Z-15.000000 I-56.184741 J36.580029
G03 X135.898840 Y750.614840 Z-15.000000 I-129.807069 J67.333527
G01 X173.331780 Y750.196040 Z-15.000000
G01 X173.331770 Y709.364640 Z-15.000000
G03 X175.659162 Y695.296118 Z-15.000000 I186.850044 J23.684309
G03 X178.635568 Y682.239265 Z-15.000000 I293.991783 J60.149916
G03 X182.089933 Y669.278605 Z-15.000000 I463.620596 J116.626711
G02 X185.542520 Y656.807240 Z-15.000000 I-1407.836036 J-396.460579
G03 X190.744714 Y636.834834 Z-15.000000 I2118.500655 J541.140216
G02 X195.464839 Y617.563352 Z-15.000000 I-496.124647 J-131.728578
G02 X199.141400 Y598.139631 Z-15.000000 I-285.362071 J-64.073725
G02 X200.652880 Y580.649940 Z-15.000000 I-129.453690 J-19.997700
G03 X200.492160 Y570.395551 Z-15.000000 I201.800371 J-8.291326
G02 X200.268187 Y561.919552 Z-15.000000 I-117.333913 J-1.140487
G02 X199.339768 Y552.993770 Z-15.000000 I-109.024355 J6.829048
G02 X195.331040 Y529.716840 Z-15.000000 I-452.720457 J65.983372
G02 X189.665271 Y508.122209 Z-15.000000 I-1108.669758 J279.340393
G03 X183.646515 Y485.730940 Z-15.000000 I2976.582246 J-812.107533
G03 X177.948583 Y463.235310 Z-15.000000 I1042.294997 J-275.972988
G03 X174.073840 Y444.743240 Z-15.000000 I298.509050 J-72.200187
G01 X174.522780 Y400.435240 Z-15.000000
G01 X137.207090 Y400.077840 Z-15.000000
G03 X132.574500 Y408.166013 Z-15.000000 I-88.578564 J-45.363572
G03 X127.307051 Y415.229077 Z-15.000000 I-50.403462 J-32.093892
G03 X121.047560 Y421.328569 Z-15.000000 I-39.455730 J-34.229126
G03 X112.912900 Y426.854640 Z-15.000000 I-34.022073 J-41.331886
G03 X102.398610 Y430.832614 Z-15.000000 I-17.363995 J-30.010949
G03 X91.774031 Y431.685465 Z-15.000000 I-8.885913 J-44.092791
G03 X80.962905 Y430.119155 Z-15.000000 I2.010409 J-51.970343
G03 X72.179998 Y427.038540 Z-15.000000 I13.016794 J-51.171635
G03 X63.728583 Y421.211201 Z-15.000000 I22.293323 J-41.374333
G03 X58.071924 Y415.296090 Z-15.000000 I28.326938 J-32.751540
G03 X53.388912 Y408.411129 Z-15.000000 I45.979628 J-36.309547
G03 X48.860698 Y400.373940 Z-15.000000 I304.493994 J-176.848459
G01 X9.807948 Y400.113740 Z-15.000000
G01 X10.232588 Y455.137440 Z-15.000000
G03 X13.480673 Y467.118757 Z-15.000000 I-25760.137541 J6989.965215
G03 X16.783662 Y479.324465 Z-15.000000 I-27754.130303 J7517.021585
G03 X23.115903 Y502.789056 Z-15.000000 I-24654.093653 J6665.831515
G03 X24.000338 Y506.229040 Z-15.000000 I-149.702142 J40.322765
G03 X27.961207 Y521.576168 Z-15.000000 I-238.247002 J69.672755
G03 X30.954580 Y535.784302 Z-15.000000 I-545.015564 J122.243394
G03 X32.521765 Y544.010075 Z-15.000000 I-643.816010 J126.922801
G03 X33.756238 Y551.139740 Z-15.000000 I-340.884346 J62.694472
G03 X34.636709 Y573.134537 Z-15.000000 I-209.357016 J19.395769
G03 X33.297182 Y594.208265 Z-15.000000 I-206.623499 J-2.554350
G03 X29.819301 Y615.049174 Z-15.000000 I-206.856691 J-23.809098
G03 X24.362188 Y635.214440 Z-15.000000 I-211.851595 J-46.510132
G01 X9.421838 Y693.624340 Z-15.000000
G01 X9.294478 Y749.419840 Z-15.000000
G00 Z5.000000

(End cutting path id: path4653-9)


(Start cutting path id: path4653-9)
(Change tool to Cylindrical cutter)

G00 Z5.000000
G00 X9.294478 Y749.419840

G01 Z-18.000000 F400.0(Penetrate)
G01 X46.620238 Y749.777240 Z-18.000000 F400.000000
G03 X48.610036 Y745.028461 Z-18.000000 I19.263836 J5.280524
G03 X53.065604 Y738.197727 Z-18.000000 I67.917481 J39.432878
G03 X58.200383 Y731.790816 Z-18.000000 I72.621038 J52.940595
G03 X61.833638 Y728.209940 Z-18.000000 I26.870817 J23.630233
G03 X71.288469 Y722.576898 Z-18.000000 I42.577677 J60.713596
G03 X78.283850 Y719.799077 Z-18.000000 I19.790622 J39.641559
G03 X85.658035 Y718.293686 Z-18.000000 I11.882998 J39.395070
G03 X92.460588 Y717.949740 Z-18.000000 I6.299043 J57.140030
G03 X99.415277 Y718.561329 Z-18.000000 I-5.694481 J104.603276
G03 X105.795918 Y720.010115 Z-18.000000 I-3.870738 J31.822211
G03 X111.772850 Y722.714115 Z-18.000000 I-10.575618 J31.334100
G03 X121.085800 Y729.047440 Z-18.000000 I-38.636518 J66.827611
G03 X125.555970 Y733.344517 Z-18.000000 I-19.989549 J25.268415
G03 X129.483362 Y738.587115 Z-18.000000 I-37.804172 J32.412642
G03 X132.811843 Y744.296444 Z-18.000000 I-56.184741 J36.580029
G03 X135.898840 Y750.614840 Z-18.000000 I-129.807069 J67.333527
G01 X173.331780 Y750.196040 Z-18.000000
G00 Z5
G01 X174.522780 Y400.435240
G01 Z-18.0
G01 X174.522780 Y400.435240 Z-18.00000
G01 X137.207090 Y400.077840 Z-18.000000
G03 X132.574500 Y408.166013 Z-18.000000 I-88.578564 J-45.363572
G03 X127.307051 Y415.229077 Z-18.000000 I-50.403462 J-32.093892
G03 X121.047560 Y421.328569 Z-18.000000 I-39.455730 J-34.229126
G03 X112.912900 Y426.854640 Z-18.000000 I-34.022073 J-41.331886
G03 X102.398610 Y430.832614 Z-18.000000 I-17.363995 J-30.010949
G03 X91.774031 Y431.685465 Z-18.000000 I-8.885913 J-44.092791
G03 X80.962905 Y430.119155 Z-18.000000 I2.010409 J-51.970343
G03 X72.179998 Y427.038540 Z-18.000000 I13.016794 J-51.171635
G03 X63.728583 Y421.211201 Z-18.000000 I22.293323 J-41.374333
G03 X58.071924 Y415.296090 Z-18.000000 I28.326938 J-32.751540
G03 X53.388912 Y408.411129 Z-18.000000 I45.979628 J-36.309547
G03 X48.860698 Y400.373940 Z-18.000000 I304.493994 J-176.848459
G01 X9.807948 Y400.113740 Z-18.000000
G01 X10.232588 Y455.137440 Z-18.000000
G03 X13.480673 Y467.118757 Z-18.000000 I-25760.137541 J6989.965215
G03 X16.783662 Y479.324465 Z-18.000000 I-27754.130303 J7517.021585
G03 X23.115903 Y502.789056 Z-18.000000 I-24654.093653 J6665.831515
G03 X24.000338 Y506.229040 Z-18.000000 I-149.702142 J40.322765
G03 X27.961207 Y521.576168 Z-18.000000 I-238.247002 J69.672755
G03 X30.954580 Y535.784302 Z-18.000000 I-545.015564 J122.243394
G03 X32.521765 Y544.010075 Z-18.000000 I-643.816010 J126.922801
G03 X33.756238 Y551.139740 Z-18.000000 I-340.884346 J62.694472
G03 X34.636709 Y573.134537 Z-18.000000 I-209.357016 J19.395769
G03 X33.297182 Y594.208265 Z-18.000000 I-206.623499 J-2.554350
G03 X29.819301 Y615.049174 Z-18.000000 I-206.856691 J-23.809098
G03 X24.362188 Y635.214440 Z-18.000000 I-211.851595 J-46.510132
G01 X9.421838 Y693.624340 Z-18.000000
G01 X9.294478 Y749.419840 Z-18.000000
G00 Z5.000000

(End cutting path id: path4653-9)


(Start cutting path id: path4653-9)
(Change tool to Cylindrical cutter)

G00 Z5.000000
G00 X9.294478 Y749.419840

G01 Z-19.500000 F400.0(Penetrate)
G01 X46.620238 Y749.777240 Z-19.500000 F400.000000
G03 X48.610036 Y745.028461 Z-19.500000 I19.263836 J5.280524
G03 X53.065604 Y738.197727 Z-19.500000 I67.917481 J39.432878
G03 X58.200383 Y731.790816 Z-19.500000 I72.621038 J52.940595
G03 X61.833638 Y728.209940 Z-19.500000 I26.870817 J23.630233
G03 X71.288469 Y722.576898 Z-19.500000 I42.577677 J60.713596
G03 X78.283850 Y719.799077 Z-19.500000 I19.790622 J39.641559
G03 X85.658035 Y718.293686 Z-19.500000 I11.882998 J39.395070
G03 X92.460588 Y717.949740 Z-19.500000 I6.299043 J57.140030
G03 X99.415277 Y718.561329 Z-19.500000 I-5.694481 J104.603276
G03 X105.795918 Y720.010115 Z-19.500000 I-3.870738 J31.822211
G03 X111.772850 Y722.714115 Z-19.500000 I-10.575618 J31.334100
G03 X121.085800 Y729.047440 Z-19.500000 I-38.636518 J66.827611
G03 X125.555970 Y733.344517 Z-19.500000 I-19.989549 J25.268415
G03 X129.483362 Y738.587115 Z-19.500000 I-37.804172 J32.412642
G03 X132.811843 Y744.296444 Z-19.500000 I-56.184741 J36.580029
G03 X135.898840 Y750.614840 Z-19.500000 I-129.807069 J67.333527
G01 X173.331780 Y750.196040 Z-19.500000
G0 Z5
G01 X174.522780 Y400.435240
G01 Z-19.500000
G01 X174.522780 Y400.435240 Z-19.500000
G01 X137.207090 Y400.077840 Z-19.500000
G03 X132.574500 Y408.166013 Z-19.500000 I-88.578564 J-45.363572
G03 X127.307051 Y415.229077 Z-19.500000 I-50.403462 J-32.093892
G03 X121.047560 Y421.328569 Z-19.500000 I-39.455730 J-34.229126
G03 X112.912900 Y426.854640 Z-19.500000 I-34.022073 J-41.331886
G03 X102.398610 Y430.832614 Z-19.500000 I-17.363995 J-30.010949
G03 X91.774031 Y431.685465 Z-19.500000 I-8.885913 J-44.092791
G03 X80.962905 Y430.119155 Z-19.500000 I2.010409 J-51.970343
G03 X72.179998 Y427.038540 Z-19.500000 I13.016794 J-51.171635
G03 X63.728583 Y421.211201 Z-19.500000 I22.293323 J-41.374333
G03 X58.071924 Y415.296090 Z-19.500000 I28.326938 J-32.751540
G03 X53.388912 Y408.411129 Z-19.500000 I45.979628 J-36.309547
G03 X48.860698 Y400.373940 Z-19.500000 I304.493994 J-176.848459
G01 X9.807948 Y400.113740 Z-19.500000
G01 X10.232588 Y455.137440 Z-19.500000
G03 X13.480673 Y467.118757 Z-19.500000 I-25760.137541 J6989.965215
G03 X16.783662 Y479.324465 Z-19.500000 I-27754.130303 J7517.021585
G03 X23.115903 Y502.789056 Z-19.500000 I-24654.093653 J6665.831515
G03 X24.000338 Y506.229040 Z-19.500000 I-149.702142 J40.322765
G03 X27.961207 Y521.576168 Z-19.500000 I-238.247002 J69.672755
G03 X30.954580 Y535.784302 Z-19.500000 I-545.015564 J122.243394
G03 X32.521765 Y544.010075 Z-19.500000 I-643.816010 J126.922801
G03 X33.756238 Y551.139740 Z-19.500000 I-340.884346 J62.694472
G03 X34.636709 Y573.134537 Z-19.500000 I-209.357016 J19.395769
G03 X33.297182 Y594.208265 Z-19.500000 I-206.623499 J-2.554350
G03 X29.819301 Y615.049174 Z-19.500000 I-206.856691 J-23.809098
G03 X24.362188 Y635.214440 Z-19.500000 I-211.851595 J-46.510132
G01 X9.421838 Y693.624340 Z-19.500000
G01 X9.294478 Y749.419840 Z-19.500000
G00 Z5.000000

(End cutting path id: path4653-9)


(Start cutting path id: path4657-9)
(Change tool to Cylindrical cutter)

G00 Z5.000000
G00 X44.997468 Y16.188490

G01 Z-3.000000 F400.0(Penetrate)
G01 X108.957120 Y16.828800 Z-3.000000 F400.000000
G01 X109.192120 Y366.902800 Z-3.000000

G01 X44.272110 Y366.692800 Z-3.000000
G01 X44.272099 Y328.681190 Z-3.000000
G01 X59.686058 Y281.639310 Z-3.000000
G02 X61.803765 Y273.642327 Z-3.000000 I-46.843539 J-16.683682
G02 X62.556952 Y266.739279 Z-3.000000 I-51.128486 J-9.071210
G02 X62.460993 Y259.738876 Z-3.000000 I-63.080530 J-2.636168
G02 X61.862158 Y253.078090 Z-3.000000 I-162.865768 J11.285058
G01 X52.613769 Y212.336390 Z-3.000000
G03 X51.183352 Y201.817125 Z-3.000000 I112.469123 J-20.650514
G03 X50.806549 Y193.126251 Z-3.000000 I95.488781 J-8.493630
G03 X51.231260 Y184.433792 Z-3.000000 I93.085581 J0.191523
G03 X52.251099 Y176.844990 Z-3.000000 I100.307015 J9.617067
G01 X61.499469 Y137.363390 Z-3.000000
G02 X62.355829 Y130.155752 Z-3.000000 I-125.214499 J-18.531782
G02 X62.664248 Y122.552416 Z-3.000000 I-77.302577 J-6.943599
G02 X62.181570 Y114.990361 Z-3.000000 I-68.616320 J0.583277
G02 X60.592769 Y106.492100 Z-3.000000 I-65.240554 J7.799465
G01 X48.442959 Y68.900600 Z-3.000000
G01 X44.816128 Y53.150010 Z-3.000000

G01 X44.997468 Y16.188490 Z-3.000000
G00 Z5.000000

(End cutting path id: path4657-9)


(Start cutting path id: path4657-9)
(Change tool to Cylindrical cutter)

G00 Z5.000000
G00 X44.997468 Y16.188490

G01 Z-6.000000 F400.0(Penetrate)
G01 X108.957120 Y16.828800 Z-6.000000 F400.000000
G01 X109.192120 Y366.902800 Z-6.000000
G01 X44.272110 Y366.692800 Z-6.000000
G01 X44.272099 Y328.681190 Z-6.000000
G01 X59.686058 Y281.639310 Z-6.000000
G02 X61.803765 Y273.642327 Z-6.000000 I-46.843539 J-16.683682
G02 X62.556952 Y266.739279 Z-6.000000 I-51.128486 J-9.071210
G02 X62.460993 Y259.738876 Z-6.000000 I-63.080530 J-2.636168
G02 X61.862158 Y253.078090 Z-6.000000 I-162.865768 J11.285058
G01 X52.613769 Y212.336390 Z-6.000000
G03 X51.183352 Y201.817125 Z-6.000000 I112.469123 J-20.650514
G03 X50.806549 Y193.126251 Z-6.000000 I95.488781 J-8.493630
G03 X51.231260 Y184.433792 Z-6.000000 I93.085581 J0.191523
G03 X52.251099 Y176.844990 Z-6.000000 I100.307015 J9.617067
G01 X61.499469 Y137.363390 Z-6.000000
G02 X62.355829 Y130.155752 Z-6.000000 I-125.214499 J-18.531782
G02 X62.664248 Y122.552416 Z-6.000000 I-77.302577 J-6.943599
G02 X62.181570 Y114.990361 Z-6.000000 I-68.616320 J0.583277
G02 X60.592769 Y106.492100 Z-6.000000 I-65.240554 J7.799465
G01 X48.442959 Y68.900600 Z-6.000000
G01 X44.816128 Y53.150010 Z-6.000000
G01 X44.997468 Y16.188490 Z-6.000000
G00 Z5.000000

(End cutting path id: path4657-9)


(Start cutting path id: path4657-9)
(Change tool to Cylindrical cutter)

G00 Z5.000000
G00 X44.997468 Y16.188490

G01 Z-9.000000 F400.0(Penetrate)
G01 X108.957120 Y16.828800 Z-9.000000 F400.000000
G01 X109.192120 Y366.902800 Z-9.000000
G01 X44.272110 Y366.692800 Z-9.000000
G01 X44.272099 Y328.681190 Z-9.000000
G01 X59.686058 Y281.639310 Z-9.000000
G02 X61.803765 Y273.642327 Z-9.000000 I-46.843539 J-16.683682
G02 X62.556952 Y266.739279 Z-9.000000 I-51.128486 J-9.071210
G02 X62.460993 Y259.738876 Z-9.000000 I-63.080530 J-2.636168
G02 X61.862158 Y253.078090 Z-9.000000 I-162.865768 J11.285058
G01 X52.613769 Y212.336390 Z-9.000000
G03 X51.183352 Y201.817125 Z-9.000000 I112.469123 J-20.650514
G03 X50.806549 Y193.126251 Z-9.000000 I95.488781 J-8.493630
G03 X51.231260 Y184.433792 Z-9.000000 I93.085581 J0.191523
G03 X52.251099 Y176.844990 Z-9.000000 I100.307015 J9.617067
G01 X61.499469 Y137.363390 Z-9.000000
G02 X62.355829 Y130.155752 Z-9.000000 I-125.214499 J-18.531782
G02 X62.664248 Y122.552416 Z-9.000000 I-77.302577 J-6.943599
G02 X62.181570 Y114.990361 Z-9.000000 I-68.616320 J0.583277
G02 X60.592769 Y106.492100 Z-9.000000 I-65.240554 J7.799465
G01 X48.442959 Y68.900600 Z-9.000000
G01 X44.816128 Y53.150010 Z-9.000000
G01 X44.997468 Y16.188490 Z-9.000000
G00 Z5.000000

(End cutting path id: path4657-9)


(Start cutting path id: path4657-9)
(Change tool to Cylindrical cutter)

G00 Z5.000000
G00 X44.997468 Y16.188490

G01 Z-12.000000 F400.0(Penetrate)
G01 X108.957120 Y16.828800 Z-12.000000 F400.000000
G01 X109.192120 Y366.902800 Z-12.000000
G01 X44.272110 Y366.692800 Z-12.000000
G01 X44.272099 Y328.681190 Z-12.000000
G01 X59.686058 Y281.639310 Z-12.000000
G02 X61.803765 Y273.642327 Z-12.000000 I-46.843539 J-16.683682
G02 X62.556952 Y266.739279 Z-12.000000 I-51.128486 J-9.071210
G02 X62.460993 Y259.738876 Z-12.000000 I-63.080530 J-2.636168
G02 X61.862158 Y253.078090 Z-12.000000 I-162.865768 J11.285058
G01 X52.613769 Y212.336390 Z-12.000000
G03 X51.183352 Y201.817125 Z-12.000000 I112.469123 J-20.650514
G03 X50.806549 Y193.126251 Z-12.000000 I95.488781 J-8.493630
G03 X51.231260 Y184.433792 Z-12.000000 I93.085581 J0.191523
G03 X52.251099 Y176.844990 Z-12.000000 I100.307015 J9.617067
G01 X61.499469 Y137.363390 Z-12.000000
G02 X62.355829 Y130.155752 Z-12.000000 I-125.214499 J-18.531782
G02 X62.664248 Y122.552416 Z-12.000000 I-77.302577 J-6.943599
G02 X62.181570 Y114.990361 Z-12.000000 I-68.616320 J0.583277
G02 X60.592769 Y106.492100 Z-12.000000 I-65.240554 J7.799465
G01 X48.442959 Y68.900600 Z-12.000000
G01 X44.816128 Y53.150010 Z-12.000000
G01 X44.997468 Y16.188490 Z-12.000000
G00 Z5.000000

(End cutting path id: path4657-9)


(Start cutting path id: path4657-9)
(Change tool to Cylindrical cutter)

G00 Z5.000000
G00 X44.997468 Y16.188490

G01 Z-15.000000 F400.0(Penetrate)
G01 X108.957120 Y16.828800 Z-15.000000 F400.000000
G01 X109.192120 Y366.902800 Z-15.000000
G01 X44.272110 Y366.692800 Z-15.000000
G01 X44.272099 Y328.681190 Z-15.000000
G01 X59.686058 Y281.639310 Z-15.000000
G02 X61.803765 Y273.642327 Z-15.000000 I-46.843539 J-16.683682
G02 X62.556952 Y266.739279 Z-15.000000 I-51.128486 J-9.071210
G02 X62.460993 Y259.738876 Z-15.000000 I-63.080530 J-2.636168
G02 X61.862158 Y253.078090 Z-15.000000 I-162.865768 J11.285058
G01 X52.613769 Y212.336390 Z-15.000000
G03 X51.183352 Y201.817125 Z-15.000000 I112.469123 J-20.650514
G03 X50.806549 Y193.126251 Z-15.000000 I95.488781 J-8.493630
G03 X51.231260 Y184.433792 Z-15.000000 I93.085581 J0.191523
G03 X52.251099 Y176.844990 Z-15.000000 I100.307015 J9.617067
G01 X61.499469 Y137.363390 Z-15.000000
G02 X62.355829 Y130.155752 Z-15.000000 I-125.214499 J-18.531782
G02 X62.664248 Y122.552416 Z-15.000000 I-77.302577 J-6.943599
G02 X62.181570 Y114.990361 Z-15.000000 I-68.616320 J0.583277
G02 X60.592769 Y106.492100 Z-15.000000 I-65.240554 J7.799465
G01 X48.442959 Y68.900600 Z-15.000000
G01 X44.816128 Y53.150010 Z-15.000000
G01 X44.997468 Y16.188490 Z-15.000000
G00 Z5.000000

G00 X44.997468 Y16.188490

G01 Z-15.000000 F400.0(Penetrate)
G01 X108.957120 Y16.828800 Z-15.000000 F400.000000
G01 X109.192120 Y366.902800 Z-15.000000
G01 X44.272110 Y366.692800 Z-15.000000
G01 X44.272099 Y328.681190 Z-15.000000
G01 X59.686058 Y281.639310 Z-15.000000
G02 X61.803765 Y273.642327 Z-15.000000 I-46.843539 J-16.683682
G02 X62.556952 Y266.739279 Z-15.000000 I-51.128486 J-9.071210
G02 X62.460993 Y259.738876 Z-15.000000 I-63.080530 J-2.636168
G02 X61.862158 Y253.078090 Z-15.000000 I-162.865768 J11.285058
G01 X52.613769 Y212.336390 Z-15.000000
G03 X51.183352 Y201.817125 Z-15.000000 I112.469123 J-20.650514
G03 X50.806549 Y193.126251 Z-15.000000 I95.488781 J-8.493630
G03 X51.231260 Y184.433792 Z-15.000000 I93.085581 J0.191523
G03 X52.251099 Y176.844990 Z-15.000000 I100.307015 J9.617067
G01 X61.499469 Y137.363390 Z-15.000000
G02 X62.355829 Y130.155752 Z-15.000000 I-125.214499 J-18.531782
G02 X62.664248 Y122.552416 Z-15.000000 I-77.302577 J-6.943599
G02 X62.181570 Y114.990361 Z-15.000000 I-68.616320 J0.583277
G02 X60.592769 Y106.492100 Z-15.000000 I-65.240554 J7.799465
G01 X48.442959 Y68.900600 Z-15.000000
G01 X44.816128 Y53.150010 Z-15.000000
G01 X44.997468 Y16.188490 Z-15.000000
G00 Z5.000000

(End cutting path id: path4657-9)


(Start cutting path id: path4657-9)
(Change tool to Cylindrical cutter)

G00 Z5.000000
G00 X44.997468 Y16.188490

G01 Z-18.000000 F400.0(Penetrate)
G01 X108.957120 Y16.828800 Z-18.000000 F400.000000
G01 X109.192120 Y366.902800 Z-18.000000
G01 X44.272110 Y366.692800 Z-18.000000
G00 Z5.0
G00 X44.997468 Y16.188490
G01 X44.997468 Y16.188490 Z-18.000000
G00 Z5.000000

(End cutting path id: path4657-9)


(Start cutting path id: path4657-9)
(Change tool to Cylindrical cutter)

G00 Z5.000000
G00 X44.997468 Y16.188490

G01 Z-19.500000 F400.0(Penetrate)
G01 X108.957120 Y16.828800 Z-19.500000 F400.000000
G01 X109.192120 Y366.902800 Z-19.500000

G01 X44.272110 Y366.692800 Z-19.5000000

G00 Z5.000000
G00 X0 Y0

(End cutting path id: path4657-9)

M6

G00 X0 Y800

M6

G01 X181.010230 Y16.761390
G01 Z-18.000000
G01 X181.010230 Y16.761390 Z-18.000000
G01 X181.010240 Y54.772990 Z-18.000000
G01 X165.596280 Y101.814900 Z-18.000000
G02 X163.478572 Y109.811874 Z-18.000000 I46.843664 J16.683726
G02 X162.725386 Y116.714890 Z-18.000000 I51.128040 J9.071164
G02 X162.821345 Y123.715260 Z-18.000000 I63.080209 J2.636160
G02 X163.420180 Y130.376090 Z-18.000000 I162.870941 J-11.285409
G01 X172.668570 Y171.117690 Z-18.000000
G03 X174.098988 Y181.637049 Z-18.000000 I-112.471588 J20.650767
G03 X174.475789 Y190.327939 Z-18.000000 I-95.489514 J8.493646
G03 X174.051077 Y199.020413 Z-18.000000 I-93.085696 J-0.191523
G03 X173.031240 Y206.609190 Z-18.000000 I-100.306212 J-9.616994
G01 X163.782870 Y246.090790 Z-18.000000
G02 X162.926510 Y253.298430 Z-18.000000 I125.214540 J18.531788
G02 X162.618091 Y260.901754 Z-18.000000 I77.302418 J6.943585
G02 X163.100770 Y268.463796 Z-18.000000 I68.615939 J-0.583276
G02 X164.689570 Y276.962000 Z-18.000000 I65.239555 J-7.799377
G01 X176.839380 Y314.553610 Z-18.000000
G01 X180.466210 Y330.304200 Z-18.000000
G01 X180.284870 Y367.265700 Z-18.000000
G00 Z5.000000
G01 X181.010230 Y16.761390
G01 Z-19.500000
G01 X181.010230 Y16.761390 Z-19.500000
G01 X181.010240 Y54.772990 Z-19.500000
G01 X181.010240 Y54.772990 Z-19.500000
G01 X165.596280 Y101.814900 Z-19.500000
G02 X163.478572 Y109.811874 Z-19.500000 I46.843664 J16.683726
G02 X162.725386 Y116.714890 Z-19.500000 I51.128040 J9.071164
G02 X162.821345 Y123.715260 Z-19.500000 I63.080209 J2.636160
G02 X163.420180 Y130.376090 Z-19.500000 I162.870941 J-11.285409
G01 X172.668570 Y171.117690 Z-19.500000
G03 X174.098988 Y181.637049 Z-19.500000 I-112.471588 J20.650767
G03 X174.475789 Y190.327939 Z-19.500000 I-95.489514 J8.493646
G03 X174.051077 Y199.020413 Z-19.500000 I-93.085696 J-0.191523
G03 X173.031240 Y206.609190 Z-19.500000 I-100.306212 J-9.616994
G01 X163.782870 Y246.090790 Z-19.500000
G02 X162.926510 Y253.298430 Z-19.500000 I125.214540 J18.531788
G02 X162.618091 Y260.901754 Z-19.500000 I77.302418 J6.943585
G02 X163.100770 Y268.463796 Z-19.500000 I68.615939 J-0.583276
G02 X164.689570 Y276.962000 Z-19.500000 I65.239555 J-7.799377
G01 X176.839380 Y314.553610 Z-19.500000
G01 X180.466210 Y330.304200 Z-19.500000
G01 X180.284870 Y367.265700 Z-19.500000
G00 Z5.000000

G0 X123.363370 Y520.765240
G01 z-18.000
G01 X122.696400 Y626.249040
G01 X122.696400 Y626.249040 Z-18.000000
G01 X122.696400 Y626.249040 Z-18.000000
G0 Z5.0
G0 X123.363370 Y520.765240
G01 Z-19.5
G01 X122.696400 Y626.249040 
G01 X122.696400 Y626.249040 Z-19.500000
G01 X122.696400 Y626.249040 Z-19.500000
G0 Z5.0


G01 X173.331780 Y750.196040
G01 Z-18.000000
G01 X173.331780 Y750.196040 Z-18.000000
G01 X173.331770 Y709.364640 Z-18.000000
G03 X175.659162 Y695.296118 Z-18.000000 I186.850044 J23.684309
G03 X178.635568 Y682.239265 Z-18.000000 I293.991783 J60.149916
G03 X182.089933 Y669.278605 Z-18.000000 I463.620596 J116.626711
G02 X185.542520 Y656.807240 Z-18.000000 I-1407.836036 J-396.460579
G03 X190.744714 Y636.834834 Z-18.000000 I2118.500655 J541.140216
G02 X195.464839 Y617.563352 Z-18.000000 I-496.124647 J-131.728578
G02 X199.141400 Y598.139631 Z-18.000000 I-285.362071 J-64.073725
G02 X200.652880 Y580.649940 Z-18.000000 I-129.453690 J-19.997700
G03 X200.492160 Y570.395551 Z-18.000000 I201.800371 J-8.291326
G02 X200.268187 Y561.919552 Z-18.000000 I-117.333913 J-1.140487
G02 X199.339768 Y552.993770 Z-18.000000 I-109.024355 J6.829048
G02 X195.331040 Y529.716840 Z-18.000000 I-452.720457 J65.983372
G02 X189.665271 Y508.122209 Z-18.000000 I-1108.669758 J279.340393
G03 X183.646515 Y485.730940 Z-18.000000 I2976.582246 J-812.107533
G03 X177.948583 Y463.235310 Z-18.000000 I1042.294997 J-275.972988
G03 X174.073840 Y444.743240 Z-18.000000 I298.509050 J-72.200187
G01 X174.522780 Y400.435240 Z-18.000000

G0 Z5.0

G01 X173.331780 Y750.196040
G01 Z-19.500000
G01 X173.331780 Y750.196040 Z-19.5000000
G01 X173.331770 Y709.364640 Z-19.5000000
G03 X175.659162 Y695.296118 Z-19.5000000 I186.850044 J23.684309
G03 X178.635568 Y682.239265 Z-19.5000000 I293.991783 J60.149916
G03 X182.089933 Y669.278605 Z-19.5000000 I463.620596 J116.626711
G02 X185.542520 Y656.807240 Z-19.5000000 I-1407.836036 J-396.460579
G03 X190.744714 Y636.834834 Z-19.5000000 I2118.500655 J541.140216
G02 X195.464839 Y617.563352 Z-19.5000000 I-496.124647 J-131.728578
G02 X199.141400 Y598.139631 Z-19.5000000 I-285.362071 J-64.073725
G02 X200.652880 Y580.649940 Z-19.5000000 I-129.453690 J-19.997700
G03 X200.492160 Y570.395551 Z-19.5000000 I201.800371 J-8.291326
G02 X200.268187 Y561.919552 Z-19.5000000 I-117.333913 J-1.140487
G02 X199.339768 Y552.993770 Z-19.5000000 I-109.024355 J6.829048
G02 X195.331040 Y529.716840 Z-19.5000000 I-452.720457 J65.983372
G02 X189.665271 Y508.122209 Z-19.5000000 I-1108.669758 J279.340393
G03 X183.646515 Y485.730940 Z-19.5000000 I2976.582246 J-812.107533
G03 X177.948583 Y463.235310 Z-19.5000000 I1042.294997 J-275.972988
G03 X174.073840 Y444.743240 Z-19.5000000 I298.509050 J-72.200187
G01 X174.522780 Y400.435240 Z-19.5000000

G0 Z5.0
G00 X44.272110 Y366.692800
G01 Z-18.00

G01 X44.272110 Y366.692800 Z-18.000000
G01 X44.272099 Y328.681190 Z-18.000000
G01 X59.686058 Y281.639310 Z-18.000000
G02 X61.803765 Y273.642327 Z-18.000000 I-46.843539 J-16.683682
G02 X62.556952 Y266.739279 Z-18.000000 I-51.128486 J-9.071210
G02 X62.460993 Y259.738876 Z-18.000000 I-63.080530 J-2.636168
G02 X61.862158 Y253.078090 Z-18.000000 I-162.865768 J11.285058
G01 X52.613769 Y212.336390 Z-18.000000
G03 X51.183352 Y201.817125 Z-18.000000 I112.469123 J-20.650514
G03 X50.806549 Y193.126251 Z-18.000000 I95.488781 J-8.493630
G03 X51.231260 Y184.433792 Z-18.000000 I93.085581 J0.191523
G03 X52.251099 Y176.844990 Z-18.000000 I100.307015 J9.617067
G01 X61.499469 Y137.363390 Z-18.000000
G02 X62.355829 Y130.155752 Z-18.000000 I-125.214499 J-18.531782
G02 X62.664248 Y122.552416 Z-18.000000 I-77.302577 J-6.943599
G02 X62.181570 Y114.990361 Z-18.000000 I-68.616320 J0.583277
G02 X60.592769 Y106.492100 Z-18.000000 I-65.240554 J7.799465
G01 X48.442959 Y68.900600 Z-18.000000
G01 X44.816128 Y53.150010 Z-18.000000
G01 X44.997468 Y16.188490 Z-18.000000

G00 X44.272110 Y366.692800
G01 Z-19.5

G01 X44.272110 Y366.692800 Z-19.500000
G01 X44.272099 Y328.681190 Z-19.500000
G01 X59.686058 Y281.639310 Z-19.500000
G02 X61.803765 Y273.642327 Z-19.500000 I-46.843539 J-16.683682
G02 X62.556952 Y266.739279 Z-19.500000 I-51.128486 J-9.071210
G02 X62.460993 Y259.738876 Z-19.500000 I-63.080530 J-2.636168
G02 X61.862158 Y253.078090 Z-19.500000 I-162.865768 J11.285058
G01 X52.613769 Y212.336390 Z-19.500000
G03 X51.183352 Y201.817125 Z-19.500000 I112.469123 J-20.650514
G03 X50.806549 Y193.126251 Z-19.500000 I95.488781 J-8.493630
G03 X51.231260 Y184.433792 Z-19.500000 I93.085581 J0.191523
G03 X52.251099 Y176.844990 Z-19.500000 I100.307015 J9.617067
G01 X61.499469 Y137.363390 Z-19.500000
G02 X62.355829 Y130.155752 Z-19.500000 I-125.214499 J-18.531782
G02 X62.664248 Y122.552416 Z-19.500000 I-77.302577 J-6.943599
G02 X62.181570 Y114.990361 Z-19.500000 I-68.616320 J0.583277
G02 X60.592769 Y106.492100 Z-19.500000 I-65.240554 J7.799465
G01 X48.442959 Y68.900600 Z-19.500000
G01 X44.816128 Y53.150010 Z-19.500000
G01 X44.997468 Y16.188490 Z-19.500000

G0 Z5.0

(Footer)
M5
G00 X0.0000 Y0.0000
M2
(Using default footer. To add your own footer create file "footer" in the output dir.)
(end)
%