%
(Header)
(Generated by gcodetools from Inkscape.)
(Using default header. To add your own header create file "header" in the output dir.)
M3
(Header end.)
G21 (All units in mm)

(Start cutting path id: path4649-1-4-4-7)
(Change tool to Cylindrical cutter)

G00 Z5.000000
G00 X163.432600 Y460.287650

G01 Z-3.000000 F400.0(Penetrate)
G01 X143.955700 Y407.110060 Z-3.000000 F400.000000
G01 X149.247100 Y405.931490 Z-3.000000
G01 X168.810300 Y458.904680 Z-3.000000
G01 X160.717400 Y462.156810 Z-3.000000
G01 X140.910600 Y409.129810 Z-3.000000
G03 X140.372303 Y406.706509 Z-3.000000 I6.282477 J-2.666988
G03 X140.847612 Y405.226074 Z-3.000000 I2.288528 J-0.081763
G03 X142.173427 Y404.143990 Z-3.000000 I2.981636 J2.299961
G03 X145.764100 Y402.728700 Z-3.000000 I10.641229 J21.734902
G02 X147.884530 Y401.943090 Z-3.000000 I-4.231871 J-14.676617
G03 X150.243137 Y401.399209 Z-3.000000 I2.505351 J5.478622
G03 X151.916781 Y402.004131 Z-3.000000 I0.059755 J2.452377
G03 X153.970600 Y405.299760 Z-3.000000 I-4.386690 J5.021542
G01 X173.711200 Y460.062600 Z-3.000000
G01 X164.012000 Y462.894940 Z-3.000000
G00 Z5.000000

(End cutting path id: path4649-1-4-4-7)


(Start cutting path id: path4649-1-4-4-7)
(Change tool to Cylindrical cutter)

G00 Z5.000000
G00 X163.432600 Y460.287650

G01 Z-6.000000 F400.0(Penetrate)
G01 X143.955700 Y407.110060 Z-6.000000 F400.000000
G01 X149.247100 Y405.931490 Z-6.000000
G01 X168.810300 Y458.904680 Z-6.000000
G01 X160.717400 Y462.156810 Z-6.000000
G01 X140.910600 Y409.129810 Z-6.000000
G03 X140.372303 Y406.706509 Z-6.000000 I6.282477 J-2.666988
G03 X140.847612 Y405.226074 Z-6.000000 I2.288528 J-0.081763
G03 X142.173427 Y404.143990 Z-6.000000 I2.981636 J2.299961
G03 X145.764100 Y402.728700 Z-6.000000 I10.641229 J21.734902
G02 X147.884530 Y401.943090 Z-6.000000 I-4.231871 J-14.676617
G03 X150.243137 Y401.399209 Z-6.000000 I2.505351 J5.478622
G03 X151.916781 Y402.004131 Z-6.000000 I0.059755 J2.452377
G03 X153.970600 Y405.299760 Z-6.000000 I-4.386690 J5.021542
G01 X173.711200 Y460.062600 Z-6.000000
G01 X164.012000 Y462.894940 Z-6.000000
G00 Z5.000000

(End cutting path id: path4649-1-4-4-7)


(Start cutting path id: path4649-1-4-4-7)
(Change tool to Cylindrical cutter)

G00 Z5.000000
G00 X163.432600 Y460.287650

G01 Z-6.350000 F400.0(Penetrate)
G01 X143.955700 Y407.110060 Z-6.350000 F400.000000
G01 X149.247100 Y405.931490 Z-6.350000
G01 X168.810300 Y458.904680 Z-6.350000
G01 X160.717400 Y462.156810 Z-6.350000
G01 X140.910600 Y409.129810 Z-6.350000
G03 X140.372303 Y406.706509 Z-6.350000 I6.282477 J-2.666988
G03 X140.847612 Y405.226074 Z-6.350000 I2.288528 J-0.081763
G03 X142.173427 Y404.143990 Z-6.350000 I2.981636 J2.299961
G03 X145.764100 Y402.728700 Z-6.350000 I10.641229 J21.734902
G02 X147.884530 Y401.943090 Z-6.350000 I-4.231871 J-14.676617
G03 X150.243137 Y401.399209 Z-6.350000 I2.505351 J5.478622
G03 X151.916781 Y402.004131 Z-6.350000 I0.059755 J2.452377
G03 X153.970600 Y405.299760 Z-6.350000 I-4.386690 J5.021542
G01 X173.711200 Y460.062600 Z-6.350000
G01 X164.012000 Y462.894940 Z-6.350000
G00 Z5.000000

(End cutting path id: path4649-1-4-4-7)


(Start cutting path id: path4643-5-8-3-8)
(Change tool to Cylindrical cutter)

G00 Z5.000000
G00 X270.585300 Y426.950710

G01 Z-3.000000 F400.0(Penetrate)
G01 X153.343000 Y469.612770 Z-3.000000 F400.000000
G03 X141.864897 Y456.645037 Z-3.000000 I85.037596 J-86.832819
G03 X131.694700 Y441.618005 Z-3.000000 I123.753499 J-94.710632
G03 X123.267886 Y425.501797 Z-3.000000 I142.290792 J-84.661960
G03 X117.004000 Y409.489690 Z-3.000000 I145.147720 J-66.012590
G03 X110.923225 Y386.806594 Z-3.000000 I180.752640 J-60.611899
G03 X107.473887 Y365.474174 Z-3.000000 I264.923825 J-53.781833
G03 X105.487894 Y343.856763 Z-3.000000 I375.323143 J-45.380899
G03 X104.247300 Y323.594500 Z-3.000000 I5795.531750 J-365.011176
G02 X103.554093 Y310.843897 Z-3.000000 I-150.106514 J1.766637
G02 X101.380512 Y296.477151 Z-3.000000 I-135.741393 J13.188855
G02 X97.702610 Y282.448380 Z-3.000000 I-134.191174 J27.684202
G02 X91.490500 Y266.236690 Z-3.000000 I-146.210356 J46.729874
G02 X88.329314 Y259.204249 Z-3.000000 I-32.569817 J10.413895
G02 X73.208600 Y234.359442 Z-3.000000 I-1107.735889 J657.151705
G02 X58.196406 Y210.497356 Z-3.000000 I-3373.867245 J2105.925071
G03 X45.566400 Y190.074390 Z-3.000000 I901.482978 J-571.613494
G02 X37.654488 Y176.108457 Z-3.000000 I-3046.085702 J1716.429553
G03 X30.091625 Y162.436380 Z-3.000000 I544.709724 J-310.240070
G03 X22.982022 Y148.544600 Z-3.000000 I347.675801 J-186.700403
G03 X16.367800 Y133.755990 Z-3.000000 I222.792248 J-108.517491
G03 X14.634237 Y128.887510 Z-3.000000 I171.022243 J-63.640278
G03 X12.260550 Y120.190934 Z-3.000000 I69.468813 J-23.633400
G03 X11.066653 Y111.456064 Z-3.000000 I62.460933 J-12.986296
G03 X11.503100 Y100.465670 Z-3.000000 I51.679255 J-3.451592
G01 X42.741300 Y89.063940 Z-3.000000
G03 X47.034678 Y92.407433 Z-3.000000 I-187.991831 J245.828497
G02 X52.712338 Y96.056667 Z-3.000000 I21.173093 J-26.700740
G02 X58.964177 Y98.465533 Z-3.000000 I14.633560 J-28.661876
G02 X71.079700 Y100.493950 Z-3.000000 I16.415585 J-60.851990
G02 X84.409838 Y98.728785 Z-3.000000 I-1.889217 J-65.482660
G02 X94.133162 Y95.557401 Z-3.000000 I-14.715835 J-61.609452
G02 X103.453936 Y90.997628 Z-3.000000 I-34.020645 J-81.348983
G03 X112.281100 Y86.078710 Z-3.000000 I455.144990 J806.393193
G02 X116.462287 Y83.652369 Z-3.000000 I-144.823413 J-254.382383
G03 X120.558500 Y81.297990 Z-3.000000 I96.944171 J163.925606
G03 X124.737040 Y79.101271 Z-3.000000 I45.579644 J81.627887
G03 X128.156100 Y77.668760 Z-3.000000 I13.247629 J26.822407
G03 X137.846589 Y75.057834 Z-3.000000 I29.078732 J88.637461
G03 X156.205000 Y71.350770 Z-3.000000 I192.400778 J905.510665
G03 X174.600617 Y67.908938 Z-3.000000 I421.898134 J2204.045316
G02 X185.039600 Y65.814550 Z-3.000000 I-55.621332 J-304.293951
G02 X194.460903 Y62.151231 Z-3.000000 I-13.066764 J-47.551525
G02 X200.901950 Y58.167879 Z-3.000000 I-21.513973 J-41.987142
G02 X206.687678 Y53.057201 Z-3.000000 I-25.641756 J-34.858995
G02 X209.135600 Y49.939560 Z-3.000000 I-15.613810 J-14.779566
G02 X211.766555 Y45.812078 Z-3.000000 I-208.276778 J-135.662800
G02 X214.773712 Y40.103066 Z-3.000000 I-37.622222 J-23.463582
G02 X216.836464 Y34.081193 Z-3.000000 I-35.620916 J-15.565930
G02 X218.195500 Y25.043910 Z-3.000000 I-44.911810 J-11.374712
G01 X270.367600 Y5.999490 Z-3.000000
G01 X270.585300 Y426.950710 Z-3.000000
G00 Z5.000000

(End cutting path id: path4643-5-8-3-8)


(Start cutting path id: path4643-5-8-3-8)
(Change tool to Cylindrical cutter)

G00 Z5.000000
G00 X270.585300 Y426.950710

G01 Z-6.000000 F400.0(Penetrate)
G01 X153.343000 Y469.612770 Z-6.000000 F400.000000
G03 X141.864897 Y456.645037 Z-6.000000 I85.037596 J-86.832819
G03 X131.694700 Y441.618005 Z-6.000000 I123.753499 J-94.710632
G03 X123.267886 Y425.501797 Z-6.000000 I142.290792 J-84.661960
G03 X117.004000 Y409.489690 Z-6.000000 I145.147720 J-66.012590
G03 X110.923225 Y386.806594 Z-6.000000 I180.752640 J-60.611899
G03 X107.473887 Y365.474174 Z-6.000000 I264.923825 J-53.781833
G03 X105.487894 Y343.856763 Z-6.000000 I375.323143 J-45.380899
G03 X104.247300 Y323.594500 Z-6.000000 I5795.531750 J-365.011176
G02 X103.554093 Y310.843897 Z-6.000000 I-150.106514 J1.766637
G02 X101.380512 Y296.477151 Z-6.000000 I-135.741393 J13.188855
G02 X97.702610 Y282.448380 Z-6.000000 I-134.191174 J27.684202
G02 X91.490500 Y266.236690 Z-6.000000 I-146.210356 J46.729874
G02 X88.329314 Y259.204249 Z-6.000000 I-32.569817 J10.413895
G02 X73.208600 Y234.359442 Z-6.000000 I-1107.735889 J657.151705
G02 X58.196406 Y210.497356 Z-6.000000 I-3373.867245 J2105.925071
G03 X45.566400 Y190.074390 Z-6.000000 I901.482978 J-571.613494
G02 X37.654488 Y176.108457 Z-6.000000 I-3046.085702 J1716.429553
G03 X30.091625 Y162.436380 Z-6.000000 I544.709724 J-310.240070
G03 X22.982022 Y148.544600 Z-6.000000 I347.675801 J-186.700403
G03 X16.367800 Y133.755990 Z-6.000000 I222.792248 J-108.517491
G03 X14.634237 Y128.887510 Z-6.000000 I171.022243 J-63.640278
G03 X12.260550 Y120.190934 Z-6.000000 I69.468813 J-23.633400
G03 X11.066653 Y111.456064 Z-6.000000 I62.460933 J-12.986296
G03 X11.503100 Y100.465670 Z-6.000000 I51.679255 J-3.451592
G01 X42.741300 Y89.063940 Z-6.000000
G03 X47.034678 Y92.407433 Z-6.000000 I-187.991831 J245.828497
G02 X52.712338 Y96.056667 Z-6.000000 I21.173093 J-26.700740
G02 X58.964177 Y98.465533 Z-6.000000 I14.633560 J-28.661876
G02 X71.079700 Y100.493950 Z-6.000000 I16.415585 J-60.851990
G02 X84.409838 Y98.728785 Z-6.000000 I-1.889217 J-65.482660
G02 X94.133162 Y95.557401 Z-6.000000 I-14.715835 J-61.609452
G02 X103.453936 Y90.997628 Z-6.000000 I-34.020645 J-81.348983
G03 X112.281100 Y86.078710 Z-6.000000 I455.144990 J806.393193
G02 X116.462287 Y83.652369 Z-6.000000 I-144.823413 J-254.382383
G03 X120.558500 Y81.297990 Z-6.000000 I96.944171 J163.925606
G03 X124.737040 Y79.101271 Z-6.000000 I45.579644 J81.627887
G03 X128.156100 Y77.668760 Z-6.000000 I13.247629 J26.822407
G03 X137.846589 Y75.057834 Z-6.000000 I29.078732 J88.637461
G03 X156.205000 Y71.350770 Z-6.000000 I192.400778 J905.510665
G03 X174.600617 Y67.908938 Z-6.000000 I421.898134 J2204.045316
G02 X185.039600 Y65.814550 Z-6.000000 I-55.621332 J-304.293951
G02 X194.460903 Y62.151231 Z-6.000000 I-13.066764 J-47.551525
G02 X200.901950 Y58.167879 Z-6.000000 I-21.513973 J-41.987142
G02 X206.687678 Y53.057201 Z-6.000000 I-25.641756 J-34.858995
G02 X209.135600 Y49.939560 Z-6.000000 I-15.613810 J-14.779566
G02 X211.766555 Y45.812078 Z-6.000000 I-208.276778 J-135.662800
G02 X214.773712 Y40.103066 Z-6.000000 I-37.622222 J-23.463582
G02 X216.836464 Y34.081193 Z-6.000000 I-35.620916 J-15.565930
G02 X218.195500 Y25.043910 Z-6.000000 I-44.911810 J-11.374712
G01 X270.367600 Y5.999490 Z-6.000000
G01 X270.585300 Y426.950710 Z-6.000000
G00 Z5.000000

(End cutting path id: path4643-5-8-3-8)


(Start cutting path id: path4643-5-8-3-8)
(Change tool to Cylindrical cutter)

G00 Z5.000000
G00 X270.585300 Y426.950710

G01 Z-6.350000 F400.0(Penetrate)
G01 X153.343000 Y469.612770 Z-6.350000 F400.000000
G03 X141.864897 Y456.645037 Z-6.350000 I85.037596 J-86.832819
G03 X131.694700 Y441.618005 Z-6.350000 I123.753499 J-94.710632
G03 X123.267886 Y425.501797 Z-6.350000 I142.290792 J-84.661960
G03 X117.004000 Y409.489690 Z-6.350000 I145.147720 J-66.012590
G03 X110.923225 Y386.806594 Z-6.350000 I180.752640 J-60.611899
G03 X107.473887 Y365.474174 Z-6.350000 I264.923825 J-53.781833
G03 X105.487894 Y343.856763 Z-6.350000 I375.323143 J-45.380899
G03 X104.247300 Y323.594500 Z-6.350000 I5795.531750 J-365.011176
G02 X103.554093 Y310.843897 Z-6.350000 I-150.106514 J1.766637
G02 X101.380512 Y296.477151 Z-6.350000 I-135.741393 J13.188855
G02 X97.702610 Y282.448380 Z-6.350000 I-134.191174 J27.684202
G02 X91.490500 Y266.236690 Z-6.350000 I-146.210356 J46.729874
G02 X88.329314 Y259.204249 Z-6.350000 I-32.569817 J10.413895
G02 X73.208600 Y234.359442 Z-6.350000 I-1107.735889 J657.151705
G02 X58.196406 Y210.497356 Z-6.350000 I-3373.867245 J2105.925071
G03 X45.566400 Y190.074390 Z-6.350000 I901.482978 J-571.613494
G02 X37.654488 Y176.108457 Z-6.350000 I-3046.085702 J1716.429553
G03 X30.091625 Y162.436380 Z-6.350000 I544.709724 J-310.240070
G03 X22.982022 Y148.544600 Z-6.350000 I347.675801 J-186.700403
G03 X16.367800 Y133.755990 Z-6.350000 I222.792248 J-108.517491
G03 X14.634237 Y128.887510 Z-6.350000 I171.022243 J-63.640278
G03 X12.260550 Y120.190934 Z-6.350000 I69.468813 J-23.633400
G03 X11.066653 Y111.456064 Z-6.350000 I62.460933 J-12.986296
G03 X11.503100 Y100.465670 Z-6.350000 I51.679255 J-3.451592
G01 X42.741300 Y89.063940 Z-6.350000
G03 X47.034678 Y92.407433 Z-6.350000 I-187.991831 J245.828497
G02 X52.712338 Y96.056667 Z-6.350000 I21.173093 J-26.700740
G02 X58.964177 Y98.465533 Z-6.350000 I14.633560 J-28.661876
G02 X71.079700 Y100.493950 Z-6.350000 I16.415585 J-60.851990
G02 X84.409838 Y98.728785 Z-6.350000 I-1.889217 J-65.482660
G02 X94.133162 Y95.557401 Z-6.350000 I-14.715835 J-61.609452
G02 X103.453936 Y90.997628 Z-6.350000 I-34.020645 J-81.348983
G03 X112.281100 Y86.078710 Z-6.350000 I455.144990 J806.393193
G02 X116.462287 Y83.652369 Z-6.350000 I-144.823413 J-254.382383
G03 X120.558500 Y81.297990 Z-6.350000 I96.944171 J163.925606
G03 X124.737040 Y79.101271 Z-6.350000 I45.579644 J81.627887
G03 X128.156100 Y77.668760 Z-6.350000 I13.247629 J26.822407
G03 X137.846589 Y75.057834 Z-6.350000 I29.078732 J88.637461
G03 X156.205000 Y71.350770 Z-6.350000 I192.400778 J905.510665
G03 X174.600617 Y67.908938 Z-6.350000 I421.898134 J2204.045316
G02 X185.039600 Y65.814550 Z-6.350000 I-55.621332 J-304.293951
G02 X194.460903 Y62.151231 Z-6.350000 I-13.066764 J-47.551525
G02 X200.901950 Y58.167879 Z-6.350000 I-21.513973 J-41.987142
G02 X206.687678 Y53.057201 Z-6.350000 I-25.641756 J-34.858995
G02 X209.135600 Y49.939560 Z-6.350000 I-15.613810 J-14.779566
G02 X211.766555 Y45.812078 Z-6.350000 I-208.276778 J-135.662800
G02 X214.773712 Y40.103066 Z-6.350000 I-37.622222 J-23.463582
G02 X216.836464 Y34.081193 Z-6.350000 I-35.620916 J-15.565930
G02 X218.195500 Y25.043910 Z-6.350000 I-44.911810 J-11.374712
G01 X270.367600 Y5.999490 Z-6.350000
G01 X270.585300 Y426.950710 Z-6.350000
G00 Z5.000000

(End cutting path id: path4643-5-8-3-8)


(Start cutting path id: path4645-8-4-5-8)
(Change tool to Cylindrical cutter)

G00 Z5.000000
G00 X208.205000 Y287.565260

G01 Z-3.000000 F400.0(Penetrate)
G03 X212.893400 Y287.367669 Z-3.000000 I2.873197 J12.453150 F400.000000
G03 X214.917400 Y288.265357 Z-3.000000 I-0.579170 J4.036423
G03 X216.336991 Y290.222700 Z-3.000000 I-3.108324 J3.747817
G03 X217.158600 Y292.910710 Z-3.000000 I-16.369819 J6.473122
G01 X216.757700 Y392.334850 Z-3.000000
G03 X216.990967 Y394.543397 Z-3.000000 I-4.610869 J1.603592
G03 X216.322737 Y396.843327 Z-3.000000 I-7.527743 J-0.940095
G03 X214.962021 Y398.864721 Z-3.000000 I-7.313537 J-3.454479
G03 X213.283100 Y400.085760 Z-3.000000 I-3.877640 J-3.566958
G02 X212.178139 Y400.410291 Z-3.000000 I1.865600 J8.395339
G02 X200.596537 Y404.690176 Z-3.000000 I1637.398549 J4448.699007
G02 X189.342362 Y408.873457 Z-3.000000 I3460.840288 J9327.841173
G03 X186.289000 Y409.974670 Z-3.000000 I-54.723769 J-146.950406
G03 X183.786894 Y410.220694 Z-3.000000 I-2.235767 J-9.891693
G03 X180.937587 Y409.845621 Z-3.000000 I0.361385 J-13.755485
G03 X178.275570 Y408.867338 Z-3.000000 I2.842317 J-11.845227
G03 X176.400000 Y407.435680 Z-3.000000 I2.927489 J-5.779602
G02 X172.400057 Y400.463023 Z-3.000000 I-307.346936 J171.679373
G03 X168.335875 Y393.031264 Z-3.000000 I114.742773 J-67.576175
G03 X164.896901 Y385.342489 Z-3.000000 I78.241502 J-39.608703
G03 X161.833700 Y375.496970 Z-3.000000 I67.775858 J-26.486140
G03 X161.083373 Y374.764012 Z-3.000000 I0.091391 J-0.844089
G03 X159.054012 Y357.030112 Z-3.000000 I510.546001 J-67.406869
G03 X157.614118 Y339.626636 Z-3.000000 I618.187457 J-59.907692
G03 X157.557500 Y334.203790 Z-3.000000 I46.628479 J-3.198547
G03 X157.565811 Y330.290195 Z-3.000000 I918.575328 J-0.006198
G03 X157.590862 Y326.001957 Z-3.000000 I1350.075508 J5.742965
G03 X157.673575 Y318.402779 Z-3.000000 I1100.113707 J8.174103
G03 X157.824700 Y313.089540 Z-3.000000 I188.510686 J2.703044
G03 X158.073405 Y310.432026 Z-3.000000 I21.959229 J0.714672
G03 X158.731875 Y308.192010 Z-3.000000 I8.777064 J1.363297
G03 X159.954943 Y306.267986 Z-3.000000 I7.040746 J3.124927
G03 X162.368300 Y304.135950 Z-3.000000 I9.208825 J7.992004
G03 X166.820259 Y302.253338 Z-3.000000 I20.278870 J41.749774
G03 X187.040562 Y294.998682 Z-3.000000 I1047.313616 J2887.284308
G03 X197.766805 Y291.211711 Z-3.000000 I1201.290774 J3385.459637
G03 X208.205000 Y287.565250 Z-3.000000 I1061.020607 J3020.466679
G01 X208.205000 Y287.565260 Z-3.000000
G00 Z5.000000

(End cutting path id: path4645-8-4-5-8)


(Start cutting path id: path4645-8-4-5-8)
(Change tool to Cylindrical cutter)

G00 Z5.000000
G00 X208.205000 Y287.565260

G01 Z-6.000000 F400.0(Penetrate)
G03 X212.893400 Y287.367669 Z-6.000000 I2.873197 J12.453150 F400.000000
G03 X214.917400 Y288.265357 Z-6.000000 I-0.579170 J4.036423
G03 X216.336991 Y290.222700 Z-6.000000 I-3.108324 J3.747817
G03 X217.158600 Y292.910710 Z-6.000000 I-16.369819 J6.473122
G01 X216.757700 Y392.334850 Z-6.000000
G03 X216.990967 Y394.543397 Z-6.000000 I-4.610869 J1.603592
G03 X216.322737 Y396.843327 Z-6.000000 I-7.527743 J-0.940095
G03 X214.962021 Y398.864721 Z-6.000000 I-7.313537 J-3.454479
G03 X213.283100 Y400.085760 Z-6.000000 I-3.877640 J-3.566958
G02 X212.178139 Y400.410291 Z-6.000000 I1.865600 J8.395339
G02 X200.596537 Y404.690176 Z-6.000000 I1637.398549 J4448.699007
G02 X189.342362 Y408.873457 Z-6.000000 I3460.840288 J9327.841173
G03 X186.289000 Y409.974670 Z-6.000000 I-54.723769 J-146.950406
G03 X183.786894 Y410.220694 Z-6.000000 I-2.235767 J-9.891693
G03 X180.937587 Y409.845621 Z-6.000000 I0.361385 J-13.755485
G03 X178.275570 Y408.867338 Z-6.000000 I2.842317 J-11.845227
G03 X176.400000 Y407.435680 Z-6.000000 I2.927489 J-5.779602
G02 X172.400057 Y400.463023 Z-6.000000 I-307.346936 J171.679373
G03 X168.335875 Y393.031264 Z-6.000000 I114.742773 J-67.576175
G03 X164.896901 Y385.342489 Z-6.000000 I78.241502 J-39.608703
G03 X161.833700 Y375.496970 Z-6.000000 I67.775858 J-26.486140
G03 X161.083373 Y374.764012 Z-6.000000 I0.091391 J-0.844089
G03 X159.054012 Y357.030112 Z-6.000000 I510.546001 J-67.406869
G03 X157.614118 Y339.626636 Z-6.000000 I618.187457 J-59.907692
G03 X157.557500 Y334.203790 Z-6.000000 I46.628479 J-3.198547
G03 X157.565811 Y330.290195 Z-6.000000 I918.575328 J-0.006198
G03 X157.590862 Y326.001957 Z-6.000000 I1350.075508 J5.742965
G03 X157.673575 Y318.402779 Z-6.000000 I1100.113707 J8.174103
G03 X157.824700 Y313.089540 Z-6.000000 I188.510686 J2.703044
G03 X158.073405 Y310.432026 Z-6.000000 I21.959229 J0.714672
G03 X158.731875 Y308.192010 Z-6.000000 I8.777064 J1.363297
G03 X159.954943 Y306.267986 Z-6.000000 I7.040746 J3.124927
G03 X162.368300 Y304.135950 Z-6.000000 I9.208825 J7.992004
G03 X166.820259 Y302.253338 Z-6.000000 I20.278870 J41.749774
G03 X187.040562 Y294.998682 Z-6.000000 I1047.313616 J2887.284308
G03 X197.766805 Y291.211711 Z-6.000000 I1201.290774 J3385.459637
G03 X208.205000 Y287.565250 Z-6.000000 I1061.020607 J3020.466679
G01 X208.205000 Y287.565260 Z-6.000000
G00 Z5.000000

(End cutting path id: path4645-8-4-5-8)


(Start cutting path id: path4645-8-4-5-8)
(Change tool to Cylindrical cutter)

G00 Z5.000000
G00 X208.205000 Y287.565260

G01 Z-6.350000 F400.0(Penetrate)
G03 X212.893400 Y287.367669 Z-6.350000 I2.873197 J12.453150 F400.000000
G03 X214.917400 Y288.265357 Z-6.350000 I-0.579170 J4.036423
G03 X216.336991 Y290.222700 Z-6.350000 I-3.108324 J3.747817
G03 X217.158600 Y292.910710 Z-6.350000 I-16.369819 J6.473122
G01 X216.757700 Y392.334850 Z-6.350000
G03 X216.990967 Y394.543397 Z-6.350000 I-4.610869 J1.603592
G03 X216.322737 Y396.843327 Z-6.350000 I-7.527743 J-0.940095
G03 X214.962021 Y398.864721 Z-6.350000 I-7.313537 J-3.454479
G03 X213.283100 Y400.085760 Z-6.350000 I-3.877640 J-3.566958
G02 X212.178139 Y400.410291 Z-6.350000 I1.865600 J8.395339
G02 X200.596537 Y404.690176 Z-6.350000 I1637.398549 J4448.699007
G02 X189.342362 Y408.873457 Z-6.350000 I3460.840288 J9327.841173
G03 X186.289000 Y409.974670 Z-6.350000 I-54.723769 J-146.950406
G03 X183.786894 Y410.220694 Z-6.350000 I-2.235767 J-9.891693
G03 X180.937587 Y409.845621 Z-6.350000 I0.361385 J-13.755485
G03 X178.275570 Y408.867338 Z-6.350000 I2.842317 J-11.845227
G03 X176.400000 Y407.435680 Z-6.350000 I2.927489 J-5.779602
G02 X172.400057 Y400.463023 Z-6.350000 I-307.346936 J171.679373
G03 X168.335875 Y393.031264 Z-6.350000 I114.742773 J-67.576175
G03 X164.896901 Y385.342489 Z-6.350000 I78.241502 J-39.608703
G03 X161.833700 Y375.496970 Z-6.350000 I67.775858 J-26.486140
G03 X161.083373 Y374.764012 Z-6.350000 I0.091391 J-0.844089
G03 X159.054012 Y357.030112 Z-6.350000 I510.546001 J-67.406869
G03 X157.614118 Y339.626636 Z-6.350000 I618.187457 J-59.907692
G03 X157.557500 Y334.203790 Z-6.350000 I46.628479 J-3.198547
G03 X157.565811 Y330.290195 Z-6.350000 I918.575328 J-0.006198
G03 X157.590862 Y326.001957 Z-6.350000 I1350.075508 J5.742965
G03 X157.673575 Y318.402779 Z-6.350000 I1100.113707 J8.174103
G03 X157.824700 Y313.089540 Z-6.350000 I188.510686 J2.703044
G03 X158.073405 Y310.432026 Z-6.350000 I21.959229 J0.714672
G03 X158.731875 Y308.192010 Z-6.350000 I8.777064 J1.363297
G03 X159.954943 Y306.267986 Z-6.350000 I7.040746 J3.124927
G03 X162.368300 Y304.135950 Z-6.350000 I9.208825 J7.992004
G03 X166.820259 Y302.253338 Z-6.350000 I20.278870 J41.749774
G03 X187.040562 Y294.998682 Z-6.350000 I1047.313616 J2887.284308
G03 X197.766805 Y291.211711 Z-6.350000 I1201.290774 J3385.459637
G03 X208.205000 Y287.565250 Z-6.350000 I1061.020607 J3020.466679
G01 X208.205000 Y287.565260 Z-6.350000
G00 Z5.000000

(End cutting path id: path4645-8-4-5-8)


(Start cutting path id: path4651-9-1-1-9)
(Change tool to Cylindrical cutter)

G00 Z5.000000
G00 X273.695400 Y229.900830

G01 Z-3.000000 F400.0(Penetrate)
G01 X146.452600 Y276.754890 Z-3.000000 F400.000000
G01 X145.224200 Y272.189290 Z-3.000000
G01 X271.968400 Y224.674400 Z-3.000000
G01 X274.297100 Y233.063250 Z-3.000000
G01 X150.322400 Y279.478480 Z-3.000000
G03 X146.673108 Y279.806014 Z-3.000000 I-2.722695 J-9.842059
G03 X145.432188 Y279.239681 Z-3.000000 I0.187008 J-2.052451
G03 X144.536245 Y277.893715 Z-3.000000 I2.589098 J-2.694608
G02 X143.514000 Y275.740010 Z-3.000000 I-15.051192 J5.824516
G03 X142.425421 Y273.451780 Z-3.000000 I15.096995 J-8.585141
G03 X141.933450 Y271.147209 Z-3.000000 I6.862261 J-2.669726
G03 X142.359093 Y269.179667 Z-3.000000 I3.871694 J-0.192239
G03 X144.139500 Y267.483980 Z-3.000000 I3.333116 J1.717123
G01 X272.102200 Y219.906510 Z-3.000000
G00 Z5.000000

(End cutting path id: path4651-9-1-1-9)


(Start cutting path id: path4651-9-1-1-9)
(Change tool to Cylindrical cutter)

G00 Z5.000000
G00 X273.695400 Y229.900830

G01 Z-6.000000 F400.0(Penetrate)
G01 X146.452600 Y276.754890 Z-6.000000 F400.000000
G01 X145.224200 Y272.189290 Z-6.000000
G01 X271.968400 Y224.674400 Z-6.000000
G01 X274.297100 Y233.063250 Z-6.000000
G01 X150.322400 Y279.478480 Z-6.000000
G03 X146.673108 Y279.806014 Z-6.000000 I-2.722695 J-9.842059
G03 X145.432188 Y279.239681 Z-6.000000 I0.187008 J-2.052451
G03 X144.536245 Y277.893715 Z-6.000000 I2.589098 J-2.694608
G02 X143.514000 Y275.740010 Z-6.000000 I-15.051192 J5.824516
G03 X142.425421 Y273.451780 Z-6.000000 I15.096995 J-8.585141
G03 X141.933450 Y271.147209 Z-6.000000 I6.862261 J-2.669726
G03 X142.359093 Y269.179667 Z-6.000000 I3.871694 J-0.192239
G03 X144.139500 Y267.483980 Z-6.000000 I3.333116 J1.717123
G01 X272.102200 Y219.906510 Z-6.000000
G00 Z5.000000

(End cutting path id: path4651-9-1-1-9)


(Start cutting path id: path4651-9-1-1-9)
(Change tool to Cylindrical cutter)

G00 Z5.000000
G00 X273.695400 Y229.900830

G01 Z-6.350000 F400.0(Penetrate)
G01 X146.452600 Y276.754890 Z-6.350000 F400.000000
G01 X145.224200 Y272.189290 Z-6.350000
G01 X271.968400 Y224.674400 Z-6.350000
G01 X274.297100 Y233.063250 Z-6.350000
G01 X150.322400 Y279.478480 Z-6.350000
G03 X146.673108 Y279.806014 Z-6.350000 I-2.722695 J-9.842059
G03 X145.432188 Y279.239681 Z-6.350000 I0.187008 J-2.052451
G03 X144.536245 Y277.893715 Z-6.350000 I2.589098 J-2.694608
G02 X143.514000 Y275.740010 Z-6.350000 I-15.051192 J5.824516
G03 X142.425421 Y273.451780 Z-6.350000 I15.096995 J-8.585141
G03 X141.933450 Y271.147209 Z-6.350000 I6.862261 J-2.669726
G03 X142.359093 Y269.179667 Z-6.350000 I3.871694 J-0.192239
G03 X144.139500 Y267.483980 Z-6.350000 I3.333116 J1.717123
G01 X272.102200 Y219.906510 Z-6.350000
G00 Z5.000000

(End cutting path id: path4651-9-1-1-9)


(Start cutting path id: path4647-8-9-9-5)
(Change tool to Cylindrical cutter)

G00 Z5.000000
G00 X218.207400 Y196.406460

G01 Z-3.000000 F400.0(Penetrate)
G03 X217.294437 Y201.841029 Z-3.000000 I-18.113049 J-0.248875 F400.000000
G03 X216.006100 Y203.948602 Z-3.000000 I-5.154067 J-1.703064
G03 X213.810824 Y205.428125 Z-3.000000 I-4.755601 J-4.687827
G02 X211.025900 Y206.611860 Z-3.000000 I68.875247 J165.907756
G03 X206.586797 Y208.409883 Z-3.000000 I-37.510092 J-86.229068
G03 X177.824000 Y219.178526 Z-3.000000 I-4752.590269 J-12650.262650
G03 X162.815235 Y224.769345 Z-3.000000 I-5348.084385 J-14334.196300
G03 X148.092800 Y230.235420 Z-3.000000 I-4925.773513 J-13244.614450
G03 X144.708288 Y231.298183 Z-3.000000 I-34.454620 J-103.804742
G03 X141.582863 Y231.781147 Z-3.000000 I-3.344258 J-11.287506
G03 X138.791136 Y231.228254 Z-3.000000 I-0.124490 J-6.695992
G03 X135.808600 Y228.912480 Z-3.000000 I3.032290 J-6.983878
G01 X90.073500 Y160.498770 Z-3.000000
G03 X87.499155 Y154.228411 Z-3.000000 I15.516230 J-10.033946
G03 X87.766363 Y151.175387 Z-3.000000 I5.204314 J-1.082712
G03 X89.796183 Y148.505875 Z-3.000000 I5.830411 J2.326813
G03 X93.286300 Y146.324720 Z-3.000000 I13.600045 J17.878861
G01 X204.978200 Y104.558300 Z-3.000000
G03 X210.949687 Y103.736510 Z-3.000000 I5.754166 J19.705668
G03 X214.448913 Y104.652797 Z-3.000000 I-0.078772 J7.440591
G03 X216.872388 Y107.122563 Z-3.000000 I-2.878092 J5.248059
G03 X218.207400 Y111.928770 Z-3.000000 I-10.510322 J5.507949
G01 X218.207400 Y196.406460 Z-3.000000
G00 Z5.000000

(End cutting path id: path4647-8-9-9-5)


(Start cutting path id: path4647-8-9-9-5)
(Change tool to Cylindrical cutter)

G00 Z5.000000
G00 X218.207400 Y196.406460

G01 Z-6.000000 F400.0(Penetrate)
G03 X217.294437 Y201.841029 Z-6.000000 I-18.113049 J-0.248875 F400.000000
G03 X216.006100 Y203.948602 Z-6.000000 I-5.154067 J-1.703064
G03 X213.810824 Y205.428125 Z-6.000000 I-4.755601 J-4.687827
G02 X211.025900 Y206.611860 Z-6.000000 I68.875247 J165.907756
G03 X206.586797 Y208.409883 Z-6.000000 I-37.510092 J-86.229068
G03 X177.824000 Y219.178526 Z-6.000000 I-4752.590269 J-12650.262650
G03 X162.815235 Y224.769345 Z-6.000000 I-5348.084385 J-14334.196300
G03 X148.092800 Y230.235420 Z-6.000000 I-4925.773513 J-13244.614450
G03 X144.708288 Y231.298183 Z-6.000000 I-34.454620 J-103.804742
G03 X141.582863 Y231.781147 Z-6.000000 I-3.344258 J-11.287506
G03 X138.791136 Y231.228254 Z-6.000000 I-0.124490 J-6.695992
G03 X135.808600 Y228.912480 Z-6.000000 I3.032290 J-6.983878
G01 X90.073500 Y160.498770 Z-6.000000
G03 X87.499155 Y154.228411 Z-6.000000 I15.516230 J-10.033946
G03 X87.766363 Y151.175387 Z-6.000000 I5.204314 J-1.082712
G03 X89.796183 Y148.505875 Z-6.000000 I5.830411 J2.326813
G03 X93.286300 Y146.324720 Z-6.000000 I13.600045 J17.878861
G01 X204.978200 Y104.558300 Z-6.000000
G03 X210.949687 Y103.736510 Z-6.000000 I5.754166 J19.705668
G03 X214.448913 Y104.652797 Z-6.000000 I-0.078772 J7.440591
G03 X216.872388 Y107.122563 Z-6.000000 I-2.878092 J5.248059
G03 X218.207400 Y111.928770 Z-6.000000 I-10.510322 J5.507949
G01 X218.207400 Y196.406460 Z-6.000000
G00 Z5.000000

(End cutting path id: path4647-8-9-9-5)


(Start cutting path id: path4647-8-9-9-5)
(Change tool to Cylindrical cutter)

G00 Z5.000000
G00 X218.207400 Y196.406460

G01 Z-6.350000 F400.0(Penetrate)
G03 X217.294437 Y201.841029 Z-6.350000 I-18.113049 J-0.248875 F400.000000
G03 X216.006100 Y203.948602 Z-6.350000 I-5.154067 J-1.703064
G03 X213.810824 Y205.428125 Z-6.350000 I-4.755601 J-4.687827
G02 X211.025900 Y206.611860 Z-6.350000 I68.875247 J165.907756
G03 X206.586797 Y208.409883 Z-6.350000 I-37.510092 J-86.229068
G03 X177.824000 Y219.178526 Z-6.350000 I-4752.590269 J-12650.262650
G03 X162.815235 Y224.769345 Z-6.350000 I-5348.084385 J-14334.196300
G03 X148.092800 Y230.235420 Z-6.350000 I-4925.773513 J-13244.614450
G03 X144.708288 Y231.298183 Z-6.350000 I-34.454620 J-103.804742
G03 X141.582863 Y231.781147 Z-6.350000 I-3.344258 J-11.287506
G03 X138.791136 Y231.228254 Z-6.350000 I-0.124490 J-6.695992
G03 X135.808600 Y228.912480 Z-6.350000 I3.032290 J-6.983878
G01 X90.073500 Y160.498770 Z-6.350000
G03 X87.499155 Y154.228411 Z-6.350000 I15.516230 J-10.033946
G03 X87.766363 Y151.175387 Z-6.350000 I5.204314 J-1.082712
G03 X89.796183 Y148.505875 Z-6.350000 I5.830411 J2.326813
G03 X93.286300 Y146.324720 Z-6.350000 I13.600045 J17.878861
G01 X204.978200 Y104.558300 Z-6.350000
G03 X210.949687 Y103.736510 Z-6.350000 I5.754166 J19.705668
G03 X214.448913 Y104.652797 Z-6.350000 I-0.078772 J7.440591
G03 X216.872388 Y107.122563 Z-6.350000 I-2.878092 J5.248059
G03 X218.207400 Y111.928770 Z-6.350000 I-10.510322 J5.507949
G01 X218.207400 Y196.406460 Z-6.350000
G00 Z5.000000

(End cutting path id: path4647-8-9-9-5)


(Start cutting path id: path876-4-5-0-8)
(Change tool to Cylindrical cutter)

G00 Z5.000000
G00 X274.569700 Y63.415090

G01 Z-3.000000 F400.0(Penetrate)
G01 X25.461100 Y156.772250 Z-3.000000 F400.000000
G01 X18.632400 Y145.734130 Z-3.000000
G01 X276.347100 Y49.196390 Z-3.000000
G01 X274.569700 Y63.415090 Z-3.000000
G00 Z5.000000

(End cutting path id: path876-4-5-0-8)


(Start cutting path id: path876-4-5-0-8)
(Change tool to Cylindrical cutter)

G00 Z5.000000
G00 X274.569700 Y63.415090

G01 Z-6.000000 F400.0(Penetrate)
G01 X25.461100 Y156.772250 Z-6.000000 F400.000000
G01 X18.632400 Y145.734130 Z-6.000000
G01 X276.347100 Y49.196390 Z-6.000000
G01 X274.569700 Y63.415090 Z-6.000000
G00 Z5.000000

(End cutting path id: path876-4-5-0-8)


(Start cutting path id: path876-4-5-0-8)
(Change tool to Cylindrical cutter)

G00 Z5.000000
G00 X274.569700 Y63.415090

G01 Z-6.350000 F400.0(Penetrate)
G01 X25.461100 Y156.772250 Z-6.350000 F400.000000
G01 X18.632400 Y145.734130 Z-6.350000
G01 X276.347100 Y49.196390 Z-6.350000
G01 X274.569700 Y63.415090 Z-6.350000
G00 Z5.000000

(End cutting path id: path876-4-5-0-8)


(Start cutting path id: path982-0-5-1-0)
(Change tool to Cylindrical cutter)

G00 Z5.000000
G00 X273.122500 Y56.755080

G01 Z-3.000000 F400.0(Penetrate)
G01 X24.481700 Y150.486450 Z-3.000000 F400.000000
G00 Z5.000000

(End cutting path id: path982-0-5-1-0)


(Start cutting path id: path982-0-5-1-0)
(Change tool to Cylindrical cutter)

G00 Z5.000000
G00 X273.122500 Y56.755080

G01 Z-6.000000 F400.0(Penetrate)
G01 X24.481700 Y150.486450 Z-6.000000 F400.000000
G00 Z5.000000

(End cutting path id: path982-0-5-1-0)


(Start cutting path id: path982-0-5-1-0)
(Change tool to Cylindrical cutter)

G00 Z5.000000
G00 X273.122500 Y56.755080

G01 Z-6.350000 F400.0(Penetrate)
G01 X24.481700 Y150.486450 Z-6.350000 F400.000000
G00 Z5.000000

(End cutting path id: path982-0-5-1-0)


(Footer)
M5
G00 X0.0000 Y0.0000
M2
(Using default footer. To add your own footer create file "footer" in the output dir.)
(end)
%