%
(Header)
(Generated by gcodetools from Inkscape.)
(Using default header. To add your own header create file "header" in the output dir.)
M3
(Header end.)
G21 (All units in mm)

(Start cutting path id: path2935-5-5-3)
(Change tool to Cylindrical cutter)

G00 Z5.000000
G00 X256.607200 Y751.343960

G01 Z-3.000000 F400.0(Penetrate)
G02 X259.234986 Y751.120906 Z-3.000000 I-0.958564 J-26.883261 F400.000000
G03 X260.528387 Y751.223615 Z-3.000000 I0.409214 J3.042013
G03 X261.447561 Y751.891650 Z-3.000000 I-0.495995 J1.648837
G03 X262.854400 Y754.664450 Z-3.000000 I-9.388101 J6.506548
G02 X263.349741 Y762.544361 Z-3.000000 I736.433269 J-42.337544
G02 X264.452700 Y778.462560 Z-3.000000 I7593.214358 J-518.130514
G03 X263.819508 Y780.060829 Z-3.000000 I-2.681323 J-0.137708
G03 X262.512488 Y780.978645 Z-3.000000 I-2.410458 J-2.043081
G03 X260.715869 Y781.387048 Z-3.000000 I-2.422192 J-6.499565
G03 X258.111300 Y781.520340 Z-3.000000 I-3.002437 J-33.154766
G03 X255.091473 Y781.679477 Z-3.000000 I-2.396473 J-16.743994
G03 X253.265512 Y781.302681 Z-3.000000 I0.207123 J-5.616440
G03 X251.941212 Y780.297857 Z-3.000000 I1.091992 J-2.814270
G03 X251.355900 Y778.638050 Z-3.000000 I2.355055 J-1.763589
G01 X249.278100 Y754.865550 Z-3.000000
G03 X250.193767 Y752.694121 Z-3.000000 I2.403795 J-0.265125
G03 X252.580600 Y751.533577 Z-3.000000 I3.912509 J5.011954
G03 X255.739943 Y751.289665 Z-3.000000 I2.310881 J9.349239
G03 X256.436900 Y751.873260 Z-3.000000 I-0.070011 J0.791577
G03 X257.710722 Y757.519254 Z-3.000000 I-65.116834 J17.658041
G03 X259.361987 Y767.230660 Z-3.000000 I-458.517349 J82.959449
G03 X260.722793 Y776.560515 Z-3.000000 I-357.626806 J56.925794
G03 X260.602200 Y776.587550 Z-3.000000 I-0.061499 J0.008154
G01 X255.648500 Y777.807180 Z-3.000000
G01 X254.449500 Y753.649960 Z-3.000000
G00 Z5.000000

(End cutting path id: path2935-5-5-3)


(Start cutting path id: path2935-5-5-3)
(Change tool to Cylindrical cutter)

G00 Z5.000000
G00 X256.607200 Y751.343960

G01 Z-6.000000 F400.0(Penetrate)
G02 X259.234986 Y751.120906 Z-6.000000 I-0.958564 J-26.883261 F400.000000
G03 X260.528387 Y751.223615 Z-6.000000 I0.409214 J3.042013
G03 X261.447561 Y751.891650 Z-6.000000 I-0.495995 J1.648837
G03 X262.854400 Y754.664450 Z-6.000000 I-9.388101 J6.506548
G02 X263.349741 Y762.544361 Z-6.000000 I736.433269 J-42.337544
G02 X264.452700 Y778.462560 Z-6.000000 I7593.214358 J-518.130514
G03 X263.819508 Y780.060829 Z-6.000000 I-2.681323 J-0.137708
G03 X262.512488 Y780.978645 Z-6.000000 I-2.410458 J-2.043081
G03 X260.715869 Y781.387048 Z-6.000000 I-2.422192 J-6.499565
G03 X258.111300 Y781.520340 Z-6.000000 I-3.002437 J-33.154766
G03 X255.091473 Y781.679477 Z-6.000000 I-2.396473 J-16.743994
G03 X253.265512 Y781.302681 Z-6.000000 I0.207123 J-5.616440
G03 X251.941212 Y780.297857 Z-6.000000 I1.091992 J-2.814270
G03 X251.355900 Y778.638050 Z-6.000000 I2.355055 J-1.763589
G01 X249.278100 Y754.865550 Z-6.000000
G03 X250.193767 Y752.694121 Z-6.000000 I2.403795 J-0.265125
G03 X252.580600 Y751.533577 Z-6.000000 I3.912509 J5.011954
G03 X255.739943 Y751.289665 Z-6.000000 I2.310881 J9.349239
G03 X256.436900 Y751.873260 Z-6.000000 I-0.070011 J0.791577
G03 X257.710722 Y757.519254 Z-6.000000 I-65.116834 J17.658041
G03 X259.361987 Y767.230660 Z-6.000000 I-458.517349 J82.959449
G03 X260.722793 Y776.560515 Z-6.000000 I-357.626806 J56.925794
G03 X260.602200 Y776.587550 Z-6.000000 I-0.061499 J0.008154
G01 X255.648500 Y777.807180 Z-6.000000
G01 X254.449500 Y753.649960 Z-6.000000
G00 Z5.000000

(End cutting path id: path2935-5-5-3)


(Start cutting path id: path2935-5-5-3)
(Change tool to Cylindrical cutter)

G00 Z5.000000
G00 X256.607200 Y751.343960

G01 Z-6.350000 F400.0(Penetrate)
G02 X259.234986 Y751.120906 Z-6.350000 I-0.958564 J-26.883261 F400.000000
G03 X260.528387 Y751.223615 Z-6.350000 I0.409214 J3.042013
G03 X261.447561 Y751.891650 Z-6.350000 I-0.495995 J1.648837
G03 X262.854400 Y754.664450 Z-6.350000 I-9.388101 J6.506548
G02 X263.349741 Y762.544361 Z-6.350000 I736.433269 J-42.337544
G02 X264.452700 Y778.462560 Z-6.350000 I7593.214358 J-518.130514
G03 X263.819508 Y780.060829 Z-6.350000 I-2.681323 J-0.137708
G03 X262.512488 Y780.978645 Z-6.350000 I-2.410458 J-2.043081
G03 X260.715869 Y781.387048 Z-6.350000 I-2.422192 J-6.499565
G03 X258.111300 Y781.520340 Z-6.350000 I-3.002437 J-33.154766
G03 X255.091473 Y781.679477 Z-6.350000 I-2.396473 J-16.743994
G03 X253.265512 Y781.302681 Z-6.350000 I0.207123 J-5.616440
G03 X251.941212 Y780.297857 Z-6.350000 I1.091992 J-2.814270
G03 X251.355900 Y778.638050 Z-6.350000 I2.355055 J-1.763589
G01 X249.278100 Y754.865550 Z-6.350000
G03 X250.193767 Y752.694121 Z-6.350000 I2.403795 J-0.265125
G03 X252.580600 Y751.533577 Z-6.350000 I3.912509 J5.011954
G03 X255.739943 Y751.289665 Z-6.350000 I2.310881 J9.349239
G03 X256.436900 Y751.873260 Z-6.350000 I-0.070011 J0.791577
G03 X257.710722 Y757.519254 Z-6.350000 I-65.116834 J17.658041
G03 X259.361987 Y767.230660 Z-6.350000 I-458.517349 J82.959449
G03 X260.722793 Y776.560515 Z-6.350000 I-357.626806 J56.925794
G03 X260.602200 Y776.587550 Z-6.350000 I-0.061499 J0.008154
G01 X255.648500 Y777.807180 Z-6.350000
G01 X254.449500 Y753.649960 Z-6.350000
G00 Z5.000000

(End cutting path id: path2935-5-5-3)


(Start cutting path id: path2939-0-1-3)
(Change tool to Cylindrical cutter)

G00 Z5.000000
G00 X248.374900 Y656.245030

G01 Z-3.000000 F400.0(Penetrate)
G03 X243.643897 Y656.340072 Z-3.000000 I-2.588892 J-11.072378 F400.000000
G03 X241.993225 Y655.488974 Z-3.000000 I0.618927 J-3.226641
G03 X240.956141 Y653.591585 Z-3.000000 I2.463779 J-2.578786
G03 X240.892600 Y652.353820 Z-3.000000 I4.330117 J-0.842801
G01 X238.929300 Y627.642250 Z-3.000000
G03 X239.810947 Y625.479976 Z-3.000000 I5.434361 J0.954931
G03 X240.806862 Y624.614905 Z-3.000000 I2.155794 J1.476054
G03 X242.224492 Y624.231767 Z-3.000000 I1.673513 J3.377856
G03 X243.889900 Y624.194890 Z-3.000000 I1.235072 J18.153191
G03 X247.364164 Y623.869329 Z-3.000000 I3.760596 J21.430861
G03 X249.608412 Y624.177807 Z-3.000000 I0.099905 J7.591103
G03 X251.404535 Y625.220851 Z-3.000000 I-1.235206 J4.195009
G03 X252.465300 Y627.026490 Z-3.000000 I-2.684818 J2.791665
G01 X254.262800 Y652.664390 Z-3.000000
G03 X253.232537 Y655.073994 Z-3.000000 I-4.071309 J-0.315695
G03 X251.787475 Y655.989370 Z-3.000000 I-2.341911 J-2.098754
G03 X249.682045 Y656.281766 Z-3.000000 I-2.012178 J-6.762530
G02 X247.870800 Y656.337570 Z-3.000000 I-0.272143 J20.588753
G01 X245.542500 Y650.037800 Z-3.000000
G01 X243.462000 Y628.603390 Z-3.000000
G01 X248.369400 Y628.226420 Z-3.000000
G01 X250.117900 Y650.998780 Z-3.000000
G00 Z5.000000

(End cutting path id: path2939-0-1-3)


(Start cutting path id: path2939-0-1-3)
(Change tool to Cylindrical cutter)

G00 Z5.000000
G00 X248.374900 Y656.245030

G01 Z-6.000000 F400.0(Penetrate)
G03 X243.643897 Y656.340072 Z-6.000000 I-2.588892 J-11.072378 F400.000000
G03 X241.993225 Y655.488974 Z-6.000000 I0.618927 J-3.226641
G03 X240.956141 Y653.591585 Z-6.000000 I2.463779 J-2.578786
G03 X240.892600 Y652.353820 Z-6.000000 I4.330117 J-0.842801
G01 X238.929300 Y627.642250 Z-6.000000
G03 X239.810947 Y625.479976 Z-6.000000 I5.434361 J0.954931
G03 X240.806862 Y624.614905 Z-6.000000 I2.155794 J1.476054
G03 X242.224492 Y624.231767 Z-6.000000 I1.673513 J3.377856
G03 X243.889900 Y624.194890 Z-6.000000 I1.235072 J18.153191
G03 X247.364164 Y623.869329 Z-6.000000 I3.760596 J21.430861
G03 X249.608412 Y624.177807 Z-6.000000 I0.099905 J7.591103
G03 X251.404535 Y625.220851 Z-6.000000 I-1.235206 J4.195009
G03 X252.465300 Y627.026490 Z-6.000000 I-2.684818 J2.791665
G01 X254.262800 Y652.664390 Z-6.000000
G03 X253.232537 Y655.073994 Z-6.000000 I-4.071309 J-0.315695
G03 X251.787475 Y655.989370 Z-6.000000 I-2.341911 J-2.098754
G03 X249.682045 Y656.281766 Z-6.000000 I-2.012178 J-6.762530
G02 X247.870800 Y656.337570 Z-6.000000 I-0.272143 J20.588753
G01 X245.542500 Y650.037800 Z-6.000000
G01 X243.462000 Y628.603390 Z-6.000000
G01 X248.369400 Y628.226420 Z-6.000000
G01 X250.117900 Y650.998780 Z-6.000000
G00 Z5.000000

(End cutting path id: path2939-0-1-3)


(Start cutting path id: path2939-0-1-3)
(Change tool to Cylindrical cutter)

G00 Z5.000000
G00 X248.374900 Y656.245030

G01 Z-6.350000 F400.0(Penetrate)
G03 X243.643897 Y656.340072 Z-6.350000 I-2.588892 J-11.072378 F400.000000
G03 X241.993225 Y655.488974 Z-6.350000 I0.618927 J-3.226641
G03 X240.956141 Y653.591585 Z-6.350000 I2.463779 J-2.578786
G03 X240.892600 Y652.353820 Z-6.350000 I4.330117 J-0.842801
G01 X238.929300 Y627.642250 Z-6.350000
G03 X239.810947 Y625.479976 Z-6.350000 I5.434361 J0.954931
G03 X240.806862 Y624.614905 Z-6.350000 I2.155794 J1.476054
G03 X242.224492 Y624.231767 Z-6.350000 I1.673513 J3.377856
G03 X243.889900 Y624.194890 Z-6.350000 I1.235072 J18.153191
G03 X247.364164 Y623.869329 Z-6.350000 I3.760596 J21.430861
G03 X249.608412 Y624.177807 Z-6.350000 I0.099905 J7.591103
G03 X251.404535 Y625.220851 Z-6.350000 I-1.235206 J4.195009
G03 X252.465300 Y627.026490 Z-6.350000 I-2.684818 J2.791665
G01 X254.262800 Y652.664390 Z-6.350000
G03 X253.232537 Y655.073994 Z-6.350000 I-4.071309 J-0.315695
G03 X251.787475 Y655.989370 Z-6.350000 I-2.341911 J-2.098754
G03 X249.682045 Y656.281766 Z-6.350000 I-2.012178 J-6.762530
G02 X247.870800 Y656.337570 Z-6.350000 I-0.272143 J20.588753
G01 X245.542500 Y650.037800 Z-6.350000
G01 X243.462000 Y628.603390 Z-6.350000
G01 X248.369400 Y628.226420 Z-6.350000
G01 X250.117900 Y650.998780 Z-6.350000
G00 Z5.000000

(End cutting path id: path2939-0-1-3)


(Start cutting path id: path2939-0-7-3-71)
(Change tool to Cylindrical cutter)

G00 Z5.000000
G00 X249.812100 Y535.973390

G01 Z-3.000000 F400.0(Penetrate)
G03 X245.601377 Y534.729616 Z-3.000000 I1.490635 J-12.795916 F400.000000
G03 X244.498038 Y533.714932 Z-3.000000 I1.179347 J-2.389604
G03 X244.143306 Y532.071842 Z-3.000000 I2.225065 J-1.340214
G03 X244.355900 Y530.886310 Z-3.000000 I9.880823 J1.160042
G01 X246.066800 Y506.155970 Z-3.000000
G03 X247.258321 Y504.147769 Z-3.000000 I5.233076 J1.747347
G03 X248.371187 Y503.439405 Z-3.000000 I1.913918 J1.778477
G03 X249.829927 Y503.270024 Z-3.000000 I1.155861 J3.588337
G03 X251.482500 Y503.479720 Z-3.000000 I-1.461956 J18.138070
G03 X254.966800 Y503.671254 Z-3.000000 I0.551678 J21.752299
G03 X257.140825 Y504.308057 Z-3.000000 I-1.023195 J7.522577
G03 X258.763041 Y505.605129 Z-3.000000 I-1.841605 J3.966219
G03 X259.545200 Y507.547720 Z-3.000000 I-3.067764 J2.363954
G01 X257.533600 Y533.169710 Z-3.000000
G03 X256.503361 Y535.300829 Z-3.000000 I-5.008807 J-1.106806
G03 X255.516975 Y535.951992 Z-3.000000 I-1.530282 J-1.245407
G03 X254.120647 Y536.071714 Z-3.000000 I-1.003243 J-3.498322
G02 X252.413600 Y535.916180 Z-3.000000 I-5.332985 J49.086090
G01 X249.297100 Y529.282930 Z-3.000000
G01 X250.407700 Y507.776510 Z-3.000000
G01 X255.316900 Y508.129050 Z-3.000000
G01 X253.680200 Y530.909700 Z-3.000000
G00 Z5.000000

(End cutting path id: path2939-0-7-3-71)


(Start cutting path id: path2939-0-7-3-71)
(Change tool to Cylindrical cutter)

G00 Z5.000000
G00 X249.812100 Y535.973390

G01 Z-6.000000 F400.0(Penetrate)
G03 X245.601377 Y534.729616 Z-6.000000 I1.490635 J-12.795916 F400.000000
G03 X244.498038 Y533.714932 Z-6.000000 I1.179347 J-2.389604
G03 X244.143306 Y532.071842 Z-6.000000 I2.225065 J-1.340214
G03 X244.355900 Y530.886310 Z-6.000000 I9.880823 J1.160042
G01 X246.066800 Y506.155970 Z-6.000000
G03 X247.258321 Y504.147769 Z-6.000000 I5.233076 J1.747347
G03 X248.371187 Y503.439405 Z-6.000000 I1.913918 J1.778477
G03 X249.829927 Y503.270024 Z-6.000000 I1.155861 J3.588337
G03 X251.482500 Y503.479720 Z-6.000000 I-1.461956 J18.138070
G03 X254.966800 Y503.671254 Z-6.000000 I0.551678 J21.752299
G03 X257.140825 Y504.308057 Z-6.000000 I-1.023195 J7.522577
G03 X258.763041 Y505.605129 Z-6.000000 I-1.841605 J3.966219
G03 X259.545200 Y507.547720 Z-6.000000 I-3.067764 J2.363954
G01 X257.533600 Y533.169710 Z-6.000000
G03 X256.503361 Y535.300829 Z-6.000000 I-5.008807 J-1.106806
G03 X255.516975 Y535.951992 Z-6.000000 I-1.530282 J-1.245407
G03 X254.120647 Y536.071714 Z-6.000000 I-1.003243 J-3.498322
G02 X252.413600 Y535.916180 Z-6.000000 I-5.332985 J49.086090
G01 X249.297100 Y529.282930 Z-6.000000
G01 X250.407700 Y507.776510 Z-6.000000
G01 X255.316900 Y508.129050 Z-6.000000
G01 X253.680200 Y530.909700 Z-6.000000
G00 Z5.000000

(End cutting path id: path2939-0-7-3-71)


(Start cutting path id: path2939-0-7-3-71)
(Change tool to Cylindrical cutter)

G00 Z5.000000
G00 X249.812100 Y535.973390

G01 Z-6.350000 F400.0(Penetrate)
G03 X245.601377 Y534.729616 Z-6.350000 I1.490635 J-12.795916 F400.000000
G03 X244.498038 Y533.714932 Z-6.350000 I1.179347 J-2.389604
G03 X244.143306 Y532.071842 Z-6.350000 I2.225065 J-1.340214
G03 X244.355900 Y530.886310 Z-6.350000 I9.880823 J1.160042
G01 X246.066800 Y506.155970 Z-6.350000
G03 X247.258321 Y504.147769 Z-6.350000 I5.233076 J1.747347
G03 X248.371187 Y503.439405 Z-6.350000 I1.913918 J1.778477
G03 X249.829927 Y503.270024 Z-6.350000 I1.155861 J3.588337
G03 X251.482500 Y503.479720 Z-6.350000 I-1.461956 J18.138070
G03 X254.966800 Y503.671254 Z-6.350000 I0.551678 J21.752299
G03 X257.140825 Y504.308057 Z-6.350000 I-1.023195 J7.522577
G03 X258.763041 Y505.605129 Z-6.350000 I-1.841605 J3.966219
G03 X259.545200 Y507.547720 Z-6.350000 I-3.067764 J2.363954
G01 X257.533600 Y533.169710 Z-6.350000
G03 X256.503361 Y535.300829 Z-6.350000 I-5.008807 J-1.106806
G03 X255.516975 Y535.951992 Z-6.350000 I-1.530282 J-1.245407
G03 X254.120647 Y536.071714 Z-6.350000 I-1.003243 J-3.498322
G02 X252.413600 Y535.916180 Z-6.350000 I-5.332985 J49.086090
G01 X249.297100 Y529.282930 Z-6.350000
G01 X250.407700 Y507.776510 Z-6.350000
G01 X255.316900 Y508.129050 Z-6.350000
G01 X253.680200 Y530.909700 Z-6.350000
G00 Z5.000000

(End cutting path id: path2939-0-7-3-71)


(Start cutting path id: path4625-1-2-7-0)
(Change tool to Cylindrical cutter)

G00 Z5.000000
G00 X207.789600 Y391.869890

G01 Z-3.000000 F400.0(Penetrate)
G01 X206.195300 Y408.886290 Z-3.000000 F400.000000
G03 X212.410380 Y428.376499 Z-3.000000 I-199.036591 J74.205266
G03 X217.172812 Y448.818584 Z-3.000000 I-320.674830 J85.484036
G03 X220.749224 Y469.562853 Z-3.000000 I-389.010395 J77.747690
G03 X223.070200 Y487.682600 Z-3.000000 I-538.240301 J78.152241
G03 X223.383959 Y527.417593 Z-3.000000 I-970.883411 J27.535112
G03 X222.559450 Y566.435074 Z-3.000000 I-2277.391106 J-28.607888
G03 X221.303469 Y605.454929 Z-3.000000 I-7864.666177 J-233.619766
G02 X220.344700 Y644.166730 Z-3.000000 I1955.334276 J67.795216
G02 X220.710612 Y676.034334 Z-3.000000 I564.949507 J9.449000
G02 X222.663825 Y706.587004 Z-3.000000 I633.279959 J-25.146413
G02 X226.196762 Y737.122622 Z-3.000000 I563.169134 J-49.685847
G02 X230.062700 Y758.308790 Z-3.000000 I279.737042 J-40.099113
G02 X233.337589 Y772.430127 Z-3.000000 I437.552654 J-94.032727
G02 X237.409087 Y786.996026 Z-3.000000 I257.618626 J-64.158250
G02 X242.461774 Y801.228673 Z-3.000000 I180.008615 J-55.891089
G02 X247.482400 Y811.298320 Z-3.000000 I64.290307 J-25.768069
G02 X251.376353 Y815.471564 Z-3.000000 I12.549241 J-7.806096
G02 X257.175687 Y818.686909 Z-3.000000 I16.295833 J-22.554226
G02 X263.646602 Y820.452914 Z-3.000000 I10.535373 J-25.865010
G02 X268.264500 Y820.224920 Z-3.000000 I1.732935 J-11.780847
G02 X276.896500 Y815.407155 Z-3.000000 I-4.322939 J-17.887289
G02 X280.605238 Y809.299646 Z-3.000000 I-10.407811 J-10.499868
G02 X281.921308 Y801.219795 Z-3.000000 I-27.970607 J-8.703044
G02 X282.088600 Y791.394790 Z-3.000000 I-1155.720993 J-24.592629
G02 X282.101374 Y785.828772 Z-3.000000 I-46.113419 J-2.888856
G02 X280.325162 Y758.533354 Z-3.000000 I-1948.551922 J113.093833
G02 X278.321813 Y732.344255 Z-3.000000 I-3005.860148 J216.763777
G02 X276.520900 Y711.218270 Z-3.000000 I-2436.944667 J197.100846
G03 X274.924785 Y689.280757 Z-3.000000 I1378.504619 J-111.323163
G03 X273.858800 Y667.758139 Z-3.000000 I707.905725 J-45.849272
G03 X273.534714 Y646.226421 Z-3.000000 I559.071507 J-19.183190
G03 X274.193100 Y625.419250 Z-3.000000 I379.464818 J1.593119
G01 X283.925500 Y489.340950 Z-3.000000
G02 X284.111278 Y472.635020 Z-3.000000 I-586.299419 J-14.873927
G02 X283.710137 Y456.079786 Z-3.000000 I-392.409266 J1.225768
G02 X282.553407 Y439.574479 Z-3.000000 I-335.436754 J15.214995
G02 X280.477600 Y423.197560 Z-3.000000 I-261.138010 J24.779753
G02 X277.054898 Y391.721043 Z-3.000000 I-1367.922675 J132.821177
G03 X273.325587 Y360.692439 Z-3.000000 I71777.638076 J-8642.653306
G03 X269.795715 Y329.646984 Z-3.000000 I2507.700997 J-300.849385
G03 X266.972100 Y298.096830 Z-3.000000 I886.226192 J-95.215184
G03 X265.006847 Y266.158064 Z-3.000000 I679.721213 J-57.854395
G03 X264.404112 Y226.128702 Z-3.000000 I871.931039 J-33.148144
G03 X265.707563 Y186.210105 Z-3.000000 I806.766872 J6.362548
G03 X269.136700 Y150.117640 Z-3.000000 I484.920679 J27.863072
G02 X273.519136 Y118.839010 Z-3.000000 I-2571.428293 J-376.228100
G03 X278.018375 Y86.356636 Z-3.000000 I3602.775587 J482.479373
G03 X282.974007 Y53.955930 Z-3.000000 I1685.776831 J241.257329
G03 X288.800700 Y22.298250 Z-3.000000 I770.447962 J125.438253
G01 X182.735500 Y11.721590 Z-3.000000
G01 X10.377600 Y372.165050 Z-3.000000
G01 X207.789600 Y391.869890 Z-3.000000
G00 Z5.000000

(End cutting path id: path4625-1-2-7-0)


(Start cutting path id: path4625-1-2-7-0)
(Change tool to Cylindrical cutter)

G00 Z5.000000
G00 X207.789600 Y391.869890

G01 Z-6.000000 F400.0(Penetrate)
G01 X206.195300 Y408.886290 Z-6.000000 F400.000000
G03 X212.410380 Y428.376499 Z-6.000000 I-199.036591 J74.205266
G03 X217.172812 Y448.818584 Z-6.000000 I-320.674830 J85.484036
G03 X220.749224 Y469.562853 Z-6.000000 I-389.010395 J77.747690
G03 X223.070200 Y487.682600 Z-6.000000 I-538.240301 J78.152241
G03 X223.383959 Y527.417593 Z-6.000000 I-970.883411 J27.535112
G03 X222.559450 Y566.435074 Z-6.000000 I-2277.391106 J-28.607888
G03 X221.303469 Y605.454929 Z-6.000000 I-7864.666177 J-233.619766
G02 X220.344700 Y644.166730 Z-6.000000 I1955.334276 J67.795216
G02 X220.710612 Y676.034334 Z-6.000000 I564.949507 J9.449000
G02 X222.663825 Y706.587004 Z-6.000000 I633.279959 J-25.146413
G02 X226.196762 Y737.122622 Z-6.000000 I563.169134 J-49.685847
G02 X230.062700 Y758.308790 Z-6.000000 I279.737042 J-40.099113
G02 X233.337589 Y772.430127 Z-6.000000 I437.552654 J-94.032727
G02 X237.409087 Y786.996026 Z-6.000000 I257.618626 J-64.158250
G02 X242.461774 Y801.228673 Z-6.000000 I180.008615 J-55.891089
G02 X247.482400 Y811.298320 Z-6.000000 I64.290307 J-25.768069
G02 X251.376353 Y815.471564 Z-6.000000 I12.549241 J-7.806096
G02 X257.175687 Y818.686909 Z-6.000000 I16.295833 J-22.554226
G02 X263.646602 Y820.452914 Z-6.000000 I10.535373 J-25.865010
G02 X268.264500 Y820.224920 Z-6.000000 I1.732935 J-11.780847
G02 X276.896500 Y815.407155 Z-6.000000 I-4.322939 J-17.887289
G02 X280.605238 Y809.299646 Z-6.000000 I-10.407811 J-10.499868
G02 X281.921308 Y801.219795 Z-6.000000 I-27.970607 J-8.703044
G02 X282.088600 Y791.394790 Z-6.000000 I-1155.720993 J-24.592629
G02 X282.101374 Y785.828772 Z-6.000000 I-46.113419 J-2.888856
G02 X280.325162 Y758.533354 Z-6.000000 I-1948.551922 J113.093833
G02 X278.321813 Y732.344255 Z-6.000000 I-3005.860148 J216.763777
G02 X276.520900 Y711.218270 Z-6.000000 I-2436.944667 J197.100846
G03 X274.924785 Y689.280757 Z-6.000000 I1378.504619 J-111.323163
G03 X273.858800 Y667.758139 Z-6.000000 I707.905725 J-45.849272
G03 X273.534714 Y646.226421 Z-6.000000 I559.071507 J-19.183190
G03 X274.193100 Y625.419250 Z-6.000000 I379.464818 J1.593119
G01 X283.925500 Y489.340950 Z-6.000000
G02 X284.111278 Y472.635020 Z-6.000000 I-586.299419 J-14.873927
G02 X283.710137 Y456.079786 Z-6.000000 I-392.409266 J1.225768
G02 X282.553407 Y439.574479 Z-6.000000 I-335.436754 J15.214995
G02 X280.477600 Y423.197560 Z-6.000000 I-261.138010 J24.779753
G02 X277.054898 Y391.721043 Z-6.000000 I-1367.922675 J132.821177
G03 X273.325587 Y360.692439 Z-6.000000 I71777.638076 J-8642.653306
G03 X269.795715 Y329.646984 Z-6.000000 I2507.700997 J-300.849385
G03 X266.972100 Y298.096830 Z-6.000000 I886.226192 J-95.215184
G03 X265.006847 Y266.158064 Z-6.000000 I679.721213 J-57.854395
G03 X264.404112 Y226.128702 Z-6.000000 I871.931039 J-33.148144
G03 X265.707563 Y186.210105 Z-6.000000 I806.766872 J6.362548
G03 X269.136700 Y150.117640 Z-6.000000 I484.920679 J27.863072
G02 X273.519136 Y118.839010 Z-6.000000 I-2571.428293 J-376.228100
G03 X278.018375 Y86.356636 Z-6.000000 I3602.775587 J482.479373
G03 X282.974007 Y53.955930 Z-6.000000 I1685.776831 J241.257329
G03 X288.800700 Y22.298250 Z-6.000000 I770.447962 J125.438253
G01 X182.735500 Y11.721590 Z-6.000000
G01 X10.377600 Y372.165050 Z-6.000000
G01 X207.789600 Y391.869890 Z-6.000000
G00 Z5.000000

(End cutting path id: path4625-1-2-7-0)


(Start cutting path id: path4625-1-2-7-0)
(Change tool to Cylindrical cutter)

G00 Z5.000000
G00 X207.789600 Y391.869890

G01 Z-6.350000 F400.0(Penetrate)
G01 X206.195300 Y408.886290 Z-6.350000 F400.000000
G03 X212.410380 Y428.376499 Z-6.350000 I-199.036591 J74.205266
G03 X217.172812 Y448.818584 Z-6.350000 I-320.674830 J85.484036
G03 X220.749224 Y469.562853 Z-6.350000 I-389.010395 J77.747690
G03 X223.070200 Y487.682600 Z-6.350000 I-538.240301 J78.152241
G03 X223.383959 Y527.417593 Z-6.350000 I-970.883411 J27.535112
G03 X222.559450 Y566.435074 Z-6.350000 I-2277.391106 J-28.607888
G03 X221.303469 Y605.454929 Z-6.350000 I-7864.666177 J-233.619766
G02 X220.344700 Y644.166730 Z-6.350000 I1955.334276 J67.795216
G02 X220.710612 Y676.034334 Z-6.350000 I564.949507 J9.449000
G02 X222.663825 Y706.587004 Z-6.350000 I633.279959 J-25.146413
G02 X226.196762 Y737.122622 Z-6.350000 I563.169134 J-49.685847
G02 X230.062700 Y758.308790 Z-6.350000 I279.737042 J-40.099113
G02 X233.337589 Y772.430127 Z-6.350000 I437.552654 J-94.032727
G02 X237.409087 Y786.996026 Z-6.350000 I257.618626 J-64.158250
G02 X242.461774 Y801.228673 Z-6.350000 I180.008615 J-55.891089
G02 X247.482400 Y811.298320 Z-6.350000 I64.290307 J-25.768069
G02 X251.376353 Y815.471564 Z-6.350000 I12.549241 J-7.806096
G02 X257.175687 Y818.686909 Z-6.350000 I16.295833 J-22.554226
G02 X263.646602 Y820.452914 Z-6.350000 I10.535373 J-25.865010
G02 X268.264500 Y820.224920 Z-6.350000 I1.732935 J-11.780847
G02 X276.896500 Y815.407155 Z-6.350000 I-4.322939 J-17.887289
G02 X280.605238 Y809.299646 Z-6.350000 I-10.407811 J-10.499868
G02 X281.921308 Y801.219795 Z-6.350000 I-27.970607 J-8.703044
G02 X282.088600 Y791.394790 Z-6.350000 I-1155.720993 J-24.592629
G02 X282.101374 Y785.828772 Z-6.350000 I-46.113419 J-2.888856
G02 X280.325162 Y758.533354 Z-6.350000 I-1948.551922 J113.093833
G02 X278.321813 Y732.344255 Z-6.350000 I-3005.860148 J216.763777
G02 X276.520900 Y711.218270 Z-6.350000 I-2436.944667 J197.100846
G03 X274.924785 Y689.280757 Z-6.350000 I1378.504619 J-111.323163
G03 X273.858800 Y667.758139 Z-6.350000 I707.905725 J-45.849272
G03 X273.534714 Y646.226421 Z-6.350000 I559.071507 J-19.183190
G03 X274.193100 Y625.419250 Z-6.350000 I379.464818 J1.593119
G01 X283.925500 Y489.340950 Z-6.350000
G02 X284.111278 Y472.635020 Z-6.350000 I-586.299419 J-14.873927
G02 X283.710137 Y456.079786 Z-6.350000 I-392.409266 J1.225768
G02 X282.553407 Y439.574479 Z-6.350000 I-335.436754 J15.214995
G02 X280.477600 Y423.197560 Z-6.350000 I-261.138010 J24.779753
G02 X277.054898 Y391.721043 Z-6.350000 I-1367.922675 J132.821177
G03 X273.325587 Y360.692439 Z-6.350000 I71777.638076 J-8642.653306
G03 X269.795715 Y329.646984 Z-6.350000 I2507.700997 J-300.849385
G03 X266.972100 Y298.096830 Z-6.350000 I886.226192 J-95.215184
G03 X265.006847 Y266.158064 Z-6.350000 I679.721213 J-57.854395
G03 X264.404112 Y226.128702 Z-6.350000 I871.931039 J-33.148144
G03 X265.707563 Y186.210105 Z-6.350000 I806.766872 J6.362548
G03 X269.136700 Y150.117640 Z-6.350000 I484.920679 J27.863072
G02 X273.519136 Y118.839010 Z-6.350000 I-2571.428293 J-376.228100
G03 X278.018375 Y86.356636 Z-6.350000 I3602.775587 J482.479373
G03 X282.974007 Y53.955930 Z-6.350000 I1685.776831 J241.257329
G03 X288.800700 Y22.298250 Z-6.350000 I770.447962 J125.438253
G01 X182.735500 Y11.721590 Z-6.350000
G01 X10.377600 Y372.165050 Z-6.350000
G01 X207.789600 Y391.869890 Z-6.350000
G00 Z5.000000

(End cutting path id: path4625-1-2-7-0)


(Start cutting path id: path4629-7-8-60-8)
(Change tool to Cylindrical cutter)

G00 Z5.000000
G00 X95.209400 Y337.526280

G01 Z-3.000000 F400.0(Penetrate)
G02 X106.104330 Y338.831114 Z-3.000000 I35.094959 J-246.894259 F400.000000
G02 X147.178938 Y342.769886 Z-3.000000 I1255.675319 J-12878.392397
G02 X189.469955 Y346.706027 Z-3.000000 I1659.909584 J-17605.378703
G03 X193.159200 Y347.096340 Z-3.000000 I-12.295335 J133.846398
G02 X196.044087 Y346.638225 Z-3.000000 I0.605971 J-5.496576
G02 X198.266100 Y345.092175 Z-3.000000 I-3.062992 J-6.771976
G02 X199.925393 Y342.747986 Z-3.000000 I-6.261265 J-6.191273
G02 X200.478000 Y340.665630 Z-3.000000 I-5.058264 J-2.456843
G01 X208.543000 Y252.591460 Z-3.000000
G02 X208.544606 Y248.097824 Z-3.000000 I-16.797403 J-2.252820
G02 X207.500938 Y244.976880 Z-3.000000 I-8.630954 J1.151281
G02 X205.366517 Y242.674775 Z-3.000000 I-5.879222 J3.310454
G02 X201.873300 Y241.351370 Z-3.000000 I-4.621282 J6.926192
G01 X141.488000 Y236.243560 Z-3.000000
G02 X138.960490 Y236.351278 Z-3.000000 I-0.811101 J10.675024
G02 X136.507088 Y237.217830 Z-3.000000 I1.174694 J7.232161
G02 X134.521815 Y238.840007 Z-3.000000 I3.817433 J6.697807
G02 X132.279100 Y242.250320 Z-3.000000 I11.252385 J9.842469
G02 X131.415832 Y243.915268 Z-3.000000 I20.287903 J11.575463
G02 X111.686287 Y286.068632 Z-3.000000 I49955.015611 J23406.738286
G02 X101.714410 Y307.408975 Z-3.000000 I52084.761816 J24351.273942
G02 X91.801400 Y328.646190 Z-3.000000 I51053.184211 J23843.112147
G02 X90.493459 Y331.840576 Z-3.000000 I16.725478 J8.713207
G02 X90.400250 Y334.187190 Z-3.000000 I4.412707 J1.350434
G02 X91.486973 Y335.883842 Z-3.000000 I2.852353 J-0.630606
G02 X95.209400 Y337.526280 Z-3.000000 I5.314145 J-7.004520
G01 X95.209400 Y337.526280 Z-3.000000
G00 Z5.000000

(End cutting path id: path4629-7-8-60-8)


(Start cutting path id: path4629-7-8-60-8)
(Change tool to Cylindrical cutter)

G00 Z5.000000
G00 X95.209400 Y337.526280

G01 Z-6.000000 F400.0(Penetrate)
G02 X106.104330 Y338.831114 Z-6.000000 I35.094959 J-246.894259 F400.000000
G02 X147.178938 Y342.769886 Z-6.000000 I1255.675319 J-12878.392397
G02 X189.469955 Y346.706027 Z-6.000000 I1659.909584 J-17605.378703
G03 X193.159200 Y347.096340 Z-6.000000 I-12.295335 J133.846398
G02 X196.044087 Y346.638225 Z-6.000000 I0.605971 J-5.496576
G02 X198.266100 Y345.092175 Z-6.000000 I-3.062992 J-6.771976
G02 X199.925393 Y342.747986 Z-6.000000 I-6.261265 J-6.191273
G02 X200.478000 Y340.665630 Z-6.000000 I-5.058264 J-2.456843
G01 X208.543000 Y252.591460 Z-6.000000
G02 X208.544606 Y248.097824 Z-6.000000 I-16.797403 J-2.252820
G02 X207.500938 Y244.976880 Z-6.000000 I-8.630954 J1.151281
G02 X205.366517 Y242.674775 Z-6.000000 I-5.879222 J3.310454
G02 X201.873300 Y241.351370 Z-6.000000 I-4.621282 J6.926192
G01 X141.488000 Y236.243560 Z-6.000000
G02 X138.960490 Y236.351278 Z-6.000000 I-0.811101 J10.675024
G02 X136.507088 Y237.217830 Z-6.000000 I1.174694 J7.232161
G02 X134.521815 Y238.840007 Z-6.000000 I3.817433 J6.697807
G02 X132.279100 Y242.250320 Z-6.000000 I11.252385 J9.842469
G02 X131.415832 Y243.915268 Z-6.000000 I20.287903 J11.575463
G02 X111.686287 Y286.068632 Z-6.000000 I49955.015611 J23406.738286
G02 X101.714410 Y307.408975 Z-6.000000 I52084.761816 J24351.273942
G02 X91.801400 Y328.646190 Z-6.000000 I51053.184211 J23843.112147
G02 X90.493459 Y331.840576 Z-6.000000 I16.725478 J8.713207
G02 X90.400250 Y334.187190 Z-6.000000 I4.412707 J1.350434
G02 X91.486973 Y335.883842 Z-6.000000 I2.852353 J-0.630606
G02 X95.209400 Y337.526280 Z-6.000000 I5.314145 J-7.004520
G01 X95.209400 Y337.526280 Z-6.000000
G00 Z5.000000

(End cutting path id: path4629-7-8-60-8)


(Start cutting path id: path4629-7-8-60-8)
(Change tool to Cylindrical cutter)

G00 Z5.000000
G00 X95.209400 Y337.526280

G01 Z-6.350000 F400.0(Penetrate)
G02 X106.104330 Y338.831114 Z-6.350000 I35.094959 J-246.894259 F400.000000
G02 X147.178938 Y342.769886 Z-6.350000 I1255.675319 J-12878.392397
G02 X189.469955 Y346.706027 Z-6.350000 I1659.909584 J-17605.378703
G03 X193.159200 Y347.096340 Z-6.350000 I-12.295335 J133.846398
G02 X196.044087 Y346.638225 Z-6.350000 I0.605971 J-5.496576
G02 X198.266100 Y345.092175 Z-6.350000 I-3.062992 J-6.771976
G02 X199.925393 Y342.747986 Z-6.350000 I-6.261265 J-6.191273
G02 X200.478000 Y340.665630 Z-6.350000 I-5.058264 J-2.456843
G01 X208.543000 Y252.591460 Z-6.350000
G02 X208.544606 Y248.097824 Z-6.350000 I-16.797403 J-2.252820
G02 X207.500938 Y244.976880 Z-6.350000 I-8.630954 J1.151281
G02 X205.366517 Y242.674775 Z-6.350000 I-5.879222 J3.310454
G02 X201.873300 Y241.351370 Z-6.350000 I-4.621282 J6.926192
G01 X141.488000 Y236.243560 Z-6.350000
G02 X138.960490 Y236.351278 Z-6.350000 I-0.811101 J10.675024
G02 X136.507088 Y237.217830 Z-6.350000 I1.174694 J7.232161
G02 X134.521815 Y238.840007 Z-6.350000 I3.817433 J6.697807
G02 X132.279100 Y242.250320 Z-6.350000 I11.252385 J9.842469
G02 X131.415832 Y243.915268 Z-6.350000 I20.287903 J11.575463
G02 X111.686287 Y286.068632 Z-6.350000 I49955.015611 J23406.738286
G02 X101.714410 Y307.408975 Z-6.350000 I52084.761816 J24351.273942
G02 X91.801400 Y328.646190 Z-6.350000 I51053.184211 J23843.112147
G02 X90.493459 Y331.840576 Z-6.350000 I16.725478 J8.713207
G02 X90.400250 Y334.187190 Z-6.350000 I4.412707 J1.350434
G02 X91.486973 Y335.883842 Z-6.350000 I2.852353 J-0.630606
G02 X95.209400 Y337.526280 Z-6.350000 I5.314145 J-7.004520
G01 X95.209400 Y337.526280 Z-6.350000
G00 Z5.000000

(End cutting path id: path4629-7-8-60-8)


(Start cutting path id: path4641-7-8-8-4)
(Change tool to Cylindrical cutter)

G00 Z5.000000
G00 X89.601900 Y198.277640

G01 Z-3.000000 F400.0(Penetrate)
G01 X231.538000 Y213.797920 Z-3.000000 F400.000000
G03 X234.067128 Y213.932780 Z-3.000000 I-7.297325 J160.634552
G02 X235.820738 Y213.854846 Z-3.000000 I0.509034 J-8.314264
G02 X237.278489 Y213.293141 Z-3.000000 I-0.540066 J-3.574041
G02 X238.469300 Y211.921550 Z-3.000000 I-1.880386 J-2.835270
G02 X238.706416 Y211.039219 Z-3.000000 I-15.795492 J-4.717869
G02 X239.259700 Y208.057072 Z-3.000000 I-28.721834 J-6.871227
G02 X239.468424 Y205.178640 Z-3.000000 I-23.980034 J-3.185650
G02 X239.108400 Y202.684150 Z-3.000000 I-8.108242 J-0.102981
G02 X238.137579 Y201.612719 Z-3.000000 I-2.462932 J1.256112
G02 X236.772438 Y201.070749 Z-3.000000 I-2.075476 J3.237535
G02 X235.141395 Y200.876380 Z-3.000000 I-2.260246 J12.026169
G03 X232.158500 Y200.647440 Z-3.000000 I3.057512 J-59.383709
G01 X94.488100 Y186.081420 Z-3.000000
G01 X92.987700 Y193.844570 Z-3.000000
G01 X234.699700 Y209.069470 Z-3.000000
G01 X236.203800 Y205.649650 Z-3.000000
G01 X96.013600 Y191.183240 Z-3.000000
G01 X90.832900 Y197.987140 Z-3.000000
G00 Z5.000000

(End cutting path id: path4641-7-8-8-4)


(Start cutting path id: path4641-7-8-8-4)
(Change tool to Cylindrical cutter)

G00 Z5.000000
G00 X89.601900 Y198.277640

G01 Z-6.000000 F400.0(Penetrate)
G01 X231.538000 Y213.797920 Z-6.000000 F400.000000
G03 X234.067128 Y213.932780 Z-6.000000 I-7.297325 J160.634552
G02 X235.820738 Y213.854846 Z-6.000000 I0.509034 J-8.314264
G02 X237.278489 Y213.293141 Z-6.000000 I-0.540066 J-3.574041
G02 X238.469300 Y211.921550 Z-6.000000 I-1.880386 J-2.835270
G02 X238.706416 Y211.039219 Z-6.000000 I-15.795492 J-4.717869
G02 X239.259700 Y208.057072 Z-6.000000 I-28.721834 J-6.871227
G02 X239.468424 Y205.178640 Z-6.000000 I-23.980034 J-3.185650
G02 X239.108400 Y202.684150 Z-6.000000 I-8.108242 J-0.102981
G02 X238.137579 Y201.612719 Z-6.000000 I-2.462932 J1.256112
G02 X236.772438 Y201.070749 Z-6.000000 I-2.075476 J3.237535
G02 X235.141395 Y200.876380 Z-6.000000 I-2.260246 J12.026169
G03 X232.158500 Y200.647440 Z-6.000000 I3.057512 J-59.383709
G01 X94.488100 Y186.081420 Z-6.000000
G01 X92.987700 Y193.844570 Z-6.000000
G01 X234.699700 Y209.069470 Z-6.000000
G01 X236.203800 Y205.649650 Z-6.000000
G01 X96.013600 Y191.183240 Z-6.000000
G01 X90.832900 Y197.987140 Z-6.000000
G00 Z5.000000

(End cutting path id: path4641-7-8-8-4)


(Start cutting path id: path4641-7-8-8-4)
(Change tool to Cylindrical cutter)

G00 Z5.000000
G00 X89.601900 Y198.277640

G01 Z-6.350000 F400.0(Penetrate)
G01 X231.538000 Y213.797920 Z-6.350000 F400.000000
G03 X234.067128 Y213.932780 Z-6.350000 I-7.297325 J160.634552
G02 X235.820738 Y213.854846 Z-6.350000 I0.509034 J-8.314264
G02 X237.278489 Y213.293141 Z-6.350000 I-0.540066 J-3.574041
G02 X238.469300 Y211.921550 Z-6.350000 I-1.880386 J-2.835270
G02 X238.706416 Y211.039219 Z-6.350000 I-15.795492 J-4.717869
G02 X239.259700 Y208.057072 Z-6.350000 I-28.721834 J-6.871227
G02 X239.468424 Y205.178640 Z-6.350000 I-23.980034 J-3.185650
G02 X239.108400 Y202.684150 Z-6.350000 I-8.108242 J-0.102981
G02 X238.137579 Y201.612719 Z-6.350000 I-2.462932 J1.256112
G02 X236.772438 Y201.070749 Z-6.350000 I-2.075476 J3.237535
G02 X235.141395 Y200.876380 Z-6.350000 I-2.260246 J12.026169
G03 X232.158500 Y200.647440 Z-6.350000 I3.057512 J-59.383709
G01 X94.488100 Y186.081420 Z-6.350000
G01 X92.987700 Y193.844570 Z-6.350000
G01 X234.699700 Y209.069470 Z-6.350000
G01 X236.203800 Y205.649650 Z-6.350000
G01 X96.013600 Y191.183240 Z-6.350000
G01 X90.832900 Y197.987140 Z-6.350000
G00 Z5.000000

(End cutting path id: path4641-7-8-8-4)


(Start cutting path id: path4627-2-7-0-9)
(Change tool to Cylindrical cutter)

G00 Z5.000000
G00 X216.792900 Y158.658600

G01 Z-3.000000 F400.0(Penetrate)
G01 X224.671900 Y74.931360 Z-3.000000 F400.000000
G02 X224.707334 Y73.125833 Z-3.000000 I-34.887070 J-1.587787
G02 X224.328600 Y70.998909 Z-3.000000 I-6.385215 J0.039811
G02 X223.298584 Y69.528249 Z-3.000000 I-3.227000 J1.164086
G02 X220.793300 Y68.508460 Z-3.000000 I-2.852856 J3.421304
G02 X218.933546 Y68.564412 Z-3.000000 I1.422150 J78.205865
G02 X217.245250 Y68.897225 Z-3.000000 I0.237391 J5.652843
G02 X215.852190 Y69.726787 Z-3.000000 I1.462485 J4.040358
G02 X214.086600 Y71.914920 Z-3.000000 I5.689157 J6.396929
G01 X174.739800 Y153.963280 Z-3.000000
G02 X174.588618 Y157.546294 Z-3.000000 I9.497854 J2.195449
G02 X175.561012 Y160.587564 Z-3.000000 I9.527041 J-1.370021
G02 X177.500305 Y162.974554 Z-3.000000 I6.675863 J-3.442477
G02 X179.849400 Y163.881600 Z-3.000000 I2.571860 J-3.165280
G01 X211.979100 Y166.315950 Z-3.000000
G02 X214.049401 Y164.982204 Z-3.000000 I-2.599039 J-6.308026
G02 X215.513775 Y163.144114 Z-3.000000 I-5.592812 J-5.958061
G02 X216.448288 Y160.926619 Z-3.000000 I-8.041253 J-4.694467
G02 X216.792900 Y158.658600 Z-3.000000 I-9.354999 J-2.581626
G01 X216.792900 Y158.658600 Z-3.000000
G00 Z5.000000

(End cutting path id: path4627-2-7-0-9)


(Start cutting path id: path4627-2-7-0-9)
(Change tool to Cylindrical cutter)

G00 Z5.000000
G00 X216.792900 Y158.658600

G01 Z-6.000000 F400.0(Penetrate)
G01 X224.671900 Y74.931360 Z-6.000000 F400.000000
G02 X224.707334 Y73.125833 Z-6.000000 I-34.887070 J-1.587787
G02 X224.328600 Y70.998909 Z-6.000000 I-6.385215 J0.039811
G02 X223.298584 Y69.528249 Z-6.000000 I-3.227000 J1.164086
G02 X220.793300 Y68.508460 Z-6.000000 I-2.852856 J3.421304
G02 X218.933546 Y68.564412 Z-6.000000 I1.422150 J78.205865
G02 X217.245250 Y68.897225 Z-6.000000 I0.237391 J5.652843
G02 X215.852190 Y69.726787 Z-6.000000 I1.462485 J4.040358
G02 X214.086600 Y71.914920 Z-6.000000 I5.689157 J6.396929
G01 X174.739800 Y153.963280 Z-6.000000
G02 X174.588618 Y157.546294 Z-6.000000 I9.497854 J2.195449
G02 X175.561012 Y160.587564 Z-6.000000 I9.527041 J-1.370021
G02 X177.500305 Y162.974554 Z-6.000000 I6.675863 J-3.442477
G02 X179.849400 Y163.881600 Z-6.000000 I2.571860 J-3.165280
G01 X211.979100 Y166.315950 Z-6.000000
G02 X214.049401 Y164.982204 Z-6.000000 I-2.599039 J-6.308026
G02 X215.513775 Y163.144114 Z-6.000000 I-5.592812 J-5.958061
G02 X216.448288 Y160.926619 Z-6.000000 I-8.041253 J-4.694467
G02 X216.792900 Y158.658600 Z-6.000000 I-9.354999 J-2.581626
G01 X216.792900 Y158.658600 Z-6.000000
G00 Z5.000000

(End cutting path id: path4627-2-7-0-9)


(Start cutting path id: path4627-2-7-0-9)
(Change tool to Cylindrical cutter)

G00 Z5.000000
G00 X216.792900 Y158.658600

G01 Z-6.350000 F400.0(Penetrate)
G01 X224.671900 Y74.931360 Z-6.350000 F400.000000
G02 X224.707334 Y73.125833 Z-6.350000 I-34.887070 J-1.587787
G02 X224.328600 Y70.998909 Z-6.350000 I-6.385215 J0.039811
G02 X223.298584 Y69.528249 Z-6.350000 I-3.227000 J1.164086
G02 X220.793300 Y68.508460 Z-6.350000 I-2.852856 J3.421304
G02 X218.933546 Y68.564412 Z-6.350000 I1.422150 J78.205865
G02 X217.245250 Y68.897225 Z-6.350000 I0.237391 J5.652843
G02 X215.852190 Y69.726787 Z-6.350000 I1.462485 J4.040358
G02 X214.086600 Y71.914920 Z-6.350000 I5.689157 J6.396929
G01 X174.739800 Y153.963280 Z-6.350000
G02 X174.588618 Y157.546294 Z-6.350000 I9.497854 J2.195449
G02 X175.561012 Y160.587564 Z-6.350000 I9.527041 J-1.370021
G02 X177.500305 Y162.974554 Z-6.350000 I6.675863 J-3.442477
G02 X179.849400 Y163.881600 Z-6.350000 I2.571860 J-3.165280
G01 X211.979100 Y166.315950 Z-6.350000
G02 X214.049401 Y164.982204 Z-6.350000 I-2.599039 J-6.308026
G02 X215.513775 Y163.144114 Z-6.350000 I-5.592812 J-5.958061
G02 X216.448288 Y160.926619 Z-6.350000 I-8.041253 J-4.694467
G02 X216.792900 Y158.658600 Z-6.350000 I-9.354999 J-2.581626
G01 X216.792900 Y158.658600 Z-6.350000
G00 Z5.000000

(End cutting path id: path4627-2-7-0-9)


(Footer)
M5
G00 X0.0000 Y0.0000
M2
(Using default footer. To add your own footer create file "footer" in the output dir.)
(end)
%