%
(Header)
(Generated by gcodetools from Inkscape.)
(Using default header. To add your own header create file "header" in the output dir.)
M3
(Header end.)
G21 (All units in mm)

(Start cutting path id: path4629-7-8-60-4-7)
(Change tool to Cylindrical cutter)

G00 Z5.000000
G00 X195.524640 Y332.743780

G01 Z-3.000000 F400.0(Penetrate)
G03 X184.629710 Y334.048614 Z-3.000000 I-35.094959 J-246.894263 F400.000000
G03 X143.555103 Y337.987386 Z-3.000000 I-1255.676257 J-12878.402097
G03 X101.264086 Y341.923527 Z-3.000000 I-1659.911710 J-17605.400517
G02 X97.574845 Y342.313840 Z-3.000000 I12.295256 J133.845531
G03 X94.689958 Y341.855725 Z-3.000000 I-0.605971 J-5.496576
G03 X92.467945 Y340.309675 Z-3.000000 I3.062992 J-6.771976
G03 X90.808652 Y337.965486 Z-3.000000 I6.261265 J-6.191273
G03 X90.256045 Y335.883130 Z-3.000000 I5.058264 J-2.456843
G01 X82.191045 Y247.808950 Z-3.000000
G03 X82.189439 Y243.315321 Z-3.000000 I16.797353 J-2.252817
G03 X83.233108 Y240.194377 Z-3.000000 I8.630957 J1.151283
G03 X85.367528 Y237.892271 Z-3.000000 I5.879235 J3.310461
G03 X88.860745 Y236.568860 Z-3.000000 I4.621300 J6.926206
G01 X149.246040 Y231.461050 Z-3.000000
G03 X151.773550 Y231.568772 Z-3.000000 I0.811078 J10.675140
G03 X154.226953 Y232.435324 Z-3.000000 I-1.174699 J7.232180
G03 X156.212224 Y234.057498 Z-3.000000 I-3.817426 J6.697804
G03 X158.454940 Y237.467810 Z-3.000000 I-11.252354 J9.842452
G03 X159.318210 Y239.132767 Z-3.000000 I-20.288671 J11.575831
G03 X179.047753 Y281.286131 Z-3.000000 I-49956.368692 J23407.369473
G03 X189.019630 Y302.626475 Z-3.000000 I-52086.308751 J24351.661191
G03 X198.932640 Y323.863690 Z-3.000000 I-51054.445842 J23844.023539
G03 X200.240581 Y327.058076 Z-3.000000 I-16.725478 J8.713207
G03 X200.333790 Y329.404690 Z-3.000000 I-4.412707 J1.350434
G03 X199.247067 Y331.101342 Z-3.000000 I-2.852353 J-0.630606
G03 X195.524640 Y332.743780 Z-3.000000 I-5.314145 J-7.004520
G01 X195.524640 Y332.743780 Z-3.000000
G00 Z5.000000

(End cutting path id: path4629-7-8-60-4-7)


(Start cutting path id: path4629-7-8-60-4-7)
(Change tool to Cylindrical cutter)

G00 Z5.000000
G00 X195.524640 Y332.743780

G01 Z-6.000000 F400.0(Penetrate)
G03 X184.629710 Y334.048614 Z-6.000000 I-35.094959 J-246.894263 F400.000000
G03 X143.555103 Y337.987386 Z-6.000000 I-1255.676257 J-12878.402097
G03 X101.264086 Y341.923527 Z-6.000000 I-1659.911710 J-17605.400517
G02 X97.574845 Y342.313840 Z-6.000000 I12.295256 J133.845531
G03 X94.689958 Y341.855725 Z-6.000000 I-0.605971 J-5.496576
G03 X92.467945 Y340.309675 Z-6.000000 I3.062992 J-6.771976
G03 X90.808652 Y337.965486 Z-6.000000 I6.261265 J-6.191273
G03 X90.256045 Y335.883130 Z-6.000000 I5.058264 J-2.456843
G01 X82.191045 Y247.808950 Z-6.000000
G03 X82.189439 Y243.315321 Z-6.000000 I16.797353 J-2.252817
G03 X83.233108 Y240.194377 Z-6.000000 I8.630957 J1.151283
G03 X85.367528 Y237.892271 Z-6.000000 I5.879235 J3.310461
G03 X88.860745 Y236.568860 Z-6.000000 I4.621300 J6.926206
G01 X149.246040 Y231.461050 Z-6.000000
G03 X151.773550 Y231.568772 Z-6.000000 I0.811078 J10.675140
G03 X154.226953 Y232.435324 Z-6.000000 I-1.174699 J7.232180
G03 X156.212224 Y234.057498 Z-6.000000 I-3.817426 J6.697804
G03 X158.454940 Y237.467810 Z-6.000000 I-11.252354 J9.842452
G03 X159.318210 Y239.132767 Z-6.000000 I-20.288671 J11.575831
G03 X179.047753 Y281.286131 Z-6.000000 I-49956.368692 J23407.369473
G03 X189.019630 Y302.626475 Z-6.000000 I-52086.308751 J24351.661191
G03 X198.932640 Y323.863690 Z-6.000000 I-51054.445842 J23844.023539
G03 X200.240581 Y327.058076 Z-6.000000 I-16.725478 J8.713207
G03 X200.333790 Y329.404690 Z-6.000000 I-4.412707 J1.350434
G03 X199.247067 Y331.101342 Z-6.000000 I-2.852353 J-0.630606
G03 X195.524640 Y332.743780 Z-6.000000 I-5.314145 J-7.004520
G01 X195.524640 Y332.743780 Z-6.000000
G00 Z5.000000

(End cutting path id: path4629-7-8-60-4-7)


(Start cutting path id: path4629-7-8-60-4-7)
(Change tool to Cylindrical cutter)

G00 Z5.000000
G00 X195.524640 Y332.743780

G01 Z-9.000000 F400.0(Penetrate)
G03 X184.629710 Y334.048614 Z-9.000000 I-35.094959 J-246.894263 F400.000000
G03 X143.555103 Y337.987386 Z-9.000000 I-1255.676257 J-12878.402097
G03 X101.264086 Y341.923527 Z-9.000000 I-1659.911710 J-17605.400517
G02 X97.574845 Y342.313840 Z-9.000000 I12.295256 J133.845531
G03 X94.689958 Y341.855725 Z-9.000000 I-0.605971 J-5.496576
G03 X92.467945 Y340.309675 Z-9.000000 I3.062992 J-6.771976
G03 X90.808652 Y337.965486 Z-9.000000 I6.261265 J-6.191273
G03 X90.256045 Y335.883130 Z-9.000000 I5.058264 J-2.456843
G01 X82.191045 Y247.808950 Z-9.000000
G03 X82.189439 Y243.315321 Z-9.000000 I16.797353 J-2.252817
G03 X83.233108 Y240.194377 Z-9.000000 I8.630957 J1.151283
G03 X85.367528 Y237.892271 Z-9.000000 I5.879235 J3.310461
G03 X88.860745 Y236.568860 Z-9.000000 I4.621300 J6.926206
G01 X149.246040 Y231.461050 Z-9.000000
G03 X151.773550 Y231.568772 Z-9.000000 I0.811078 J10.675140
G03 X154.226953 Y232.435324 Z-9.000000 I-1.174699 J7.232180
G03 X156.212224 Y234.057498 Z-9.000000 I-3.817426 J6.697804
G03 X158.454940 Y237.467810 Z-9.000000 I-11.252354 J9.842452
G03 X159.318210 Y239.132767 Z-9.000000 I-20.288671 J11.575831
G03 X179.047753 Y281.286131 Z-9.000000 I-49956.368692 J23407.369473
G03 X189.019630 Y302.626475 Z-9.000000 I-52086.308751 J24351.661191
G03 X198.932640 Y323.863690 Z-9.000000 I-51054.445842 J23844.023539
G03 X200.240581 Y327.058076 Z-9.000000 I-16.725478 J8.713207
G03 X200.333790 Y329.404690 Z-9.000000 I-4.412707 J1.350434
G03 X199.247067 Y331.101342 Z-9.000000 I-2.852353 J-0.630606
G03 X195.524640 Y332.743780 Z-9.000000 I-5.314145 J-7.004520
G01 X195.524640 Y332.743780 Z-9.000000
G00 Z5.000000

(End cutting path id: path4629-7-8-60-4-7)


(Start cutting path id: path4629-7-8-60-4-7)
(Change tool to Cylindrical cutter)

G00 Z5.000000
G00 X195.524640 Y332.743780

G01 Z-12.000000 F400.0(Penetrate)
G03 X184.629710 Y334.048614 Z-12.000000 I-35.094959 J-246.894263 F400.000000
G03 X143.555103 Y337.987386 Z-12.000000 I-1255.676257 J-12878.402097
G03 X101.264086 Y341.923527 Z-12.000000 I-1659.911710 J-17605.400517
G02 X97.574845 Y342.313840 Z-12.000000 I12.295256 J133.845531
G03 X94.689958 Y341.855725 Z-12.000000 I-0.605971 J-5.496576
G03 X92.467945 Y340.309675 Z-12.000000 I3.062992 J-6.771976
G03 X90.808652 Y337.965486 Z-12.000000 I6.261265 J-6.191273
G03 X90.256045 Y335.883130 Z-12.000000 I5.058264 J-2.456843
G01 X82.191045 Y247.808950 Z-12.000000
G03 X82.189439 Y243.315321 Z-12.000000 I16.797353 J-2.252817
G03 X83.233108 Y240.194377 Z-12.000000 I8.630957 J1.151283
G03 X85.367528 Y237.892271 Z-12.000000 I5.879235 J3.310461
G03 X88.860745 Y236.568860 Z-12.000000 I4.621300 J6.926206
G01 X149.246040 Y231.461050 Z-12.000000
G03 X151.773550 Y231.568772 Z-12.000000 I0.811078 J10.675140
G03 X154.226953 Y232.435324 Z-12.000000 I-1.174699 J7.232180
G03 X156.212224 Y234.057498 Z-12.000000 I-3.817426 J6.697804
G03 X158.454940 Y237.467810 Z-12.000000 I-11.252354 J9.842452
G03 X159.318210 Y239.132767 Z-12.000000 I-20.288671 J11.575831
G03 X179.047753 Y281.286131 Z-12.000000 I-49956.368692 J23407.369473
G03 X189.019630 Y302.626475 Z-12.000000 I-52086.308751 J24351.661191
G03 X198.932640 Y323.863690 Z-12.000000 I-51054.445842 J23844.023539
G03 X200.240581 Y327.058076 Z-12.000000 I-16.725478 J8.713207
G03 X200.333790 Y329.404690 Z-12.000000 I-4.412707 J1.350434
G03 X199.247067 Y331.101342 Z-12.000000 I-2.852353 J-0.630606
G03 X195.524640 Y332.743780 Z-12.000000 I-5.314145 J-7.004520
G01 X195.524640 Y332.743780 Z-12.000000
G00 Z5.000000

(End cutting path id: path4629-7-8-60-4-7)


(Start cutting path id: path4629-7-8-60-4-7)
(Change tool to Cylindrical cutter)

G00 Z5.000000
G00 X195.524640 Y332.743780

G01 Z-15.000000 F400.0(Penetrate)
G03 X184.629710 Y334.048614 Z-15.000000 I-35.094959 J-246.894263 F400.000000
G03 X143.555103 Y337.987386 Z-15.000000 I-1255.676257 J-12878.402097
G03 X101.264086 Y341.923527 Z-15.000000 I-1659.911710 J-17605.400517
G02 X97.574845 Y342.313840 Z-15.000000 I12.295256 J133.845531
G03 X94.689958 Y341.855725 Z-15.000000 I-0.605971 J-5.496576
G03 X92.467945 Y340.309675 Z-15.000000 I3.062992 J-6.771976
G03 X90.808652 Y337.965486 Z-15.000000 I6.261265 J-6.191273
G03 X90.256045 Y335.883130 Z-15.000000 I5.058264 J-2.456843
G01 X82.191045 Y247.808950 Z-15.000000
G03 X82.189439 Y243.315321 Z-15.000000 I16.797353 J-2.252817
G03 X83.233108 Y240.194377 Z-15.000000 I8.630957 J1.151283
G03 X85.367528 Y237.892271 Z-15.000000 I5.879235 J3.310461
G03 X88.860745 Y236.568860 Z-15.000000 I4.621300 J6.926206
G01 X149.246040 Y231.461050 Z-15.000000
G03 X151.773550 Y231.568772 Z-15.000000 I0.811078 J10.675140
G03 X154.226953 Y232.435324 Z-15.000000 I-1.174699 J7.232180
G03 X156.212224 Y234.057498 Z-15.000000 I-3.817426 J6.697804
G03 X158.454940 Y237.467810 Z-15.000000 I-11.252354 J9.842452
G03 X159.318210 Y239.132767 Z-15.000000 I-20.288671 J11.575831
G03 X179.047753 Y281.286131 Z-15.000000 I-49956.368692 J23407.369473
G03 X189.019630 Y302.626475 Z-15.000000 I-52086.308751 J24351.661191
G03 X198.932640 Y323.863690 Z-15.000000 I-51054.445842 J23844.023539
G03 X200.240581 Y327.058076 Z-15.000000 I-16.725478 J8.713207
G03 X200.333790 Y329.404690 Z-15.000000 I-4.412707 J1.350434
G03 X199.247067 Y331.101342 Z-15.000000 I-2.852353 J-0.630606
G03 X195.524640 Y332.743780 Z-15.000000 I-5.314145 J-7.004520
G01 X195.524640 Y332.743780 Z-15.000000
G00 Z5.000000

(End cutting path id: path4629-7-8-60-4-7)


(Start cutting path id: path4629-7-8-60-4-7)
(Change tool to Cylindrical cutter)

G00 Z5.000000
G00 X195.524640 Y332.743780

G01 Z-18.000000 F400.0(Penetrate)
G03 X184.629710 Y334.048614 Z-18.000000 I-35.094959 J-246.894263 F400.000000
G03 X143.555103 Y337.987386 Z-18.000000 I-1255.676257 J-12878.402097
G03 X101.264086 Y341.923527 Z-18.000000 I-1659.911710 J-17605.400517
G02 X97.574845 Y342.313840 Z-18.000000 I12.295256 J133.845531
G03 X94.689958 Y341.855725 Z-18.000000 I-0.605971 J-5.496576
G03 X92.467945 Y340.309675 Z-18.000000 I3.062992 J-6.771976
G03 X90.808652 Y337.965486 Z-18.000000 I6.261265 J-6.191273
G03 X90.256045 Y335.883130 Z-18.000000 I5.058264 J-2.456843
G01 X82.191045 Y247.808950 Z-18.000000
G03 X82.189439 Y243.315321 Z-18.000000 I16.797353 J-2.252817
G03 X83.233108 Y240.194377 Z-18.000000 I8.630957 J1.151283
G03 X85.367528 Y237.892271 Z-18.000000 I5.879235 J3.310461
G03 X88.860745 Y236.568860 Z-18.000000 I4.621300 J6.926206
G01 X149.246040 Y231.461050 Z-18.000000
G03 X151.773550 Y231.568772 Z-18.000000 I0.811078 J10.675140
G03 X154.226953 Y232.435324 Z-18.000000 I-1.174699 J7.232180
G03 X156.212224 Y234.057498 Z-18.000000 I-3.817426 J6.697804
G03 X158.454940 Y237.467810 Z-18.000000 I-11.252354 J9.842452
G03 X159.318210 Y239.132767 Z-18.000000 I-20.288671 J11.575831
G03 X179.047753 Y281.286131 Z-18.000000 I-49956.368692 J23407.369473
G03 X189.019630 Y302.626475 Z-18.000000 I-52086.308751 J24351.661191
G03 X198.932640 Y323.863690 Z-18.000000 I-51054.445842 J23844.023539
G03 X200.240581 Y327.058076 Z-18.000000 I-16.725478 J8.713207
G03 X200.333790 Y329.404690 Z-18.000000 I-4.412707 J1.350434
G03 X199.247067 Y331.101342 Z-18.000000 I-2.852353 J-0.630606
G03 X195.524640 Y332.743780 Z-18.000000 I-5.314145 J-7.004520
G01 X195.524640 Y332.743780 Z-18.000000
G00 Z5.000000

(End cutting path id: path4629-7-8-60-4-7)


(Start cutting path id: path4629-7-8-60-4-7)
(Change tool to Cylindrical cutter)

G00 Z5.000000
G00 X195.524640 Y332.743780

G01 Z-19.500000 F400.0(Penetrate)
G03 X184.629710 Y334.048614 Z-19.500000 I-35.094959 J-246.894263 F400.000000
G03 X143.555103 Y337.987386 Z-19.500000 I-1255.676257 J-12878.402097
G03 X101.264086 Y341.923527 Z-19.500000 I-1659.911710 J-17605.400517
G02 X97.574845 Y342.313840 Z-19.500000 I12.295256 J133.845531
G03 X94.689958 Y341.855725 Z-19.500000 I-0.605971 J-5.496576
G03 X92.467945 Y340.309675 Z-19.500000 I3.062992 J-6.771976
G03 X90.808652 Y337.965486 Z-19.500000 I6.261265 J-6.191273
G03 X90.256045 Y335.883130 Z-19.500000 I5.058264 J-2.456843
G01 X82.191045 Y247.808950 Z-19.500000
G03 X82.189439 Y243.315321 Z-19.500000 I16.797353 J-2.252817
G03 X83.233108 Y240.194377 Z-19.500000 I8.630957 J1.151283
G03 X85.367528 Y237.892271 Z-19.500000 I5.879235 J3.310461
G03 X88.860745 Y236.568860 Z-19.500000 I4.621300 J6.926206
G01 X149.246040 Y231.461050 Z-19.500000
G03 X151.773550 Y231.568772 Z-19.500000 I0.811078 J10.675140
G03 X154.226953 Y232.435324 Z-19.500000 I-1.174699 J7.232180
G03 X156.212224 Y234.057498 Z-19.500000 I-3.817426 J6.697804
G03 X158.454940 Y237.467810 Z-19.500000 I-11.252354 J9.842452
G03 X159.318210 Y239.132767 Z-19.500000 I-20.288671 J11.575831
G03 X179.047753 Y281.286131 Z-19.500000 I-49956.368692 J23407.369473
G03 X189.019630 Y302.626475 Z-19.500000 I-52086.308751 J24351.661191
G03 X198.932640 Y323.863690 Z-19.500000 I-51054.445842 J23844.023539
G03 X200.240581 Y327.058076 Z-19.500000 I-16.725478 J8.713207
G03 X200.333790 Y329.404690 Z-19.500000 I-4.412707 J1.350434
G03 X199.247067 Y331.101342 Z-19.500000 I-2.852353 J-0.630606
G03 X195.524640 Y332.743780 Z-19.500000 I-5.314145 J-7.004520
G01 X195.524640 Y332.743780 Z-19.500000
G00 Z5.000000

(End cutting path id: path4629-7-8-60-4-7)


(Start cutting path id: path4625-1-2-7-6-2)
(Change tool to Cylindrical cutter)

G00 Z5.000000
G00 X82.944445 Y387.087390

G01 Z-3.000000 F400.0(Penetrate)
G01 X84.538745 Y404.103790 Z-3.000000 F400.000000
G02 X78.323665 Y423.593999 Z-3.000000 I199.036591 J74.205266
G02 X73.561233 Y444.036084 Z-3.000000 I320.674830 J85.484036
G02 X69.984821 Y464.780353 Z-3.000000 I389.010395 J77.747690
G02 X67.663845 Y482.900100 Z-3.000000 I538.240301 J78.152241
G02 X67.350086 Y522.635093 Z-3.000000 I970.883410 J27.535112
G02 X68.174595 Y561.652574 Z-3.000000 I2277.391106 J-28.607888
G02 X69.430576 Y600.672429 Z-3.000000 I7864.666177 J-233.619763
G03 X70.389345 Y639.384230 Z-3.000000 I-1955.334276 J67.795216
G03 X70.023433 Y671.251834 Z-3.000000 I-564.949507 J9.449000
G03 X68.070220 Y701.804504 Z-3.000000 I-633.279959 J-25.146413
G03 X64.537283 Y732.340122 Z-3.000000 I-563.169134 J-49.685847
G03 X60.671345 Y753.526290 Z-3.000000 I-279.737042 J-40.099113
G03 X57.396456 Y767.647627 Z-3.000000 I-437.552654 J-94.032727
G03 X53.324957 Y782.213526 Z-3.000000 I-257.618626 J-64.158250
G03 X48.272271 Y796.446173 Z-3.000000 I-180.008615 J-55.891089
G03 X43.251645 Y806.515820 Z-3.000000 I-64.290307 J-25.768069
G03 X39.357692 Y810.689064 Z-3.000000 I-12.549241 J-7.806096
G03 X33.558357 Y813.904409 Z-3.000000 I-16.295833 J-22.554226
G03 X27.087443 Y815.670414 Z-3.000000 I-10.535373 J-25.865010
G03 X22.469545 Y815.442420 Z-3.000000 I-1.732935 J-11.780847
G03 X13.837544 Y810.624655 Z-3.000000 I4.322939 J-17.887290
G03 X10.128807 Y804.517146 Z-3.000000 I10.407811 J-10.499868
G03 X8.812737 Y796.437295 Z-3.000000 I27.970606 J-8.703044
G03 X8.645445 Y786.612290 Z-3.000000 I1155.720758 J-24.592626
G03 X8.632670 Y781.046272 Z-3.000000 I46.113416 J-2.888856
G03 X10.408882 Y753.750854 Z-3.000000 I1948.552051 J113.093857
G03 X12.412232 Y727.561755 Z-3.000000 I3005.860689 J216.763840
G03 X14.213145 Y706.435770 Z-3.000000 I2436.946409 J197.101001
G02 X15.809260 Y684.498257 Z-3.000000 I-1378.504619 J-111.323163
G02 X16.875245 Y662.975639 Z-3.000000 I-707.905725 J-45.849272
G02 X17.199331 Y641.443921 Z-3.000000 I-559.071507 J-19.183190
G02 X16.540945 Y620.636750 Z-3.000000 I-379.464818 J1.593119
G01 X6.808545 Y484.558450 Z-3.000000
G03 X6.622767 Y467.852520 Z-3.000000 I586.299400 J-14.873927
G03 X7.023907 Y451.297286 Z-3.000000 I392.409223 J1.225768
G03 X8.180637 Y434.791979 Z-3.000000 I335.436709 J15.214995
G03 X10.256445 Y418.415060 Z-3.000000 I261.137968 J24.779753
G03 X13.679146 Y386.938544 Z-3.000000 I1367.922739 J132.821183
G02 X17.408458 Y355.909937 Z-3.000000 I-71776.675294 J-8642.537420
G02 X20.938330 Y324.864482 Z-3.000000 I-2507.699743 J-300.849216
G02 X23.761945 Y293.314320 Z-3.000000 I-886.226320 J-95.215185
G02 X25.727198 Y261.375554 Z-3.000000 I-679.721213 J-57.854395
G02 X26.329933 Y221.346192 Z-3.000000 I-871.931039 J-33.148144
G02 X25.026482 Y181.427595 Z-3.000000 I-806.766872 J6.362548
G02 X21.597345 Y145.335130 Z-3.000000 I-484.920679 J27.863072
G03 X17.214909 Y114.056507 Z-3.000000 I2571.423998 J-376.227525
G02 X12.715670 Y81.574135 Z-3.000000 I-3602.777835 J482.479666
G02 X7.760038 Y49.173431 Z-3.000000 I-1685.777049 J241.257379
G02 X1.933345 Y17.515750 Z-3.000000 I-770.447898 J125.438249
G01 X107.998540 Y6.939090 Z-3.000000
G01 X280.356440 Y367.382550 Z-3.000000
G01 X82.944445 Y387.087390 Z-3.000000
G00 Z5.000000

(End cutting path id: path4625-1-2-7-6-2)


(Start cutting path id: path4625-1-2-7-6-2)
(Change tool to Cylindrical cutter)

G00 Z5.000000
G00 X82.944445 Y387.087390

G01 Z-6.000000 F400.0(Penetrate)
G01 X84.538745 Y404.103790 Z-6.000000 F400.000000
G02 X78.323665 Y423.593999 Z-6.000000 I199.036591 J74.205266
G02 X73.561233 Y444.036084 Z-6.000000 I320.674830 J85.484036
G02 X69.984821 Y464.780353 Z-6.000000 I389.010395 J77.747690
G02 X67.663845 Y482.900100 Z-6.000000 I538.240301 J78.152241
G02 X67.350086 Y522.635093 Z-6.000000 I970.883410 J27.535112
G02 X68.174595 Y561.652574 Z-6.000000 I2277.391106 J-28.607888
G02 X69.430576 Y600.672429 Z-6.000000 I7864.666177 J-233.619763
G03 X70.389345 Y639.384230 Z-6.000000 I-1955.334276 J67.795216
G03 X70.023433 Y671.251834 Z-6.000000 I-564.949507 J9.449000
G03 X68.070220 Y701.804504 Z-6.000000 I-633.279959 J-25.146413
G03 X64.537283 Y732.340122 Z-6.000000 I-563.169134 J-49.685847
G03 X60.671345 Y753.526290 Z-6.000000 I-279.737042 J-40.099113
G03 X57.396456 Y767.647627 Z-6.000000 I-437.552654 J-94.032727
G03 X53.324957 Y782.213526 Z-6.000000 I-257.618626 J-64.158250
G03 X48.272271 Y796.446173 Z-6.000000 I-180.008615 J-55.891089
G03 X43.251645 Y806.515820 Z-6.000000 I-64.290307 J-25.768069
G03 X39.357692 Y810.689064 Z-6.000000 I-12.549241 J-7.806096
G03 X33.558357 Y813.904409 Z-6.000000 I-16.295833 J-22.554226
G03 X27.087443 Y815.670414 Z-6.000000 I-10.535373 J-25.865010
G03 X22.469545 Y815.442420 Z-6.000000 I-1.732935 J-11.780847
G03 X13.837544 Y810.624655 Z-6.000000 I4.322939 J-17.887290
G03 X10.128807 Y804.517146 Z-6.000000 I10.407811 J-10.499868
G03 X8.812737 Y796.437295 Z-6.000000 I27.970606 J-8.703044
G03 X8.645445 Y786.612290 Z-6.000000 I1155.720758 J-24.592626
G03 X8.632670 Y781.046272 Z-6.000000 I46.113416 J-2.888856
G03 X10.408882 Y753.750854 Z-6.000000 I1948.552051 J113.093857
G03 X12.412232 Y727.561755 Z-6.000000 I3005.860689 J216.763840
G03 X14.213145 Y706.435770 Z-6.000000 I2436.946409 J197.101001
G02 X15.809260 Y684.498257 Z-6.000000 I-1378.504619 J-111.323163
G02 X16.875245 Y662.975639 Z-6.000000 I-707.905725 J-45.849272
G02 X17.199331 Y641.443921 Z-6.000000 I-559.071507 J-19.183190
G02 X16.540945 Y620.636750 Z-6.000000 I-379.464818 J1.593119
G01 X6.808545 Y484.558450 Z-6.000000
G03 X6.622767 Y467.852520 Z-6.000000 I586.299400 J-14.873927
G03 X7.023907 Y451.297286 Z-6.000000 I392.409223 J1.225768
G03 X8.180637 Y434.791979 Z-6.000000 I335.436709 J15.214995
G03 X10.256445 Y418.415060 Z-6.000000 I261.137968 J24.779753
G03 X13.679146 Y386.938544 Z-6.000000 I1367.922739 J132.821183
G02 X17.408458 Y355.909937 Z-6.000000 I-71776.675294 J-8642.537420
G02 X20.938330 Y324.864482 Z-6.000000 I-2507.699743 J-300.849216
G02 X23.761945 Y293.314320 Z-6.000000 I-886.226320 J-95.215185
G02 X25.727198 Y261.375554 Z-6.000000 I-679.721213 J-57.854395
G02 X26.329933 Y221.346192 Z-6.000000 I-871.931039 J-33.148144
G02 X25.026482 Y181.427595 Z-6.000000 I-806.766872 J6.362548
G02 X21.597345 Y145.335130 Z-6.000000 I-484.920679 J27.863072
G03 X17.214909 Y114.056507 Z-6.000000 I2571.423998 J-376.227525
G02 X12.715670 Y81.574135 Z-6.000000 I-3602.777835 J482.479666
G02 X7.760038 Y49.173431 Z-6.000000 I-1685.777049 J241.257379
G02 X1.933345 Y17.515750 Z-6.000000 I-770.447898 J125.438249
G01 X107.998540 Y6.939090 Z-6.000000
G01 X280.356440 Y367.382550 Z-6.000000
G01 X82.944445 Y387.087390 Z-6.000000
G00 Z5.000000

(End cutting path id: path4625-1-2-7-6-2)


(Start cutting path id: path4625-1-2-7-6-2)
(Change tool to Cylindrical cutter)

G00 Z5.000000
G00 X82.944445 Y387.087390

G01 Z-9.000000 F400.0(Penetrate)
G01 X84.538745 Y404.103790 Z-9.000000 F400.000000
G02 X78.323665 Y423.593999 Z-9.000000 I199.036591 J74.205266
G02 X73.561233 Y444.036084 Z-9.000000 I320.674830 J85.484036
G02 X69.984821 Y464.780353 Z-9.000000 I389.010395 J77.747690
G02 X67.663845 Y482.900100 Z-9.000000 I538.240301 J78.152241
G02 X67.350086 Y522.635093 Z-9.000000 I970.883410 J27.535112
G02 X68.174595 Y561.652574 Z-9.000000 I2277.391106 J-28.607888
G02 X69.430576 Y600.672429 Z-9.000000 I7864.666177 J-233.619763
G03 X70.389345 Y639.384230 Z-9.000000 I-1955.334276 J67.795216
G03 X70.023433 Y671.251834 Z-9.000000 I-564.949507 J9.449000
G03 X68.070220 Y701.804504 Z-9.000000 I-633.279959 J-25.146413
G03 X64.537283 Y732.340122 Z-9.000000 I-563.169134 J-49.685847
G03 X60.671345 Y753.526290 Z-9.000000 I-279.737042 J-40.099113
G03 X57.396456 Y767.647627 Z-9.000000 I-437.552654 J-94.032727
G03 X53.324957 Y782.213526 Z-9.000000 I-257.618626 J-64.158250
G03 X48.272271 Y796.446173 Z-9.000000 I-180.008615 J-55.891089
G03 X43.251645 Y806.515820 Z-9.000000 I-64.290307 J-25.768069
G03 X39.357692 Y810.689064 Z-9.000000 I-12.549241 J-7.806096
G03 X33.558357 Y813.904409 Z-9.000000 I-16.295833 J-22.554226
G03 X27.087443 Y815.670414 Z-9.000000 I-10.535373 J-25.865010
G03 X22.469545 Y815.442420 Z-9.000000 I-1.732935 J-11.780847
G03 X13.837544 Y810.624655 Z-9.000000 I4.322939 J-17.887290
G03 X10.128807 Y804.517146 Z-9.000000 I10.407811 J-10.499868
G03 X8.812737 Y796.437295 Z-9.000000 I27.970606 J-8.703044
G03 X8.645445 Y786.612290 Z-9.000000 I1155.720758 J-24.592626
G03 X8.632670 Y781.046272 Z-9.000000 I46.113416 J-2.888856
G03 X10.408882 Y753.750854 Z-9.000000 I1948.552051 J113.093857
G03 X12.412232 Y727.561755 Z-9.000000 I3005.860689 J216.763840
G03 X14.213145 Y706.435770 Z-9.000000 I2436.946409 J197.101001
G02 X15.809260 Y684.498257 Z-9.000000 I-1378.504619 J-111.323163
G02 X16.875245 Y662.975639 Z-9.000000 I-707.905725 J-45.849272
G02 X17.199331 Y641.443921 Z-9.000000 I-559.071507 J-19.183190
G02 X16.540945 Y620.636750 Z-9.000000 I-379.464818 J1.593119
G01 X6.808545 Y484.558450 Z-9.000000
G03 X6.622767 Y467.852520 Z-9.000000 I586.299400 J-14.873927
G03 X7.023907 Y451.297286 Z-9.000000 I392.409223 J1.225768
G03 X8.180637 Y434.791979 Z-9.000000 I335.436709 J15.214995
G03 X10.256445 Y418.415060 Z-9.000000 I261.137968 J24.779753
G03 X13.679146 Y386.938544 Z-9.000000 I1367.922739 J132.821183
G02 X17.408458 Y355.909937 Z-9.000000 I-71776.675294 J-8642.537420
G02 X20.938330 Y324.864482 Z-9.000000 I-2507.699743 J-300.849216
G02 X23.761945 Y293.314320 Z-9.000000 I-886.226320 J-95.215185
G02 X25.727198 Y261.375554 Z-9.000000 I-679.721213 J-57.854395
G02 X26.329933 Y221.346192 Z-9.000000 I-871.931039 J-33.148144
G02 X25.026482 Y181.427595 Z-9.000000 I-806.766872 J6.362548
G02 X21.597345 Y145.335130 Z-9.000000 I-484.920679 J27.863072
G03 X17.214909 Y114.056507 Z-9.000000 I2571.423998 J-376.227525
G02 X12.715670 Y81.574135 Z-9.000000 I-3602.777835 J482.479666
G02 X7.760038 Y49.173431 Z-9.000000 I-1685.777049 J241.257379
G02 X1.933345 Y17.515750 Z-9.000000 I-770.447898 J125.438249
G01 X107.998540 Y6.939090 Z-9.000000
G01 X280.356440 Y367.382550 Z-9.000000
G01 X82.944445 Y387.087390 Z-9.000000
G00 Z5.000000

(End cutting path id: path4625-1-2-7-6-2)


(Start cutting path id: path4625-1-2-7-6-2)
(Change tool to Cylindrical cutter)

G00 Z5.000000
G00 X82.944445 Y387.087390

G01 Z-12.000000 F400.0(Penetrate)
G01 X84.538745 Y404.103790 Z-12.000000 F400.000000
G02 X78.323665 Y423.593999 Z-12.000000 I199.036591 J74.205266
G02 X73.561233 Y444.036084 Z-12.000000 I320.674830 J85.484036
G02 X69.984821 Y464.780353 Z-12.000000 I389.010395 J77.747690
G02 X67.663845 Y482.900100 Z-12.000000 I538.240301 J78.152241
G02 X67.350086 Y522.635093 Z-12.000000 I970.883410 J27.535112
G02 X68.174595 Y561.652574 Z-12.000000 I2277.391106 J-28.607888
G02 X69.430576 Y600.672429 Z-12.000000 I7864.666177 J-233.619763
G03 X70.389345 Y639.384230 Z-12.000000 I-1955.334276 J67.795216
G03 X70.023433 Y671.251834 Z-12.000000 I-564.949507 J9.449000
G03 X68.070220 Y701.804504 Z-12.000000 I-633.279959 J-25.146413
G03 X64.537283 Y732.340122 Z-12.000000 I-563.169134 J-49.685847
G03 X60.671345 Y753.526290 Z-12.000000 I-279.737042 J-40.099113
G03 X57.396456 Y767.647627 Z-12.000000 I-437.552654 J-94.032727
G03 X53.324957 Y782.213526 Z-12.000000 I-257.618626 J-64.158250
G03 X48.272271 Y796.446173 Z-12.000000 I-180.008615 J-55.891089
G03 X43.251645 Y806.515820 Z-12.000000 I-64.290307 J-25.768069
G03 X39.357692 Y810.689064 Z-12.000000 I-12.549241 J-7.806096
G03 X33.558357 Y813.904409 Z-12.000000 I-16.295833 J-22.554226
G03 X27.087443 Y815.670414 Z-12.000000 I-10.535373 J-25.865010
G03 X22.469545 Y815.442420 Z-12.000000 I-1.732935 J-11.780847
G03 X13.837544 Y810.624655 Z-12.000000 I4.322939 J-17.887290
G03 X10.128807 Y804.517146 Z-12.000000 I10.407811 J-10.499868
G03 X8.812737 Y796.437295 Z-12.000000 I27.970606 J-8.703044
G03 X8.645445 Y786.612290 Z-12.000000 I1155.720758 J-24.592626
G03 X8.632670 Y781.046272 Z-12.000000 I46.113416 J-2.888856
G03 X10.408882 Y753.750854 Z-12.000000 I1948.552051 J113.093857
G03 X12.412232 Y727.561755 Z-12.000000 I3005.860689 J216.763840
G03 X14.213145 Y706.435770 Z-12.000000 I2436.946409 J197.101001
G02 X15.809260 Y684.498257 Z-12.000000 I-1378.504619 J-111.323163
G02 X16.875245 Y662.975639 Z-12.000000 I-707.905725 J-45.849272
G02 X17.199331 Y641.443921 Z-12.000000 I-559.071507 J-19.183190
G02 X16.540945 Y620.636750 Z-12.000000 I-379.464818 J1.593119
G01 X6.808545 Y484.558450 Z-12.000000
G03 X6.622767 Y467.852520 Z-12.000000 I586.299400 J-14.873927
G03 X7.023907 Y451.297286 Z-12.000000 I392.409223 J1.225768
G03 X8.180637 Y434.791979 Z-12.000000 I335.436709 J15.214995
G03 X10.256445 Y418.415060 Z-12.000000 I261.137968 J24.779753
G03 X13.679146 Y386.938544 Z-12.000000 I1367.922739 J132.821183
G02 X17.408458 Y355.909937 Z-12.000000 I-71776.675294 J-8642.537420
G02 X20.938330 Y324.864482 Z-12.000000 I-2507.699743 J-300.849216
G02 X23.761945 Y293.314320 Z-12.000000 I-886.226320 J-95.215185
G02 X25.727198 Y261.375554 Z-12.000000 I-679.721213 J-57.854395
G02 X26.329933 Y221.346192 Z-12.000000 I-871.931039 J-33.148144
G02 X25.026482 Y181.427595 Z-12.000000 I-806.766872 J6.362548
G02 X21.597345 Y145.335130 Z-12.000000 I-484.920679 J27.863072
G03 X17.214909 Y114.056507 Z-12.000000 I2571.423998 J-376.227525
G02 X12.715670 Y81.574135 Z-12.000000 I-3602.777835 J482.479666
G02 X7.760038 Y49.173431 Z-12.000000 I-1685.777049 J241.257379
G02 X1.933345 Y17.515750 Z-12.000000 I-770.447898 J125.438249
G01 X107.998540 Y6.939090 Z-12.000000
G01 X280.356440 Y367.382550 Z-12.000000
G01 X82.944445 Y387.087390 Z-12.000000
G00 Z5.000000

(End cutting path id: path4625-1-2-7-6-2)


(Start cutting path id: path4625-1-2-7-6-2)
(Change tool to Cylindrical cutter)

G00 Z5.000000
G00 X82.944445 Y387.087390

G01 Z-15.000000 F400.0(Penetrate)
G01 X84.538745 Y404.103790 Z-15.000000 F400.000000
G02 X78.323665 Y423.593999 Z-15.000000 I199.036591 J74.205266
G02 X73.561233 Y444.036084 Z-15.000000 I320.674830 J85.484036
G02 X69.984821 Y464.780353 Z-15.000000 I389.010395 J77.747690
G02 X67.663845 Y482.900100 Z-15.000000 I538.240301 J78.152241
G02 X67.350086 Y522.635093 Z-15.000000 I970.883410 J27.535112
G02 X68.174595 Y561.652574 Z-15.000000 I2277.391106 J-28.607888
G02 X69.430576 Y600.672429 Z-15.000000 I7864.666177 J-233.619763
G03 X70.389345 Y639.384230 Z-15.000000 I-1955.334276 J67.795216
G03 X70.023433 Y671.251834 Z-15.000000 I-564.949507 J9.449000
G03 X68.070220 Y701.804504 Z-15.000000 I-633.279959 J-25.146413
G03 X64.537283 Y732.340122 Z-15.000000 I-563.169134 J-49.685847
G03 X60.671345 Y753.526290 Z-15.000000 I-279.737042 J-40.099113
G03 X57.396456 Y767.647627 Z-15.000000 I-437.552654 J-94.032727
G03 X53.324957 Y782.213526 Z-15.000000 I-257.618626 J-64.158250
G03 X48.272271 Y796.446173 Z-15.000000 I-180.008615 J-55.891089
G03 X43.251645 Y806.515820 Z-15.000000 I-64.290307 J-25.768069
G03 X39.357692 Y810.689064 Z-15.000000 I-12.549241 J-7.806096
G03 X33.558357 Y813.904409 Z-15.000000 I-16.295833 J-22.554226
G03 X27.087443 Y815.670414 Z-15.000000 I-10.535373 J-25.865010
G03 X22.469545 Y815.442420 Z-15.000000 I-1.732935 J-11.780847
G03 X13.837544 Y810.624655 Z-15.000000 I4.322939 J-17.887290
G03 X10.128807 Y804.517146 Z-15.000000 I10.407811 J-10.499868
G03 X8.812737 Y796.437295 Z-15.000000 I27.970606 J-8.703044
G03 X8.645445 Y786.612290 Z-15.000000 I1155.720758 J-24.592626
G03 X8.632670 Y781.046272 Z-15.000000 I46.113416 J-2.888856
G03 X10.408882 Y753.750854 Z-15.000000 I1948.552051 J113.093857
G03 X12.412232 Y727.561755 Z-15.000000 I3005.860689 J216.763840
G03 X14.213145 Y706.435770 Z-15.000000 I2436.946409 J197.101001
G02 X15.809260 Y684.498257 Z-15.000000 I-1378.504619 J-111.323163
G02 X16.875245 Y662.975639 Z-15.000000 I-707.905725 J-45.849272
G02 X17.199331 Y641.443921 Z-15.000000 I-559.071507 J-19.183190
G02 X16.540945 Y620.636750 Z-15.000000 I-379.464818 J1.593119
G01 X6.808545 Y484.558450 Z-15.000000
G03 X6.622767 Y467.852520 Z-15.000000 I586.299400 J-14.873927
G03 X7.023907 Y451.297286 Z-15.000000 I392.409223 J1.225768
G03 X8.180637 Y434.791979 Z-15.000000 I335.436709 J15.214995
G03 X10.256445 Y418.415060 Z-15.000000 I261.137968 J24.779753
G03 X13.679146 Y386.938544 Z-15.000000 I1367.922739 J132.821183
G02 X17.408458 Y355.909937 Z-15.000000 I-71776.675294 J-8642.537420
G02 X20.938330 Y324.864482 Z-15.000000 I-2507.699743 J-300.849216
G02 X23.761945 Y293.314320 Z-15.000000 I-886.226320 J-95.215185
G02 X25.727198 Y261.375554 Z-15.000000 I-679.721213 J-57.854395
G02 X26.329933 Y221.346192 Z-15.000000 I-871.931039 J-33.148144
G02 X25.026482 Y181.427595 Z-15.000000 I-806.766872 J6.362548
G02 X21.597345 Y145.335130 Z-15.000000 I-484.920679 J27.863072
G03 X17.214909 Y114.056507 Z-15.000000 I2571.423998 J-376.227525
G02 X12.715670 Y81.574135 Z-15.000000 I-3602.777835 J482.479666
G02 X7.760038 Y49.173431 Z-15.000000 I-1685.777049 J241.257379
G02 X1.933345 Y17.515750 Z-15.000000 I-770.447898 J125.438249
G01 X107.998540 Y6.939090 Z-15.000000
G01 X280.356440 Y367.382550 Z-15.000000
G01 X82.944445 Y387.087390 Z-15.000000
G00 Z5.000000

(End cutting path id: path4625-1-2-7-6-2)


(Start cutting path id: path4625-1-2-7-6-2)
(Change tool to Cylindrical cutter)

G00 Z5.000000
G00 X82.944445 Y387.087390

G01 Z-18.000000 F400.0(Penetrate)
G01 X84.538745 Y404.103790 Z-18.000000 F400.000000
G02 X78.323665 Y423.593999 Z-18.000000 I199.036591 J74.205266
G02 X73.561233 Y444.036084 Z-18.000000 I320.674830 J85.484036
G02 X69.984821 Y464.780353 Z-18.000000 I389.010395 J77.747690
G02 X67.663845 Y482.900100 Z-18.000000 I538.240301 J78.152241
G02 X67.350086 Y522.635093 Z-18.000000 I970.883410 J27.535112
G02 X68.174595 Y561.652574 Z-18.000000 I2277.391106 J-28.607888
G02 X69.430576 Y600.672429 Z-18.000000 I7864.666177 J-233.619763
G03 X70.389345 Y639.384230 Z-18.000000 I-1955.334276 J67.795216
G03 X70.023433 Y671.251834 Z-18.000000 I-564.949507 J9.449000
G03 X68.070220 Y701.804504 Z-18.000000 I-633.279959 J-25.146413
G03 X64.537283 Y732.340122 Z-18.000000 I-563.169134 J-49.685847
G03 X60.671345 Y753.526290 Z-18.000000 I-279.737042 J-40.099113
G03 X57.396456 Y767.647627 Z-18.000000 I-437.552654 J-94.032727
G03 X53.324957 Y782.213526 Z-18.000000 I-257.618626 J-64.158250
G03 X48.272271 Y796.446173 Z-18.000000 I-180.008615 J-55.891089
G03 X43.251645 Y806.515820 Z-18.000000 I-64.290307 J-25.768069
G03 X39.357692 Y810.689064 Z-18.000000 I-12.549241 J-7.806096
G03 X33.558357 Y813.904409 Z-18.000000 I-16.295833 J-22.554226
G03 X27.087443 Y815.670414 Z-18.000000 I-10.535373 J-25.865010
G03 X22.469545 Y815.442420 Z-18.000000 I-1.732935 J-11.780847
G03 X13.837544 Y810.624655 Z-18.000000 I4.322939 J-17.887290
G03 X10.128807 Y804.517146 Z-18.000000 I10.407811 J-10.499868
G03 X8.812737 Y796.437295 Z-18.000000 I27.970606 J-8.703044
G03 X8.645445 Y786.612290 Z-18.000000 I1155.720758 J-24.592626
G03 X8.632670 Y781.046272 Z-18.000000 I46.113416 J-2.888856
G03 X10.408882 Y753.750854 Z-18.000000 I1948.552051 J113.093857
G03 X12.412232 Y727.561755 Z-18.000000 I3005.860689 J216.763840
G03 X14.213145 Y706.435770 Z-18.000000 I2436.946409 J197.101001
G02 X15.809260 Y684.498257 Z-18.000000 I-1378.504619 J-111.323163
G02 X16.875245 Y662.975639 Z-18.000000 I-707.905725 J-45.849272
G02 X17.199331 Y641.443921 Z-18.000000 I-559.071507 J-19.183190
G02 X16.540945 Y620.636750 Z-18.000000 I-379.464818 J1.593119
G01 X6.808545 Y484.558450 Z-18.000000
G03 X6.622767 Y467.852520 Z-18.000000 I586.299400 J-14.873927
G03 X7.023907 Y451.297286 Z-18.000000 I392.409223 J1.225768
G03 X8.180637 Y434.791979 Z-18.000000 I335.436709 J15.214995
G03 X10.256445 Y418.415060 Z-18.000000 I261.137968 J24.779753
G03 X13.679146 Y386.938544 Z-18.000000 I1367.922739 J132.821183
G02 X17.408458 Y355.909937 Z-18.000000 I-71776.675294 J-8642.537420
G02 X20.938330 Y324.864482 Z-18.000000 I-2507.699743 J-300.849216
G02 X23.761945 Y293.314320 Z-18.000000 I-886.226320 J-95.215185
G02 X25.727198 Y261.375554 Z-18.000000 I-679.721213 J-57.854395
G02 X26.329933 Y221.346192 Z-18.000000 I-871.931039 J-33.148144
G02 X25.026482 Y181.427595 Z-18.000000 I-806.766872 J6.362548
G02 X21.597345 Y145.335130 Z-18.000000 I-484.920679 J27.863072
G03 X17.214909 Y114.056507 Z-18.000000 I2571.423998 J-376.227525
G02 X12.715670 Y81.574135 Z-18.000000 I-3602.777835 J482.479666
G02 X7.760038 Y49.173431 Z-18.000000 I-1685.777049 J241.257379
G02 X1.933345 Y17.515750 Z-18.000000 I-770.447898 J125.438249
G01 X107.998540 Y6.939090 Z-18.000000
G01 X280.356440 Y367.382550 Z-18.000000
G01 X82.944445 Y387.087390 Z-18.000000
G00 Z5.000000

(End cutting path id: path4625-1-2-7-6-2)


(Start cutting path id: path4625-1-2-7-6-2)
(Change tool to Cylindrical cutter)

G00 Z5.000000
G00 X82.944445 Y387.087390

G01 Z-19.500000 F400.0(Penetrate)
G01 X84.538745 Y404.103790 Z-19.500000 F400.000000
G02 X78.323665 Y423.593999 Z-19.500000 I199.036591 J74.205266
G02 X73.561233 Y444.036084 Z-19.500000 I320.674830 J85.484036
G02 X69.984821 Y464.780353 Z-19.500000 I389.010395 J77.747690
G02 X67.663845 Y482.900100 Z-19.500000 I538.240301 J78.152241
G02 X67.350086 Y522.635093 Z-19.500000 I970.883410 J27.535112
G02 X68.174595 Y561.652574 Z-19.500000 I2277.391106 J-28.607888
G02 X69.430576 Y600.672429 Z-19.500000 I7864.666177 J-233.619763
G03 X70.389345 Y639.384230 Z-19.500000 I-1955.334276 J67.795216
G03 X70.023433 Y671.251834 Z-19.500000 I-564.949507 J9.449000
G03 X68.070220 Y701.804504 Z-19.500000 I-633.279959 J-25.146413
G03 X64.537283 Y732.340122 Z-19.500000 I-563.169134 J-49.685847
G03 X60.671345 Y753.526290 Z-19.500000 I-279.737042 J-40.099113
G03 X57.396456 Y767.647627 Z-19.500000 I-437.552654 J-94.032727
G03 X53.324957 Y782.213526 Z-19.500000 I-257.618626 J-64.158250
G03 X48.272271 Y796.446173 Z-19.500000 I-180.008615 J-55.891089
G03 X43.251645 Y806.515820 Z-19.500000 I-64.290307 J-25.768069
G03 X39.357692 Y810.689064 Z-19.500000 I-12.549241 J-7.806096
G03 X33.558357 Y813.904409 Z-19.500000 I-16.295833 J-22.554226
G03 X27.087443 Y815.670414 Z-19.500000 I-10.535373 J-25.865010
G03 X22.469545 Y815.442420 Z-19.500000 I-1.732935 J-11.780847
G03 X13.837544 Y810.624655 Z-19.500000 I4.322939 J-17.887290
G03 X10.128807 Y804.517146 Z-19.500000 I10.407811 J-10.499868
G03 X8.812737 Y796.437295 Z-19.500000 I27.970606 J-8.703044
G03 X8.645445 Y786.612290 Z-19.500000 I1155.720758 J-24.592626
G03 X8.632670 Y781.046272 Z-19.500000 I46.113416 J-2.888856
G03 X10.408882 Y753.750854 Z-19.500000 I1948.552051 J113.093857
G03 X12.412232 Y727.561755 Z-19.500000 I3005.860689 J216.763840
G03 X14.213145 Y706.435770 Z-19.500000 I2436.946409 J197.101001
G02 X15.809260 Y684.498257 Z-19.500000 I-1378.504619 J-111.323163
G02 X16.875245 Y662.975639 Z-19.500000 I-707.905725 J-45.849272
G02 X17.199331 Y641.443921 Z-19.500000 I-559.071507 J-19.183190
G02 X16.540945 Y620.636750 Z-19.500000 I-379.464818 J1.593119
G01 X6.808545 Y484.558450 Z-19.500000
G03 X6.622767 Y467.852520 Z-19.500000 I586.299400 J-14.873927
G03 X7.023907 Y451.297286 Z-19.500000 I392.409223 J1.225768
G03 X8.180637 Y434.791979 Z-19.500000 I335.436709 J15.214995
G03 X10.256445 Y418.415060 Z-19.500000 I261.137968 J24.779753
G03 X13.679146 Y386.938544 Z-19.500000 I1367.922739 J132.821183
G02 X17.408458 Y355.909937 Z-19.500000 I-71776.675294 J-8642.537420
G02 X20.938330 Y324.864482 Z-19.500000 I-2507.699743 J-300.849216
G02 X23.761945 Y293.314320 Z-19.500000 I-886.226320 J-95.215185
G02 X25.727198 Y261.375554 Z-19.500000 I-679.721213 J-57.854395
G02 X26.329933 Y221.346192 Z-19.500000 I-871.931039 J-33.148144
G02 X25.026482 Y181.427595 Z-19.500000 I-806.766872 J6.362548
G02 X21.597345 Y145.335130 Z-19.500000 I-484.920679 J27.863072
G03 X17.214909 Y114.056507 Z-19.500000 I2571.423998 J-376.227525
G02 X12.715670 Y81.574135 Z-19.500000 I-3602.777835 J482.479666
G02 X7.760038 Y49.173431 Z-19.500000 I-1685.777049 J241.257379
G02 X1.933345 Y17.515750 Z-19.500000 I-770.447898 J125.438249
G01 X107.998540 Y6.939090 Z-19.500000
G01 X280.356440 Y367.382550 Z-19.500000
G01 X82.944445 Y387.087390 Z-19.500000
G00 Z5.000000

(End cutting path id: path4625-1-2-7-6-2)


(Start cutting path id: path4627-2-7-0-0-1)
(Change tool to Cylindrical cutter)

G00 Z5.000000
G00 X73.941145 Y153.876090

G01 Z-3.000000 F400.0(Penetrate)
G01 X66.062145 Y70.148860 Z-3.000000 F400.000000
G03 X66.026711 Y68.343333 Z-3.000000 I34.887070 J-1.587787
G03 X66.405445 Y66.216409 Z-3.000000 I6.385215 J0.039811
G03 X67.435461 Y64.745749 Z-3.000000 I3.227000 J1.164086
G03 X69.940745 Y63.725960 Z-3.000000 I2.852856 J3.421304
G03 X71.800499 Y63.781912 Z-3.000000 I-1.422150 J78.205865
G03 X73.488795 Y64.114725 Z-3.000000 I-0.237391 J5.652843
G03 X74.881855 Y64.944287 Z-3.000000 I-1.462485 J4.040358
G03 X76.647445 Y67.132420 Z-3.000000 I-5.689157 J6.396929
G01 X115.994240 Y149.180780 Z-3.000000
G03 X116.145422 Y152.763786 Z-3.000000 I-9.497818 J2.195446
G03 X115.173027 Y155.805056 Z-3.000000 I-9.527045 J-1.370023
G03 X113.233736 Y158.192049 Z-3.000000 I-6.675883 J-3.442488
G03 X110.884640 Y159.099100 Z-3.000000 I-2.571873 J-3.165289
G01 X78.754945 Y161.533450 Z-3.000000
G03 X76.684645 Y160.199703 Z-3.000000 I2.599032 J-6.308010
G03 X75.220270 Y158.361609 Z-3.000000 I5.592828 J-5.958068
G03 X74.285756 Y156.144110 Z-3.000000 I8.041284 J-4.694476
G03 X73.941145 Y153.876090 Z-3.000000 I9.355016 J-2.581627
G01 X73.941145 Y153.876090 Z-3.000000
G00 Z5.000000

(End cutting path id: path4627-2-7-0-0-1)


(Start cutting path id: path4627-2-7-0-0-1)
(Change tool to Cylindrical cutter)

G00 Z5.000000
G00 X73.941145 Y153.876090

G01 Z-6.000000 F400.0(Penetrate)
G01 X66.062145 Y70.148860 Z-6.000000 F400.000000
G03 X66.026711 Y68.343333 Z-6.000000 I34.887070 J-1.587787
G03 X66.405445 Y66.216409 Z-6.000000 I6.385215 J0.039811
G03 X67.435461 Y64.745749 Z-6.000000 I3.227000 J1.164086
G03 X69.940745 Y63.725960 Z-6.000000 I2.852856 J3.421304
G03 X71.800499 Y63.781912 Z-6.000000 I-1.422150 J78.205865
G03 X73.488795 Y64.114725 Z-6.000000 I-0.237391 J5.652843
G03 X74.881855 Y64.944287 Z-6.000000 I-1.462485 J4.040358
G03 X76.647445 Y67.132420 Z-6.000000 I-5.689157 J6.396929
G01 X115.994240 Y149.180780 Z-6.000000
G03 X116.145422 Y152.763786 Z-6.000000 I-9.497818 J2.195446
G03 X115.173027 Y155.805056 Z-6.000000 I-9.527045 J-1.370023
G03 X113.233736 Y158.192049 Z-6.000000 I-6.675883 J-3.442488
G03 X110.884640 Y159.099100 Z-6.000000 I-2.571873 J-3.165289
G01 X78.754945 Y161.533450 Z-6.000000
G03 X76.684645 Y160.199703 Z-6.000000 I2.599032 J-6.308010
G03 X75.220270 Y158.361609 Z-6.000000 I5.592828 J-5.958068
G03 X74.285756 Y156.144110 Z-6.000000 I8.041284 J-4.694476
G03 X73.941145 Y153.876090 Z-6.000000 I9.355016 J-2.581627
G01 X73.941145 Y153.876090 Z-6.000000
G00 Z5.000000

(End cutting path id: path4627-2-7-0-0-1)


(Start cutting path id: path4627-2-7-0-0-1)
(Change tool to Cylindrical cutter)

G00 Z5.000000
G00 X73.941145 Y153.876090

G01 Z-9.000000 F400.0(Penetrate)
G01 X66.062145 Y70.148860 Z-9.000000 F400.000000
G03 X66.026711 Y68.343333 Z-9.000000 I34.887070 J-1.587787
G03 X66.405445 Y66.216409 Z-9.000000 I6.385215 J0.039811
G03 X67.435461 Y64.745749 Z-9.000000 I3.227000 J1.164086
G03 X69.940745 Y63.725960 Z-9.000000 I2.852856 J3.421304
G03 X71.800499 Y63.781912 Z-9.000000 I-1.422150 J78.205865
G03 X73.488795 Y64.114725 Z-9.000000 I-0.237391 J5.652843
G03 X74.881855 Y64.944287 Z-9.000000 I-1.462485 J4.040358
G03 X76.647445 Y67.132420 Z-9.000000 I-5.689157 J6.396929
G01 X115.994240 Y149.180780 Z-9.000000
G03 X116.145422 Y152.763786 Z-9.000000 I-9.497818 J2.195446
G03 X115.173027 Y155.805056 Z-9.000000 I-9.527045 J-1.370023
G03 X113.233736 Y158.192049 Z-9.000000 I-6.675883 J-3.442488
G03 X110.884640 Y159.099100 Z-9.000000 I-2.571873 J-3.165289
G01 X78.754945 Y161.533450 Z-9.000000
G03 X76.684645 Y160.199703 Z-9.000000 I2.599032 J-6.308010
G03 X75.220270 Y158.361609 Z-9.000000 I5.592828 J-5.958068
G03 X74.285756 Y156.144110 Z-9.000000 I8.041284 J-4.694476
G03 X73.941145 Y153.876090 Z-9.000000 I9.355016 J-2.581627
G01 X73.941145 Y153.876090 Z-9.000000
G00 Z5.000000

(End cutting path id: path4627-2-7-0-0-1)


(Start cutting path id: path4627-2-7-0-0-1)
(Change tool to Cylindrical cutter)

G00 Z5.000000
G00 X73.941145 Y153.876090

G01 Z-12.000000 F400.0(Penetrate)
G01 X66.062145 Y70.148860 Z-12.000000 F400.000000
G03 X66.026711 Y68.343333 Z-12.000000 I34.887070 J-1.587787
G03 X66.405445 Y66.216409 Z-12.000000 I6.385215 J0.039811
G03 X67.435461 Y64.745749 Z-12.000000 I3.227000 J1.164086
G03 X69.940745 Y63.725960 Z-12.000000 I2.852856 J3.421304
G03 X71.800499 Y63.781912 Z-12.000000 I-1.422150 J78.205865
G03 X73.488795 Y64.114725 Z-12.000000 I-0.237391 J5.652843
G03 X74.881855 Y64.944287 Z-12.000000 I-1.462485 J4.040358
G03 X76.647445 Y67.132420 Z-12.000000 I-5.689157 J6.396929
G01 X115.994240 Y149.180780 Z-12.000000
G03 X116.145422 Y152.763786 Z-12.000000 I-9.497818 J2.195446
G03 X115.173027 Y155.805056 Z-12.000000 I-9.527045 J-1.370023
G03 X113.233736 Y158.192049 Z-12.000000 I-6.675883 J-3.442488
G03 X110.884640 Y159.099100 Z-12.000000 I-2.571873 J-3.165289
G01 X78.754945 Y161.533450 Z-12.000000
G03 X76.684645 Y160.199703 Z-12.000000 I2.599032 J-6.308010
G03 X75.220270 Y158.361609 Z-12.000000 I5.592828 J-5.958068
G03 X74.285756 Y156.144110 Z-12.000000 I8.041284 J-4.694476
G03 X73.941145 Y153.876090 Z-12.000000 I9.355016 J-2.581627
G01 X73.941145 Y153.876090 Z-12.000000
G00 Z5.000000

(End cutting path id: path4627-2-7-0-0-1)


(Start cutting path id: path4627-2-7-0-0-1)
(Change tool to Cylindrical cutter)

G00 Z5.000000
G00 X73.941145 Y153.876090

G01 Z-15.000000 F400.0(Penetrate)
G01 X66.062145 Y70.148860 Z-15.000000 F400.000000
G03 X66.026711 Y68.343333 Z-15.000000 I34.887070 J-1.587787
G03 X66.405445 Y66.216409 Z-15.000000 I6.385215 J0.039811
G03 X67.435461 Y64.745749 Z-15.000000 I3.227000 J1.164086
G03 X69.940745 Y63.725960 Z-15.000000 I2.852856 J3.421304
G03 X71.800499 Y63.781912 Z-15.000000 I-1.422150 J78.205865
G03 X73.488795 Y64.114725 Z-15.000000 I-0.237391 J5.652843
G03 X74.881855 Y64.944287 Z-15.000000 I-1.462485 J4.040358
G03 X76.647445 Y67.132420 Z-15.000000 I-5.689157 J6.396929
G01 X115.994240 Y149.180780 Z-15.000000
G03 X116.145422 Y152.763786 Z-15.000000 I-9.497818 J2.195446
G03 X115.173027 Y155.805056 Z-15.000000 I-9.527045 J-1.370023
G03 X113.233736 Y158.192049 Z-15.000000 I-6.675883 J-3.442488
G03 X110.884640 Y159.099100 Z-15.000000 I-2.571873 J-3.165289
G01 X78.754945 Y161.533450 Z-15.000000
G03 X76.684645 Y160.199703 Z-15.000000 I2.599032 J-6.308010
G03 X75.220270 Y158.361609 Z-15.000000 I5.592828 J-5.958068
G03 X74.285756 Y156.144110 Z-15.000000 I8.041284 J-4.694476
G03 X73.941145 Y153.876090 Z-15.000000 I9.355016 J-2.581627
G01 X73.941145 Y153.876090 Z-15.000000
G00 Z5.000000

(End cutting path id: path4627-2-7-0-0-1)


(Start cutting path id: path4627-2-7-0-0-1)
(Change tool to Cylindrical cutter)

G00 Z5.000000
G00 X73.941145 Y153.876090

G01 Z-18.000000 F400.0(Penetrate)
G01 X66.062145 Y70.148860 Z-18.000000 F400.000000
G03 X66.026711 Y68.343333 Z-18.000000 I34.887070 J-1.587787
G03 X66.405445 Y66.216409 Z-18.000000 I6.385215 J0.039811
G03 X67.435461 Y64.745749 Z-18.000000 I3.227000 J1.164086
G03 X69.940745 Y63.725960 Z-18.000000 I2.852856 J3.421304
G03 X71.800499 Y63.781912 Z-18.000000 I-1.422150 J78.205865
G03 X73.488795 Y64.114725 Z-18.000000 I-0.237391 J5.652843
G03 X74.881855 Y64.944287 Z-18.000000 I-1.462485 J4.040358
G03 X76.647445 Y67.132420 Z-18.000000 I-5.689157 J6.396929
G01 X115.994240 Y149.180780 Z-18.000000
G03 X116.145422 Y152.763786 Z-18.000000 I-9.497818 J2.195446
G03 X115.173027 Y155.805056 Z-18.000000 I-9.527045 J-1.370023
G03 X113.233736 Y158.192049 Z-18.000000 I-6.675883 J-3.442488
G03 X110.884640 Y159.099100 Z-18.000000 I-2.571873 J-3.165289
G01 X78.754945 Y161.533450 Z-18.000000
G03 X76.684645 Y160.199703 Z-18.000000 I2.599032 J-6.308010
G03 X75.220270 Y158.361609 Z-18.000000 I5.592828 J-5.958068
G03 X74.285756 Y156.144110 Z-18.000000 I8.041284 J-4.694476
G03 X73.941145 Y153.876090 Z-18.000000 I9.355016 J-2.581627
G01 X73.941145 Y153.876090 Z-18.000000
G00 Z5.000000

(End cutting path id: path4627-2-7-0-0-1)


(Start cutting path id: path4627-2-7-0-0-1)
(Change tool to Cylindrical cutter)

G00 Z5.000000
G00 X73.941145 Y153.876090

G01 Z-19.500000 F400.0(Penetrate)
G01 X66.062145 Y70.148860 Z-19.500000 F400.000000
G03 X66.026711 Y68.343333 Z-19.500000 I34.887070 J-1.587787
G03 X66.405445 Y66.216409 Z-19.500000 I6.385215 J0.039811
G03 X67.435461 Y64.745749 Z-19.500000 I3.227000 J1.164086
G03 X69.940745 Y63.725960 Z-19.500000 I2.852856 J3.421304
G03 X71.800499 Y63.781912 Z-19.500000 I-1.422150 J78.205865
G03 X73.488795 Y64.114725 Z-19.500000 I-0.237391 J5.652843
G03 X74.881855 Y64.944287 Z-19.500000 I-1.462485 J4.040358
G03 X76.647445 Y67.132420 Z-19.500000 I-5.689157 J6.396929
G01 X115.994240 Y149.180780 Z-19.500000
G03 X116.145422 Y152.763786 Z-19.500000 I-9.497818 J2.195446
G03 X115.173027 Y155.805056 Z-19.500000 I-9.527045 J-1.370023
G03 X113.233736 Y158.192049 Z-19.500000 I-6.675883 J-3.442488
G03 X110.884640 Y159.099100 Z-19.500000 I-2.571873 J-3.165289
G01 X78.754945 Y161.533450 Z-19.500000
G03 X76.684645 Y160.199703 Z-19.500000 I2.599032 J-6.308010
G03 X75.220270 Y158.361609 Z-19.500000 I5.592828 J-5.958068
G03 X74.285756 Y156.144110 Z-19.500000 I8.041284 J-4.694476
G03 X73.941145 Y153.876090 Z-19.500000 I9.355016 J-2.581627
G01 X73.941145 Y153.876090 Z-19.500000
G00 Z5.000000

(End cutting path id: path4627-2-7-0-0-1)


(Footer)
M5
G00 X0.0000 Y0.0000
M2
(Using default footer. To add your own footer create file "footer" in the output dir.)
(end)
%