%
(Header)
(Generated by gcodetools from Inkscape.)
(Using default header. To add your own header create file "header" in the output dir.)
M3
(Header end.)
G21 (All units in mm)

(Start cutting path id: path2935-5-5-5-1)
(Change tool to Cylindrical cutter)

G00 Z5.000000
G00 X34.126845 Y746.561460

G01 Z-3.000000 F400.0(Penetrate)
G03 X31.499059 Y746.338406 Z-3.000000 I0.958564 J-26.883261 F400.000000
G02 X30.205658 Y746.441115 Z-3.000000 I-0.409214 J3.042013
G02 X29.286484 Y747.109150 Z-3.000000 I0.495995 J1.648837
G02 X27.879645 Y749.881950 Z-3.000000 I9.388101 J6.506548
G03 X27.384304 Y757.761861 Z-3.000000 I-736.433269 J-42.337543
G03 X26.281345 Y773.680060 Z-3.000000 I-7593.214353 J-518.130584
G02 X26.914537 Y775.278329 Z-3.000000 I2.681323 J-0.137708
G02 X28.221557 Y776.196145 Z-3.000000 I2.410458 J-2.043081
G02 X30.018176 Y776.604548 Z-3.000000 I2.422192 J-6.499565
G02 X32.622745 Y776.737840 Z-3.000000 I3.002437 J-33.154766
G02 X35.642572 Y776.896977 Z-3.000000 I2.396473 J-16.743994
G02 X37.468533 Y776.520181 Z-3.000000 I-0.207123 J-5.616440
G02 X38.792833 Y775.515357 Z-3.000000 I-1.091992 J-2.814270
G02 X39.378145 Y773.855550 Z-3.000000 I-2.355055 J-1.763589
G01 X41.455945 Y750.083050 Z-3.000000
G02 X40.540278 Y747.911621 Z-3.000000 I-2.403795 J-0.265125
G02 X38.153445 Y746.751077 Z-3.000000 I-3.912509 J5.011954
G02 X34.994102 Y746.507165 Z-3.000000 I-2.310881 J9.349239
G02 X34.297145 Y747.090760 Z-3.000000 I0.070011 J0.791577
G02 X33.023323 Y752.736754 Z-3.000000 I65.116834 J17.658041
G02 X31.372058 Y762.448160 Z-3.000000 I458.517349 J82.959449
G02 X30.011252 Y771.778015 Z-3.000000 I357.626806 J56.925794
G02 X30.131845 Y771.805050 Z-3.000000 I0.061499 J0.008154
G01 X35.085545 Y773.024680 Z-3.000000
G01 X36.284545 Y748.867460 Z-3.000000
G00 Z5.000000

(End cutting path id: path2935-5-5-5-1)


(Start cutting path id: path2935-5-5-5-1)
(Change tool to Cylindrical cutter)

G00 Z5.000000
G00 X34.126845 Y746.561460

G01 Z-6.000000 F400.0(Penetrate)
G03 X31.499059 Y746.338406 Z-6.000000 I0.958564 J-26.883261 F400.000000
G02 X30.205658 Y746.441115 Z-6.000000 I-0.409214 J3.042013
G02 X29.286484 Y747.109150 Z-6.000000 I0.495995 J1.648837
G02 X27.879645 Y749.881950 Z-6.000000 I9.388101 J6.506548
G03 X27.384304 Y757.761861 Z-6.000000 I-736.433269 J-42.337543
G03 X26.281345 Y773.680060 Z-6.000000 I-7593.214353 J-518.130584
G02 X26.914537 Y775.278329 Z-6.000000 I2.681323 J-0.137708
G02 X28.221557 Y776.196145 Z-6.000000 I2.410458 J-2.043081
G02 X30.018176 Y776.604548 Z-6.000000 I2.422192 J-6.499565
G02 X32.622745 Y776.737840 Z-6.000000 I3.002437 J-33.154766
G02 X35.642572 Y776.896977 Z-6.000000 I2.396473 J-16.743994
G02 X37.468533 Y776.520181 Z-6.000000 I-0.207123 J-5.616440
G02 X38.792833 Y775.515357 Z-6.000000 I-1.091992 J-2.814270
G02 X39.378145 Y773.855550 Z-6.000000 I-2.355055 J-1.763589
G01 X41.455945 Y750.083050 Z-6.000000
G02 X40.540278 Y747.911621 Z-6.000000 I-2.403795 J-0.265125
G02 X38.153445 Y746.751077 Z-6.000000 I-3.912509 J5.011954
G02 X34.994102 Y746.507165 Z-6.000000 I-2.310881 J9.349239
G02 X34.297145 Y747.090760 Z-6.000000 I0.070011 J0.791577
G02 X33.023323 Y752.736754 Z-6.000000 I65.116834 J17.658041
G02 X31.372058 Y762.448160 Z-6.000000 I458.517349 J82.959449
G02 X30.011252 Y771.778015 Z-6.000000 I357.626806 J56.925794
G02 X30.131845 Y771.805050 Z-6.000000 I0.061499 J0.008154
G01 X35.085545 Y773.024680 Z-6.000000
G01 X36.284545 Y748.867460 Z-6.000000
G00 Z5.000000

(End cutting path id: path2935-5-5-5-1)


(Start cutting path id: path2935-5-5-5-1)
(Change tool to Cylindrical cutter)

G00 Z5.000000
G00 X34.126845 Y746.561460

G01 Z-6.350000 F400.0(Penetrate)
G03 X31.499059 Y746.338406 Z-6.350000 I0.958564 J-26.883261 F400.000000
G02 X30.205658 Y746.441115 Z-6.350000 I-0.409214 J3.042013
G02 X29.286484 Y747.109150 Z-6.350000 I0.495995 J1.648837
G02 X27.879645 Y749.881950 Z-6.350000 I9.388101 J6.506548
G03 X27.384304 Y757.761861 Z-6.350000 I-736.433269 J-42.337543
G03 X26.281345 Y773.680060 Z-6.350000 I-7593.214353 J-518.130584
G02 X26.914537 Y775.278329 Z-6.350000 I2.681323 J-0.137708
G02 X28.221557 Y776.196145 Z-6.350000 I2.410458 J-2.043081
G02 X30.018176 Y776.604548 Z-6.350000 I2.422192 J-6.499565
G02 X32.622745 Y776.737840 Z-6.350000 I3.002437 J-33.154766
G02 X35.642572 Y776.896977 Z-6.350000 I2.396473 J-16.743994
G02 X37.468533 Y776.520181 Z-6.350000 I-0.207123 J-5.616440
G02 X38.792833 Y775.515357 Z-6.350000 I-1.091992 J-2.814270
G02 X39.378145 Y773.855550 Z-6.350000 I-2.355055 J-1.763589
G01 X41.455945 Y750.083050 Z-6.350000
G02 X40.540278 Y747.911621 Z-6.350000 I-2.403795 J-0.265125
G02 X38.153445 Y746.751077 Z-6.350000 I-3.912509 J5.011954
G02 X34.994102 Y746.507165 Z-6.350000 I-2.310881 J9.349239
G02 X34.297145 Y747.090760 Z-6.350000 I0.070011 J0.791577
G02 X33.023323 Y752.736754 Z-6.350000 I65.116834 J17.658041
G02 X31.372058 Y762.448160 Z-6.350000 I458.517349 J82.959449
G02 X30.011252 Y771.778015 Z-6.350000 I357.626806 J56.925794
G02 X30.131845 Y771.805050 Z-6.350000 I0.061499 J0.008154
G01 X35.085545 Y773.024680 Z-6.350000
G01 X36.284545 Y748.867460 Z-6.350000
G00 Z5.000000

(End cutting path id: path2935-5-5-5-1)


(Start cutting path id: path2939-0-1-9-1)
(Change tool to Cylindrical cutter)

G00 Z5.000000
G00 X42.359145 Y651.462530

G01 Z-3.000000 F400.0(Penetrate)
G02 X47.090148 Y651.557572 Z-3.000000 I2.588892 J-11.072378 F400.000000
G02 X48.740820 Y650.706474 Z-3.000000 I-0.618927 J-3.226641
G02 X49.777904 Y648.809085 Z-3.000000 I-2.463779 J-2.578786
G02 X49.841445 Y647.571320 Z-3.000000 I-4.330117 J-0.842801
G01 X51.804745 Y622.859750 Z-3.000000
G02 X50.923098 Y620.697476 Z-3.000000 I-5.434361 J0.954931
G02 X49.927183 Y619.832405 Z-3.000000 I-2.155794 J1.476054
G02 X48.509553 Y619.449267 Z-3.000000 I-1.673513 J3.377856
G02 X46.844145 Y619.412390 Z-3.000000 I-1.235072 J18.153191
G02 X43.369881 Y619.086829 Z-3.000000 I-3.760596 J21.430861
G02 X41.125633 Y619.395307 Z-3.000000 I-0.099905 J7.591103
G02 X39.329510 Y620.438351 Z-3.000000 I1.235206 J4.195009
G02 X38.268745 Y622.243990 Z-3.000000 I2.684818 J2.791665
G01 X36.471245 Y647.881890 Z-3.000000
G02 X37.501508 Y650.291494 Z-3.000000 I4.071309 J-0.315695
G02 X38.946570 Y651.206870 Z-3.000000 I2.341911 J-2.098754
G02 X41.052000 Y651.499266 Z-3.000000 I2.012178 J-6.762530
G03 X42.863245 Y651.555070 Z-3.000000 I0.272143 J20.588753
G01 X45.191545 Y645.255300 Z-3.000000
G01 X47.272045 Y623.820890 Z-3.000000
G01 X42.364645 Y623.443920 Z-3.000000
G01 X40.616145 Y646.216280 Z-3.000000
G00 Z5.000000

(End cutting path id: path2939-0-1-9-1)


(Start cutting path id: path2939-0-1-9-1)
(Change tool to Cylindrical cutter)

G00 Z5.000000
G00 X42.359145 Y651.462530

G01 Z-6.000000 F400.0(Penetrate)
G02 X47.090148 Y651.557572 Z-6.000000 I2.588892 J-11.072378 F400.000000
G02 X48.740820 Y650.706474 Z-6.000000 I-0.618927 J-3.226641
G02 X49.777904 Y648.809085 Z-6.000000 I-2.463779 J-2.578786
G02 X49.841445 Y647.571320 Z-6.000000 I-4.330117 J-0.842801
G01 X51.804745 Y622.859750 Z-6.000000
G02 X50.923098 Y620.697476 Z-6.000000 I-5.434361 J0.954931
G02 X49.927183 Y619.832405 Z-6.000000 I-2.155794 J1.476054
G02 X48.509553 Y619.449267 Z-6.000000 I-1.673513 J3.377856
G02 X46.844145 Y619.412390 Z-6.000000 I-1.235072 J18.153191
G02 X43.369881 Y619.086829 Z-6.000000 I-3.760596 J21.430861
G02 X41.125633 Y619.395307 Z-6.000000 I-0.099905 J7.591103
G02 X39.329510 Y620.438351 Z-6.000000 I1.235206 J4.195009
G02 X38.268745 Y622.243990 Z-6.000000 I2.684818 J2.791665
G01 X36.471245 Y647.881890 Z-6.000000
G02 X37.501508 Y650.291494 Z-6.000000 I4.071309 J-0.315695
G02 X38.946570 Y651.206870 Z-6.000000 I2.341911 J-2.098754
G02 X41.052000 Y651.499266 Z-6.000000 I2.012178 J-6.762530
G03 X42.863245 Y651.555070 Z-6.000000 I0.272143 J20.588753
G01 X45.191545 Y645.255300 Z-6.000000
G01 X47.272045 Y623.820890 Z-6.000000
G01 X42.364645 Y623.443920 Z-6.000000
G01 X40.616145 Y646.216280 Z-6.000000
G00 Z5.000000

(End cutting path id: path2939-0-1-9-1)


(Start cutting path id: path2939-0-1-9-1)
(Change tool to Cylindrical cutter)

G00 Z5.000000
G00 X42.359145 Y651.462530

G01 Z-6.350000 F400.0(Penetrate)
G02 X47.090148 Y651.557572 Z-6.350000 I2.588892 J-11.072378 F400.000000
G02 X48.740820 Y650.706474 Z-6.350000 I-0.618927 J-3.226641
G02 X49.777904 Y648.809085 Z-6.350000 I-2.463779 J-2.578786
G02 X49.841445 Y647.571320 Z-6.350000 I-4.330117 J-0.842801
G01 X51.804745 Y622.859750 Z-6.350000
G02 X50.923098 Y620.697476 Z-6.350000 I-5.434361 J0.954931
G02 X49.927183 Y619.832405 Z-6.350000 I-2.155794 J1.476054
G02 X48.509553 Y619.449267 Z-6.350000 I-1.673513 J3.377856
G02 X46.844145 Y619.412390 Z-6.350000 I-1.235072 J18.153191
G02 X43.369881 Y619.086829 Z-6.350000 I-3.760596 J21.430861
G02 X41.125633 Y619.395307 Z-6.350000 I-0.099905 J7.591103
G02 X39.329510 Y620.438351 Z-6.350000 I1.235206 J4.195009
G02 X38.268745 Y622.243990 Z-6.350000 I2.684818 J2.791665
G01 X36.471245 Y647.881890 Z-6.350000
G02 X37.501508 Y650.291494 Z-6.350000 I4.071309 J-0.315695
G02 X38.946570 Y651.206870 Z-6.350000 I2.341911 J-2.098754
G02 X41.052000 Y651.499266 Z-6.350000 I2.012178 J-6.762530
G03 X42.863245 Y651.555070 Z-6.350000 I0.272143 J20.588753
G01 X45.191545 Y645.255300 Z-6.350000
G01 X47.272045 Y623.820890 Z-6.350000
G01 X42.364645 Y623.443920 Z-6.350000
G01 X40.616145 Y646.216280 Z-6.350000
G00 Z5.000000

(End cutting path id: path2939-0-1-9-1)


(Start cutting path id: path2939-0-7-3-7-7)
(Change tool to Cylindrical cutter)

G00 Z5.000000
G00 X40.921945 Y531.190890

G01 Z-3.000000 F400.0(Penetrate)
G02 X45.132668 Y529.947116 Z-3.000000 I-1.490635 J-12.795916 F400.000000
G02 X46.236007 Y528.932432 Z-3.000000 I-1.179347 J-2.389604
G02 X46.590739 Y527.289342 Z-3.000000 I-2.225065 J-1.340214
G02 X46.378145 Y526.103810 Z-3.000000 I-9.880823 J1.160042
G01 X44.667245 Y501.373470 Z-3.000000
G02 X43.475724 Y499.365269 Z-3.000000 I-5.233076 J1.747347
G02 X42.362857 Y498.656905 Z-3.000000 I-1.913918 J1.778477
G02 X40.904118 Y498.487524 Z-3.000000 I-1.155861 J3.588337
G02 X39.251545 Y498.697220 Z-3.000000 I1.461956 J18.138070
G02 X35.767245 Y498.888754 Z-3.000000 I-0.551678 J21.752299
G02 X33.593220 Y499.525557 Z-3.000000 I1.023195 J7.522577
G02 X31.971004 Y500.822629 Z-3.000000 I1.841605 J3.966219
G02 X31.188845 Y502.765220 Z-3.000000 I3.067764 J2.363954
G01 X33.200445 Y528.387210 Z-3.000000
G02 X34.230684 Y530.518329 Z-3.000000 I5.008807 J-1.106806
G02 X35.217070 Y531.169492 Z-3.000000 I1.530282 J-1.245407
G02 X36.613398 Y531.289214 Z-3.000000 I1.003243 J-3.498322
G03 X38.320445 Y531.133680 Z-3.000000 I5.332985 J49.086090
G01 X41.436945 Y524.500430 Z-3.000000
G01 X40.326345 Y502.994010 Z-3.000000
G01 X35.417145 Y503.346550 Z-3.000000
G01 X37.053845 Y526.127200 Z-3.000000
G00 Z5.000000

(End cutting path id: path2939-0-7-3-7-7)


(Start cutting path id: path2939-0-7-3-7-7)
(Change tool to Cylindrical cutter)

G00 Z5.000000
G00 X40.921945 Y531.190890

G01 Z-6.000000 F400.0(Penetrate)
G02 X45.132668 Y529.947116 Z-6.000000 I-1.490635 J-12.795916 F400.000000
G02 X46.236007 Y528.932432 Z-6.000000 I-1.179347 J-2.389604
G02 X46.590739 Y527.289342 Z-6.000000 I-2.225065 J-1.340214
G02 X46.378145 Y526.103810 Z-6.000000 I-9.880823 J1.160042
G01 X44.667245 Y501.373470 Z-6.000000
G02 X43.475724 Y499.365269 Z-6.000000 I-5.233076 J1.747347
G02 X42.362857 Y498.656905 Z-6.000000 I-1.913918 J1.778477
G02 X40.904118 Y498.487524 Z-6.000000 I-1.155861 J3.588337
G02 X39.251545 Y498.697220 Z-6.000000 I1.461956 J18.138070
G02 X35.767245 Y498.888754 Z-6.000000 I-0.551678 J21.752299
G02 X33.593220 Y499.525557 Z-6.000000 I1.023195 J7.522577
G02 X31.971004 Y500.822629 Z-6.000000 I1.841605 J3.966219
G02 X31.188845 Y502.765220 Z-6.000000 I3.067764 J2.363954
G01 X33.200445 Y528.387210 Z-6.000000
G02 X34.230684 Y530.518329 Z-6.000000 I5.008807 J-1.106806
G02 X35.217070 Y531.169492 Z-6.000000 I1.530282 J-1.245407
G02 X36.613398 Y531.289214 Z-6.000000 I1.003243 J-3.498322
G03 X38.320445 Y531.133680 Z-6.000000 I5.332985 J49.086090
G01 X41.436945 Y524.500430 Z-6.000000
G01 X40.326345 Y502.994010 Z-6.000000
G01 X35.417145 Y503.346550 Z-6.000000
G01 X37.053845 Y526.127200 Z-6.000000
G00 Z5.000000

(End cutting path id: path2939-0-7-3-7-7)


(Start cutting path id: path2939-0-7-3-7-7)
(Change tool to Cylindrical cutter)

G00 Z5.000000
G00 X40.921945 Y531.190890

G01 Z-6.350000 F400.0(Penetrate)
G02 X45.132668 Y529.947116 Z-6.350000 I-1.490635 J-12.795916 F400.000000
G02 X46.236007 Y528.932432 Z-6.350000 I-1.179347 J-2.389604
G02 X46.590739 Y527.289342 Z-6.350000 I-2.225065 J-1.340214
G02 X46.378145 Y526.103810 Z-6.350000 I-9.880823 J1.160042
G01 X44.667245 Y501.373470 Z-6.350000
G02 X43.475724 Y499.365269 Z-6.350000 I-5.233076 J1.747347
G02 X42.362857 Y498.656905 Z-6.350000 I-1.913918 J1.778477
G02 X40.904118 Y498.487524 Z-6.350000 I-1.155861 J3.588337
G02 X39.251545 Y498.697220 Z-6.350000 I1.461956 J18.138070
G02 X35.767245 Y498.888754 Z-6.350000 I-0.551678 J21.752299
G02 X33.593220 Y499.525557 Z-6.350000 I1.023195 J7.522577
G02 X31.971004 Y500.822629 Z-6.350000 I1.841605 J3.966219
G02 X31.188845 Y502.765220 Z-6.350000 I3.067764 J2.363954
G01 X33.200445 Y528.387210 Z-6.350000
G02 X34.230684 Y530.518329 Z-6.350000 I5.008807 J-1.106806
G02 X35.217070 Y531.169492 Z-6.350000 I1.530282 J-1.245407
G02 X36.613398 Y531.289214 Z-6.350000 I1.003243 J-3.498322
G03 X38.320445 Y531.133680 Z-6.350000 I5.332985 J49.086090
G01 X41.436945 Y524.500430 Z-6.350000
G01 X40.326345 Y502.994010 Z-6.350000
G01 X35.417145 Y503.346550 Z-6.350000
G01 X37.053845 Y526.127200 Z-6.350000
G00 Z5.000000

(End cutting path id: path2939-0-7-3-7-7)


(Start cutting path id: path4625-1-2-7-6-2)
(Change tool to Cylindrical cutter)

G00 Z5.000000
G00 X82.944445 Y387.087390

G01 Z-3.000000 F400.0(Penetrate)
G01 X84.538745 Y404.103790 Z-3.000000 F400.000000
G02 X78.323665 Y423.593999 Z-3.000000 I199.036591 J74.205266
G02 X73.561233 Y444.036084 Z-3.000000 I320.674830 J85.484036
G02 X69.984821 Y464.780353 Z-3.000000 I389.010395 J77.747690
G02 X67.663845 Y482.900100 Z-3.000000 I538.240301 J78.152241
G02 X67.350086 Y522.635093 Z-3.000000 I970.883410 J27.535112
G02 X68.174595 Y561.652574 Z-3.000000 I2277.391106 J-28.607888
G02 X69.430576 Y600.672429 Z-3.000000 I7864.666177 J-233.619763
G03 X70.389345 Y639.384230 Z-3.000000 I-1955.334276 J67.795216
G03 X70.023433 Y671.251834 Z-3.000000 I-564.949507 J9.449000
G03 X68.070220 Y701.804504 Z-3.000000 I-633.279959 J-25.146413
G03 X64.537283 Y732.340122 Z-3.000000 I-563.169134 J-49.685847
G03 X60.671345 Y753.526290 Z-3.000000 I-279.737042 J-40.099113
G03 X57.396456 Y767.647627 Z-3.000000 I-437.552654 J-94.032727
G03 X53.324957 Y782.213526 Z-3.000000 I-257.618626 J-64.158250
G03 X48.272271 Y796.446173 Z-3.000000 I-180.008615 J-55.891089
G03 X43.251645 Y806.515820 Z-3.000000 I-64.290307 J-25.768069
G03 X39.357692 Y810.689064 Z-3.000000 I-12.549241 J-7.806096
G03 X33.558357 Y813.904409 Z-3.000000 I-16.295833 J-22.554226
G03 X27.087443 Y815.670414 Z-3.000000 I-10.535373 J-25.865010
G03 X22.469545 Y815.442420 Z-3.000000 I-1.732935 J-11.780847
G03 X13.837544 Y810.624655 Z-3.000000 I4.322939 J-17.887290
G03 X10.128807 Y804.517146 Z-3.000000 I10.407811 J-10.499868
G03 X8.812737 Y796.437295 Z-3.000000 I27.970606 J-8.703044
G03 X8.645445 Y786.612290 Z-3.000000 I1155.720758 J-24.592626
G03 X8.632670 Y781.046272 Z-3.000000 I46.113416 J-2.888856
G03 X10.408882 Y753.750854 Z-3.000000 I1948.552051 J113.093857
G03 X12.412232 Y727.561755 Z-3.000000 I3005.860689 J216.763840
G03 X14.213145 Y706.435770 Z-3.000000 I2436.946409 J197.101001
G02 X15.809260 Y684.498257 Z-3.000000 I-1378.504619 J-111.323163
G02 X16.875245 Y662.975639 Z-3.000000 I-707.905725 J-45.849272
G02 X17.199331 Y641.443921 Z-3.000000 I-559.071507 J-19.183190
G02 X16.540945 Y620.636750 Z-3.000000 I-379.464818 J1.593119
G01 X6.808545 Y484.558450 Z-3.000000
G03 X6.622767 Y467.852520 Z-3.000000 I586.299400 J-14.873927
G03 X7.023907 Y451.297286 Z-3.000000 I392.409223 J1.225768
G03 X8.180637 Y434.791979 Z-3.000000 I335.436709 J15.214995
G03 X10.256445 Y418.415060 Z-3.000000 I261.137968 J24.779753
G03 X13.679146 Y386.938544 Z-3.000000 I1367.922739 J132.821183
G02 X17.408458 Y355.909937 Z-3.000000 I-71776.675294 J-8642.537420
G02 X20.938330 Y324.864482 Z-3.000000 I-2507.699743 J-300.849216
G02 X23.761945 Y293.314320 Z-3.000000 I-886.226320 J-95.215185
G02 X25.727198 Y261.375554 Z-3.000000 I-679.721213 J-57.854395
G02 X26.329933 Y221.346192 Z-3.000000 I-871.931039 J-33.148144
G02 X25.026482 Y181.427595 Z-3.000000 I-806.766872 J6.362548
G02 X21.597345 Y145.335130 Z-3.000000 I-484.920679 J27.863072
G03 X17.214909 Y114.056507 Z-3.000000 I2571.423998 J-376.227525
G02 X12.715670 Y81.574135 Z-3.000000 I-3602.777835 J482.479666
G02 X7.760038 Y49.173431 Z-3.000000 I-1685.777049 J241.257379
G02 X1.933345 Y17.515750 Z-3.000000 I-770.447898 J125.438249
G01 X107.998540 Y6.939090 Z-3.000000
G01 X280.356440 Y367.382550 Z-3.000000
G01 X82.944445 Y387.087390 Z-3.000000
G00 Z5.000000

(End cutting path id: path4625-1-2-7-6-2)


(Start cutting path id: path4625-1-2-7-6-2)
(Change tool to Cylindrical cutter)

G00 Z5.000000
G00 X82.944445 Y387.087390

G01 Z-6.000000 F400.0(Penetrate)
G01 X84.538745 Y404.103790 Z-6.000000 F400.000000
G02 X78.323665 Y423.593999 Z-6.000000 I199.036591 J74.205266
G02 X73.561233 Y444.036084 Z-6.000000 I320.674830 J85.484036
G02 X69.984821 Y464.780353 Z-6.000000 I389.010395 J77.747690
G02 X67.663845 Y482.900100 Z-6.000000 I538.240301 J78.152241
G02 X67.350086 Y522.635093 Z-6.000000 I970.883410 J27.535112
G02 X68.174595 Y561.652574 Z-6.000000 I2277.391106 J-28.607888
G02 X69.430576 Y600.672429 Z-6.000000 I7864.666177 J-233.619763
G03 X70.389345 Y639.384230 Z-6.000000 I-1955.334276 J67.795216
G03 X70.023433 Y671.251834 Z-6.000000 I-564.949507 J9.449000
G03 X68.070220 Y701.804504 Z-6.000000 I-633.279959 J-25.146413
G03 X64.537283 Y732.340122 Z-6.000000 I-563.169134 J-49.685847
G03 X60.671345 Y753.526290 Z-6.000000 I-279.737042 J-40.099113
G03 X57.396456 Y767.647627 Z-6.000000 I-437.552654 J-94.032727
G03 X53.324957 Y782.213526 Z-6.000000 I-257.618626 J-64.158250
G03 X48.272271 Y796.446173 Z-6.000000 I-180.008615 J-55.891089
G03 X43.251645 Y806.515820 Z-6.000000 I-64.290307 J-25.768069
G03 X39.357692 Y810.689064 Z-6.000000 I-12.549241 J-7.806096
G03 X33.558357 Y813.904409 Z-6.000000 I-16.295833 J-22.554226
G03 X27.087443 Y815.670414 Z-6.000000 I-10.535373 J-25.865010
G03 X22.469545 Y815.442420 Z-6.000000 I-1.732935 J-11.780847
G03 X13.837544 Y810.624655 Z-6.000000 I4.322939 J-17.887290
G03 X10.128807 Y804.517146 Z-6.000000 I10.407811 J-10.499868
G03 X8.812737 Y796.437295 Z-6.000000 I27.970606 J-8.703044
G03 X8.645445 Y786.612290 Z-6.000000 I1155.720758 J-24.592626
G03 X8.632670 Y781.046272 Z-6.000000 I46.113416 J-2.888856
G03 X10.408882 Y753.750854 Z-6.000000 I1948.552051 J113.093857
G03 X12.412232 Y727.561755 Z-6.000000 I3005.860689 J216.763840
G03 X14.213145 Y706.435770 Z-6.000000 I2436.946409 J197.101001
G02 X15.809260 Y684.498257 Z-6.000000 I-1378.504619 J-111.323163
G02 X16.875245 Y662.975639 Z-6.000000 I-707.905725 J-45.849272
G02 X17.199331 Y641.443921 Z-6.000000 I-559.071507 J-19.183190
G02 X16.540945 Y620.636750 Z-6.000000 I-379.464818 J1.593119
G01 X6.808545 Y484.558450 Z-6.000000
G03 X6.622767 Y467.852520 Z-6.000000 I586.299400 J-14.873927
G03 X7.023907 Y451.297286 Z-6.000000 I392.409223 J1.225768
G03 X8.180637 Y434.791979 Z-6.000000 I335.436709 J15.214995
G03 X10.256445 Y418.415060 Z-6.000000 I261.137968 J24.779753
G03 X13.679146 Y386.938544 Z-6.000000 I1367.922739 J132.821183
G02 X17.408458 Y355.909937 Z-6.000000 I-71776.675294 J-8642.537420
G02 X20.938330 Y324.864482 Z-6.000000 I-2507.699743 J-300.849216
G02 X23.761945 Y293.314320 Z-6.000000 I-886.226320 J-95.215185
G02 X25.727198 Y261.375554 Z-6.000000 I-679.721213 J-57.854395
G02 X26.329933 Y221.346192 Z-6.000000 I-871.931039 J-33.148144
G02 X25.026482 Y181.427595 Z-6.000000 I-806.766872 J6.362548
G02 X21.597345 Y145.335130 Z-6.000000 I-484.920679 J27.863072
G03 X17.214909 Y114.056507 Z-6.000000 I2571.423998 J-376.227525
G02 X12.715670 Y81.574135 Z-6.000000 I-3602.777835 J482.479666
G02 X7.760038 Y49.173431 Z-6.000000 I-1685.777049 J241.257379
G02 X1.933345 Y17.515750 Z-6.000000 I-770.447898 J125.438249
G01 X107.998540 Y6.939090 Z-6.000000
G01 X280.356440 Y367.382550 Z-6.000000
G01 X82.944445 Y387.087390 Z-6.000000
G00 Z5.000000

(End cutting path id: path4625-1-2-7-6-2)


(Start cutting path id: path4625-1-2-7-6-2)
(Change tool to Cylindrical cutter)

G00 Z5.000000
G00 X82.944445 Y387.087390

G01 Z-6.350000 F400.0(Penetrate)
G01 X84.538745 Y404.103790 Z-6.350000 F400.000000
G02 X78.323665 Y423.593999 Z-6.350000 I199.036591 J74.205266
G02 X73.561233 Y444.036084 Z-6.350000 I320.674830 J85.484036
G02 X69.984821 Y464.780353 Z-6.350000 I389.010395 J77.747690
G02 X67.663845 Y482.900100 Z-6.350000 I538.240301 J78.152241
G02 X67.350086 Y522.635093 Z-6.350000 I970.883410 J27.535112
G02 X68.174595 Y561.652574 Z-6.350000 I2277.391106 J-28.607888
G02 X69.430576 Y600.672429 Z-6.350000 I7864.666177 J-233.619763
G03 X70.389345 Y639.384230 Z-6.350000 I-1955.334276 J67.795216
G03 X70.023433 Y671.251834 Z-6.350000 I-564.949507 J9.449000
G03 X68.070220 Y701.804504 Z-6.350000 I-633.279959 J-25.146413
G03 X64.537283 Y732.340122 Z-6.350000 I-563.169134 J-49.685847
G03 X60.671345 Y753.526290 Z-6.350000 I-279.737042 J-40.099113
G03 X57.396456 Y767.647627 Z-6.350000 I-437.552654 J-94.032727
G03 X53.324957 Y782.213526 Z-6.350000 I-257.618626 J-64.158250
G03 X48.272271 Y796.446173 Z-6.350000 I-180.008615 J-55.891089
G03 X43.251645 Y806.515820 Z-6.350000 I-64.290307 J-25.768069
G03 X39.357692 Y810.689064 Z-6.350000 I-12.549241 J-7.806096
G03 X33.558357 Y813.904409 Z-6.350000 I-16.295833 J-22.554226
G03 X27.087443 Y815.670414 Z-6.350000 I-10.535373 J-25.865010
G03 X22.469545 Y815.442420 Z-6.350000 I-1.732935 J-11.780847
G03 X13.837544 Y810.624655 Z-6.350000 I4.322939 J-17.887290
G03 X10.128807 Y804.517146 Z-6.350000 I10.407811 J-10.499868
G03 X8.812737 Y796.437295 Z-6.350000 I27.970606 J-8.703044
G03 X8.645445 Y786.612290 Z-6.350000 I1155.720758 J-24.592626
G03 X8.632670 Y781.046272 Z-6.350000 I46.113416 J-2.888856
G03 X10.408882 Y753.750854 Z-6.350000 I1948.552051 J113.093857
G03 X12.412232 Y727.561755 Z-6.350000 I3005.860689 J216.763840
G03 X14.213145 Y706.435770 Z-6.350000 I2436.946409 J197.101001
G02 X15.809260 Y684.498257 Z-6.350000 I-1378.504619 J-111.323163
G02 X16.875245 Y662.975639 Z-6.350000 I-707.905725 J-45.849272
G02 X17.199331 Y641.443921 Z-6.350000 I-559.071507 J-19.183190
G02 X16.540945 Y620.636750 Z-6.350000 I-379.464818 J1.593119
G01 X6.808545 Y484.558450 Z-6.350000
G03 X6.622767 Y467.852520 Z-6.350000 I586.299400 J-14.873927
G03 X7.023907 Y451.297286 Z-6.350000 I392.409223 J1.225768
G03 X8.180637 Y434.791979 Z-6.350000 I335.436709 J15.214995
G03 X10.256445 Y418.415060 Z-6.350000 I261.137968 J24.779753
G03 X13.679146 Y386.938544 Z-6.350000 I1367.922739 J132.821183
G02 X17.408458 Y355.909937 Z-6.350000 I-71776.675294 J-8642.537420
G02 X20.938330 Y324.864482 Z-6.350000 I-2507.699743 J-300.849216
G02 X23.761945 Y293.314320 Z-6.350000 I-886.226320 J-95.215185
G02 X25.727198 Y261.375554 Z-6.350000 I-679.721213 J-57.854395
G02 X26.329933 Y221.346192 Z-6.350000 I-871.931039 J-33.148144
G02 X25.026482 Y181.427595 Z-6.350000 I-806.766872 J6.362548
G02 X21.597345 Y145.335130 Z-6.350000 I-484.920679 J27.863072
G03 X17.214909 Y114.056507 Z-6.350000 I2571.423998 J-376.227525
G02 X12.715670 Y81.574135 Z-6.350000 I-3602.777835 J482.479666
G02 X7.760038 Y49.173431 Z-6.350000 I-1685.777049 J241.257379
G02 X1.933345 Y17.515750 Z-6.350000 I-770.447898 J125.438249
G01 X107.998540 Y6.939090 Z-6.350000
G01 X280.356440 Y367.382550 Z-6.350000
G01 X82.944445 Y387.087390 Z-6.350000
G00 Z5.000000

(End cutting path id: path4625-1-2-7-6-2)


(Start cutting path id: path4629-7-8-60-4-7)
(Change tool to Cylindrical cutter)

G00 Z5.000000
G00 X195.524640 Y332.743780

G01 Z-3.000000 F400.0(Penetrate)
G03 X184.629710 Y334.048614 Z-3.000000 I-35.094959 J-246.894263 F400.000000
G03 X143.555103 Y337.987386 Z-3.000000 I-1255.676257 J-12878.402097
G03 X101.264086 Y341.923527 Z-3.000000 I-1659.911710 J-17605.400517
G02 X97.574845 Y342.313840 Z-3.000000 I12.295256 J133.845531
G03 X94.689958 Y341.855725 Z-3.000000 I-0.605971 J-5.496576
G03 X92.467945 Y340.309675 Z-3.000000 I3.062992 J-6.771976
G03 X90.808652 Y337.965486 Z-3.000000 I6.261265 J-6.191273
G03 X90.256045 Y335.883130 Z-3.000000 I5.058264 J-2.456843
G01 X82.191045 Y247.808950 Z-3.000000
G03 X82.189439 Y243.315321 Z-3.000000 I16.797353 J-2.252817
G03 X83.233108 Y240.194377 Z-3.000000 I8.630957 J1.151283
G03 X85.367528 Y237.892271 Z-3.000000 I5.879235 J3.310461
G03 X88.860745 Y236.568860 Z-3.000000 I4.621300 J6.926206
G01 X149.246040 Y231.461050 Z-3.000000
G03 X151.773550 Y231.568772 Z-3.000000 I0.811078 J10.675140
G03 X154.226953 Y232.435324 Z-3.000000 I-1.174699 J7.232180
G03 X156.212224 Y234.057498 Z-3.000000 I-3.817426 J6.697804
G03 X158.454940 Y237.467810 Z-3.000000 I-11.252354 J9.842452
G03 X159.318210 Y239.132767 Z-3.000000 I-20.288671 J11.575831
G03 X179.047753 Y281.286131 Z-3.000000 I-49956.368692 J23407.369473
G03 X189.019630 Y302.626475 Z-3.000000 I-52086.308751 J24351.661191
G03 X198.932640 Y323.863690 Z-3.000000 I-51054.445842 J23844.023539
G03 X200.240581 Y327.058076 Z-3.000000 I-16.725478 J8.713207
G03 X200.333790 Y329.404690 Z-3.000000 I-4.412707 J1.350434
G03 X199.247067 Y331.101342 Z-3.000000 I-2.852353 J-0.630606
G03 X195.524640 Y332.743780 Z-3.000000 I-5.314145 J-7.004520
G01 X195.524640 Y332.743780 Z-3.000000
G00 Z5.000000

(End cutting path id: path4629-7-8-60-4-7)


(Start cutting path id: path4629-7-8-60-4-7)
(Change tool to Cylindrical cutter)

G00 Z5.000000
G00 X195.524640 Y332.743780

G01 Z-6.000000 F400.0(Penetrate)
G03 X184.629710 Y334.048614 Z-6.000000 I-35.094959 J-246.894263 F400.000000
G03 X143.555103 Y337.987386 Z-6.000000 I-1255.676257 J-12878.402097
G03 X101.264086 Y341.923527 Z-6.000000 I-1659.911710 J-17605.400517
G02 X97.574845 Y342.313840 Z-6.000000 I12.295256 J133.845531
G03 X94.689958 Y341.855725 Z-6.000000 I-0.605971 J-5.496576
G03 X92.467945 Y340.309675 Z-6.000000 I3.062992 J-6.771976
G03 X90.808652 Y337.965486 Z-6.000000 I6.261265 J-6.191273
G03 X90.256045 Y335.883130 Z-6.000000 I5.058264 J-2.456843
G01 X82.191045 Y247.808950 Z-6.000000
G03 X82.189439 Y243.315321 Z-6.000000 I16.797353 J-2.252817
G03 X83.233108 Y240.194377 Z-6.000000 I8.630957 J1.151283
G03 X85.367528 Y237.892271 Z-6.000000 I5.879235 J3.310461
G03 X88.860745 Y236.568860 Z-6.000000 I4.621300 J6.926206
G01 X149.246040 Y231.461050 Z-6.000000
G03 X151.773550 Y231.568772 Z-6.000000 I0.811078 J10.675140
G03 X154.226953 Y232.435324 Z-6.000000 I-1.174699 J7.232180
G03 X156.212224 Y234.057498 Z-6.000000 I-3.817426 J6.697804
G03 X158.454940 Y237.467810 Z-6.000000 I-11.252354 J9.842452
G03 X159.318210 Y239.132767 Z-6.000000 I-20.288671 J11.575831
G03 X179.047753 Y281.286131 Z-6.000000 I-49956.368692 J23407.369473
G03 X189.019630 Y302.626475 Z-6.000000 I-52086.308751 J24351.661191
G03 X198.932640 Y323.863690 Z-6.000000 I-51054.445842 J23844.023539
G03 X200.240581 Y327.058076 Z-6.000000 I-16.725478 J8.713207
G03 X200.333790 Y329.404690 Z-6.000000 I-4.412707 J1.350434
G03 X199.247067 Y331.101342 Z-6.000000 I-2.852353 J-0.630606
G03 X195.524640 Y332.743780 Z-6.000000 I-5.314145 J-7.004520
G01 X195.524640 Y332.743780 Z-6.000000
G00 Z5.000000

(End cutting path id: path4629-7-8-60-4-7)


(Start cutting path id: path4629-7-8-60-4-7)
(Change tool to Cylindrical cutter)

G00 Z5.000000
G00 X195.524640 Y332.743780

G01 Z-6.350000 F400.0(Penetrate)
G03 X184.629710 Y334.048614 Z-6.350000 I-35.094959 J-246.894263 F400.000000
G03 X143.555103 Y337.987386 Z-6.350000 I-1255.676257 J-12878.402097
G03 X101.264086 Y341.923527 Z-6.350000 I-1659.911710 J-17605.400517
G02 X97.574845 Y342.313840 Z-6.350000 I12.295256 J133.845531
G03 X94.689958 Y341.855725 Z-6.350000 I-0.605971 J-5.496576
G03 X92.467945 Y340.309675 Z-6.350000 I3.062992 J-6.771976
G03 X90.808652 Y337.965486 Z-6.350000 I6.261265 J-6.191273
G03 X90.256045 Y335.883130 Z-6.350000 I5.058264 J-2.456843
G01 X82.191045 Y247.808950 Z-6.350000
G03 X82.189439 Y243.315321 Z-6.350000 I16.797353 J-2.252817
G03 X83.233108 Y240.194377 Z-6.350000 I8.630957 J1.151283
G03 X85.367528 Y237.892271 Z-6.350000 I5.879235 J3.310461
G03 X88.860745 Y236.568860 Z-6.350000 I4.621300 J6.926206
G01 X149.246040 Y231.461050 Z-6.350000
G03 X151.773550 Y231.568772 Z-6.350000 I0.811078 J10.675140
G03 X154.226953 Y232.435324 Z-6.350000 I-1.174699 J7.232180
G03 X156.212224 Y234.057498 Z-6.350000 I-3.817426 J6.697804
G03 X158.454940 Y237.467810 Z-6.350000 I-11.252354 J9.842452
G03 X159.318210 Y239.132767 Z-6.350000 I-20.288671 J11.575831
G03 X179.047753 Y281.286131 Z-6.350000 I-49956.368692 J23407.369473
G03 X189.019630 Y302.626475 Z-6.350000 I-52086.308751 J24351.661191
G03 X198.932640 Y323.863690 Z-6.350000 I-51054.445842 J23844.023539
G03 X200.240581 Y327.058076 Z-6.350000 I-16.725478 J8.713207
G03 X200.333790 Y329.404690 Z-6.350000 I-4.412707 J1.350434
G03 X199.247067 Y331.101342 Z-6.350000 I-2.852353 J-0.630606
G03 X195.524640 Y332.743780 Z-6.350000 I-5.314145 J-7.004520
G01 X195.524640 Y332.743780 Z-6.350000
G00 Z5.000000

(End cutting path id: path4629-7-8-60-4-7)


(Start cutting path id: path4641-7-8-8-0-4)
(Change tool to Cylindrical cutter)

G00 Z5.000000
G00 X201.132140 Y193.495130

G01 Z-3.000000 F400.0(Penetrate)
G01 X59.196045 Y209.015410 Z-3.000000 F400.000000
G02 X56.666917 Y209.150270 Z-3.000000 I7.297325 J160.634552
G03 X54.913308 Y209.072336 Z-3.000000 I-0.509034 J-8.314264
G03 X53.455556 Y208.510631 Z-3.000000 I0.540066 J-3.574041
G03 X52.264745 Y207.139040 Z-3.000000 I1.880386 J-2.835270
G03 X52.027629 Y206.256709 Z-3.000000 I15.795507 J-4.717873
G03 X51.474345 Y203.274564 Z-3.000000 I28.721835 J-6.871229
G03 X51.265621 Y200.396132 Z-3.000000 I23.980010 J-3.185649
G03 X51.625645 Y197.901650 Z-3.000000 I8.108194 J-0.102981
G03 X52.596468 Y196.830212 Z-3.000000 I2.462946 J1.256113
G03 X53.961607 Y196.288240 Z-3.000000 I2.075476 J3.237517
G03 X55.592650 Y196.093870 Z-3.000000 I2.260243 J12.026083
G02 X58.575545 Y195.864930 Z-3.000000 I-3.057530 J-59.383879
G01 X196.245940 Y181.298910 Z-3.000000
G01 X197.746340 Y189.062060 Z-3.000000
G01 X56.034345 Y204.286960 Z-3.000000
G01 X54.530245 Y200.867140 Z-3.000000
G01 X194.720440 Y186.400730 Z-3.000000
G01 X199.901140 Y193.204630 Z-3.000000
G00 Z5.000000

(End cutting path id: path4641-7-8-8-0-4)


(Start cutting path id: path4641-7-8-8-0-4)
(Change tool to Cylindrical cutter)

G00 Z5.000000
G00 X201.132140 Y193.495130

G01 Z-6.000000 F400.0(Penetrate)
G01 X59.196045 Y209.015410 Z-6.000000 F400.000000
G02 X56.666917 Y209.150270 Z-6.000000 I7.297325 J160.634552
G03 X54.913308 Y209.072336 Z-6.000000 I-0.509034 J-8.314264
G03 X53.455556 Y208.510631 Z-6.000000 I0.540066 J-3.574041
G03 X52.264745 Y207.139040 Z-6.000000 I1.880386 J-2.835270
G03 X52.027629 Y206.256709 Z-6.000000 I15.795507 J-4.717873
G03 X51.474345 Y203.274564 Z-6.000000 I28.721835 J-6.871229
G03 X51.265621 Y200.396132 Z-6.000000 I23.980010 J-3.185649
G03 X51.625645 Y197.901650 Z-6.000000 I8.108194 J-0.102981
G03 X52.596468 Y196.830212 Z-6.000000 I2.462946 J1.256113
G03 X53.961607 Y196.288240 Z-6.000000 I2.075476 J3.237517
G03 X55.592650 Y196.093870 Z-6.000000 I2.260243 J12.026083
G02 X58.575545 Y195.864930 Z-6.000000 I-3.057530 J-59.383879
G01 X196.245940 Y181.298910 Z-6.000000
G01 X197.746340 Y189.062060 Z-6.000000
G01 X56.034345 Y204.286960 Z-6.000000
G01 X54.530245 Y200.867140 Z-6.000000
G01 X194.720440 Y186.400730 Z-6.000000
G01 X199.901140 Y193.204630 Z-6.000000
G00 Z5.000000

(End cutting path id: path4641-7-8-8-0-4)


(Start cutting path id: path4641-7-8-8-0-4)
(Change tool to Cylindrical cutter)

G00 Z5.000000
G00 X201.132140 Y193.495130

G01 Z-6.350000 F400.0(Penetrate)
G01 X59.196045 Y209.015410 Z-6.350000 F400.000000
G02 X56.666917 Y209.150270 Z-6.350000 I7.297325 J160.634552
G03 X54.913308 Y209.072336 Z-6.350000 I-0.509034 J-8.314264
G03 X53.455556 Y208.510631 Z-6.350000 I0.540066 J-3.574041
G03 X52.264745 Y207.139040 Z-6.350000 I1.880386 J-2.835270
G03 X52.027629 Y206.256709 Z-6.350000 I15.795507 J-4.717873
G03 X51.474345 Y203.274564 Z-6.350000 I28.721835 J-6.871229
G03 X51.265621 Y200.396132 Z-6.350000 I23.980010 J-3.185649
G03 X51.625645 Y197.901650 Z-6.350000 I8.108194 J-0.102981
G03 X52.596468 Y196.830212 Z-6.350000 I2.462946 J1.256113
G03 X53.961607 Y196.288240 Z-6.350000 I2.075476 J3.237517
G03 X55.592650 Y196.093870 Z-6.350000 I2.260243 J12.026083
G02 X58.575545 Y195.864930 Z-6.350000 I-3.057530 J-59.383879
G01 X196.245940 Y181.298910 Z-6.350000
G01 X197.746340 Y189.062060 Z-6.350000
G01 X56.034345 Y204.286960 Z-6.350000
G01 X54.530245 Y200.867140 Z-6.350000
G01 X194.720440 Y186.400730 Z-6.350000
G01 X199.901140 Y193.204630 Z-6.350000
G00 Z5.000000

(End cutting path id: path4641-7-8-8-0-4)


(Start cutting path id: path4627-2-7-0-0-1)
(Change tool to Cylindrical cutter)

G00 Z5.000000
G00 X73.941145 Y153.876090

G01 Z-3.000000 F400.0(Penetrate)
G01 X66.062145 Y70.148860 Z-3.000000 F400.000000
G03 X66.026711 Y68.343333 Z-3.000000 I34.887070 J-1.587787
G03 X66.405445 Y66.216409 Z-3.000000 I6.385215 J0.039811
G03 X67.435461 Y64.745749 Z-3.000000 I3.227000 J1.164086
G03 X69.940745 Y63.725960 Z-3.000000 I2.852856 J3.421304
G03 X71.800499 Y63.781912 Z-3.000000 I-1.422150 J78.205865
G03 X73.488795 Y64.114725 Z-3.000000 I-0.237391 J5.652843
G03 X74.881855 Y64.944287 Z-3.000000 I-1.462485 J4.040358
G03 X76.647445 Y67.132420 Z-3.000000 I-5.689157 J6.396929
G01 X115.994240 Y149.180780 Z-3.000000
G03 X116.145422 Y152.763786 Z-3.000000 I-9.497818 J2.195446
G03 X115.173027 Y155.805056 Z-3.000000 I-9.527045 J-1.370023
G03 X113.233736 Y158.192049 Z-3.000000 I-6.675883 J-3.442488
G03 X110.884640 Y159.099100 Z-3.000000 I-2.571873 J-3.165289
G01 X78.754945 Y161.533450 Z-3.000000
G03 X76.684645 Y160.199703 Z-3.000000 I2.599032 J-6.308010
G03 X75.220270 Y158.361609 Z-3.000000 I5.592828 J-5.958068
G03 X74.285756 Y156.144110 Z-3.000000 I8.041284 J-4.694476
G03 X73.941145 Y153.876090 Z-3.000000 I9.355016 J-2.581627
G01 X73.941145 Y153.876090 Z-3.000000
G00 Z5.000000

(End cutting path id: path4627-2-7-0-0-1)


(Start cutting path id: path4627-2-7-0-0-1)
(Change tool to Cylindrical cutter)

G00 Z5.000000
G00 X73.941145 Y153.876090

G01 Z-6.000000 F400.0(Penetrate)
G01 X66.062145 Y70.148860 Z-6.000000 F400.000000
G03 X66.026711 Y68.343333 Z-6.000000 I34.887070 J-1.587787
G03 X66.405445 Y66.216409 Z-6.000000 I6.385215 J0.039811
G03 X67.435461 Y64.745749 Z-6.000000 I3.227000 J1.164086
G03 X69.940745 Y63.725960 Z-6.000000 I2.852856 J3.421304
G03 X71.800499 Y63.781912 Z-6.000000 I-1.422150 J78.205865
G03 X73.488795 Y64.114725 Z-6.000000 I-0.237391 J5.652843
G03 X74.881855 Y64.944287 Z-6.000000 I-1.462485 J4.040358
G03 X76.647445 Y67.132420 Z-6.000000 I-5.689157 J6.396929
G01 X115.994240 Y149.180780 Z-6.000000
G03 X116.145422 Y152.763786 Z-6.000000 I-9.497818 J2.195446
G03 X115.173027 Y155.805056 Z-6.000000 I-9.527045 J-1.370023
G03 X113.233736 Y158.192049 Z-6.000000 I-6.675883 J-3.442488
G03 X110.884640 Y159.099100 Z-6.000000 I-2.571873 J-3.165289
G01 X78.754945 Y161.533450 Z-6.000000
G03 X76.684645 Y160.199703 Z-6.000000 I2.599032 J-6.308010
G03 X75.220270 Y158.361609 Z-6.000000 I5.592828 J-5.958068
G03 X74.285756 Y156.144110 Z-6.000000 I8.041284 J-4.694476
G03 X73.941145 Y153.876090 Z-6.000000 I9.355016 J-2.581627
G01 X73.941145 Y153.876090 Z-6.000000
G00 Z5.000000

(End cutting path id: path4627-2-7-0-0-1)


(Start cutting path id: path4627-2-7-0-0-1)
(Change tool to Cylindrical cutter)

G00 Z5.000000
G00 X73.941145 Y153.876090

G01 Z-6.350000 F400.0(Penetrate)
G01 X66.062145 Y70.148860 Z-6.350000 F400.000000
G03 X66.026711 Y68.343333 Z-6.350000 I34.887070 J-1.587787
G03 X66.405445 Y66.216409 Z-6.350000 I6.385215 J0.039811
G03 X67.435461 Y64.745749 Z-6.350000 I3.227000 J1.164086
G03 X69.940745 Y63.725960 Z-6.350000 I2.852856 J3.421304
G03 X71.800499 Y63.781912 Z-6.350000 I-1.422150 J78.205865
G03 X73.488795 Y64.114725 Z-6.350000 I-0.237391 J5.652843
G03 X74.881855 Y64.944287 Z-6.350000 I-1.462485 J4.040358
G03 X76.647445 Y67.132420 Z-6.350000 I-5.689157 J6.396929
G01 X115.994240 Y149.180780 Z-6.350000
G03 X116.145422 Y152.763786 Z-6.350000 I-9.497818 J2.195446
G03 X115.173027 Y155.805056 Z-6.350000 I-9.527045 J-1.370023
G03 X113.233736 Y158.192049 Z-6.350000 I-6.675883 J-3.442488
G03 X110.884640 Y159.099100 Z-6.350000 I-2.571873 J-3.165289
G01 X78.754945 Y161.533450 Z-6.350000
G03 X76.684645 Y160.199703 Z-6.350000 I2.599032 J-6.308010
G03 X75.220270 Y158.361609 Z-6.350000 I5.592828 J-5.958068
G03 X74.285756 Y156.144110 Z-6.350000 I8.041284 J-4.694476
G03 X73.941145 Y153.876090 Z-6.350000 I9.355016 J-2.581627
G01 X73.941145 Y153.876090 Z-6.350000
G00 Z5.000000

(End cutting path id: path4627-2-7-0-0-1)


(Footer)
M5
G00 X0.0000 Y0.0000
M2
(Using default footer. To add your own footer create file "footer" in the output dir.)
(end)
%