%
(Header)
(Generated by gcodetools from Inkscape.)
(Using default header. To add your own header create file "header" in the output dir.)
M3
(Header end.)
G21 (All units in mm)

(Start cutting path id: path4643-5-8-3-6-7)
(Change tool to Cylindrical cutter)

G00 Z5.000000
G00 X6.274320 Y425.369990

G01 Z-3.000000 F400.0(Penetrate)
G01 X123.516620 Y468.032050 Z-3.000000 F400.000000
G02 X134.994723 Y455.064317 Z-3.000000 I-85.037596 J-86.832819
G02 X145.164920 Y440.037285 Z-3.000000 I-123.753499 J-94.710632
G02 X153.591734 Y423.921077 Z-3.000000 I-142.290792 J-84.661960
G02 X159.855620 Y407.908970 Z-3.000000 I-145.147720 J-66.012590
G02 X165.936395 Y385.225874 Z-3.000000 I-180.752640 J-60.611899
G02 X169.385732 Y363.893454 Z-3.000000 I-264.923825 J-53.781833
G02 X171.371726 Y342.276043 Z-3.000000 I-375.323143 J-45.380899
G02 X172.612320 Y322.013780 Z-3.000000 I-5795.531750 J-365.011176
G03 X173.305527 Y309.263177 Z-3.000000 I150.106514 J1.766637
G03 X175.479107 Y294.896431 Z-3.000000 I135.741393 J13.188855
G03 X179.157010 Y280.867660 Z-3.000000 I134.191174 J27.684202
G03 X185.369120 Y264.655970 Z-3.000000 I146.210356 J46.729874
G03 X188.530301 Y257.623530 Z-3.000000 I32.569692 J10.413818
G03 X203.651011 Y232.778722 Z-3.000000 I1107.730869 J657.148481
G03 X218.663204 Y208.916636 Z-3.000000 I3373.841871 J2105.908946
G02 X231.293210 Y188.493670 Z-3.000000 I-901.483293 J-571.613684
G03 X239.205122 Y174.527737 Z-3.000000 I3046.085701 J1716.429554
G02 X246.767985 Y160.855660 Z-3.000000 I-544.709724 J-310.240070
G02 X253.877588 Y146.963880 Z-3.000000 I-347.675801 J-186.700403
G02 X260.491810 Y132.175270 Z-3.000000 I-222.792248 J-108.517491
G02 X262.225373 Y127.306790 Z-3.000000 I-171.022243 J-63.640278
G02 X264.599060 Y118.610214 Z-3.000000 I-69.468813 J-23.633400
G02 X265.792957 Y109.875344 Z-3.000000 I-62.460933 J-12.986296
G02 X265.356510 Y98.884950 Z-3.000000 I-51.679255 J-3.451592
G01 X234.118310 Y87.483220 Z-3.000000
G02 X229.824932 Y90.826713 Z-3.000000 I187.991831 J245.828497
G03 X224.147273 Y94.475947 Z-3.000000 I-21.173093 J-26.700740
G03 X217.895433 Y96.884813 Z-3.000000 I-14.633560 J-28.661876
G03 X205.779910 Y98.913230 Z-3.000000 I-16.415585 J-60.851990
G03 X192.449779 Y97.148065 Z-3.000000 I1.889217 J-65.482605
G03 X182.726456 Y93.976681 Z-3.000000 I14.715839 J-61.609447
G03 X173.405685 Y89.416909 Z-3.000000 I34.020661 J-81.349005
G02 X164.578520 Y84.497990 Z-3.000000 I-455.144289 J806.391918
G03 X160.397333 Y82.071649 Z-3.000000 I144.823414 J-254.382382
G02 X156.301120 Y79.717270 Z-3.000000 I-96.944171 J163.925606
G02 X152.122580 Y77.520551 Z-3.000000 I-45.579644 J81.627887
G02 X148.703520 Y76.088040 Z-3.000000 I-13.247629 J26.822407
G02 X139.013031 Y73.477114 Z-3.000000 I-29.078732 J88.637461
G02 X120.654620 Y69.770050 Z-3.000000 I-192.400778 J905.510665
G02 X102.259003 Y66.328218 Z-3.000000 I-421.898134 J2204.045316
G03 X91.820020 Y64.233830 Z-3.000000 I55.621332 J-304.293951
G03 X82.398717 Y60.570511 Z-3.000000 I13.066764 J-47.551525
G03 X75.957670 Y56.587159 Z-3.000000 I21.513973 J-41.987142
G03 X70.171942 Y51.476481 Z-3.000000 I25.641756 J-34.858995
G03 X67.724020 Y48.358840 Z-3.000000 I15.613810 J-14.779566
G03 X65.093065 Y44.231358 Z-3.000000 I208.276778 J-135.662800
G03 X62.085907 Y38.522346 Z-3.000000 I37.622222 J-23.463582
G03 X60.023156 Y32.500473 Z-3.000000 I35.620916 J-15.565930
G03 X58.664120 Y23.463190 Z-3.000000 I44.911810 J-11.374712
G01 X6.492020 Y4.418770 Z-3.000000
G01 X6.274320 Y425.369990 Z-3.000000
G00 Z5.000000

(End cutting path id: path4643-5-8-3-6-7)


(Start cutting path id: path4643-5-8-3-6-7)
(Change tool to Cylindrical cutter)

G00 Z5.000000
G00 X6.274320 Y425.369990

G01 Z-6.000000 F400.0(Penetrate)
G01 X123.516620 Y468.032050 Z-6.000000 F400.000000
G02 X134.994723 Y455.064317 Z-6.000000 I-85.037596 J-86.832819
G02 X145.164920 Y440.037285 Z-6.000000 I-123.753499 J-94.710632
G02 X153.591734 Y423.921077 Z-6.000000 I-142.290792 J-84.661960
G02 X159.855620 Y407.908970 Z-6.000000 I-145.147720 J-66.012590
G02 X165.936395 Y385.225874 Z-6.000000 I-180.752640 J-60.611899
G02 X169.385732 Y363.893454 Z-6.000000 I-264.923825 J-53.781833
G02 X171.371726 Y342.276043 Z-6.000000 I-375.323143 J-45.380899
G02 X172.612320 Y322.013780 Z-6.000000 I-5795.531750 J-365.011176
G03 X173.305527 Y309.263177 Z-6.000000 I150.106514 J1.766637
G03 X175.479107 Y294.896431 Z-6.000000 I135.741393 J13.188855
G03 X179.157010 Y280.867660 Z-6.000000 I134.191174 J27.684202
G03 X185.369120 Y264.655970 Z-6.000000 I146.210356 J46.729874
G03 X188.530301 Y257.623530 Z-6.000000 I32.569692 J10.413818
G03 X203.651011 Y232.778722 Z-6.000000 I1107.730869 J657.148481
G03 X218.663204 Y208.916636 Z-6.000000 I3373.841871 J2105.908946
G02 X231.293210 Y188.493670 Z-6.000000 I-901.483293 J-571.613684
G03 X239.205122 Y174.527737 Z-6.000000 I3046.085701 J1716.429554
G02 X246.767985 Y160.855660 Z-6.000000 I-544.709724 J-310.240070
G02 X253.877588 Y146.963880 Z-6.000000 I-347.675801 J-186.700403
G02 X260.491810 Y132.175270 Z-6.000000 I-222.792248 J-108.517491
G02 X262.225373 Y127.306790 Z-6.000000 I-171.022243 J-63.640278
G02 X264.599060 Y118.610214 Z-6.000000 I-69.468813 J-23.633400
G02 X265.792957 Y109.875344 Z-6.000000 I-62.460933 J-12.986296
G02 X265.356510 Y98.884950 Z-6.000000 I-51.679255 J-3.451592
G01 X234.118310 Y87.483220 Z-6.000000
G02 X229.824932 Y90.826713 Z-6.000000 I187.991831 J245.828497
G03 X224.147273 Y94.475947 Z-6.000000 I-21.173093 J-26.700740
G03 X217.895433 Y96.884813 Z-6.000000 I-14.633560 J-28.661876
G03 X205.779910 Y98.913230 Z-6.000000 I-16.415585 J-60.851990
G03 X192.449779 Y97.148065 Z-6.000000 I1.889217 J-65.482605
G03 X182.726456 Y93.976681 Z-6.000000 I14.715839 J-61.609447
G03 X173.405685 Y89.416909 Z-6.000000 I34.020661 J-81.349005
G02 X164.578520 Y84.497990 Z-6.000000 I-455.144289 J806.391918
G03 X160.397333 Y82.071649 Z-6.000000 I144.823414 J-254.382382
G02 X156.301120 Y79.717270 Z-6.000000 I-96.944171 J163.925606
G02 X152.122580 Y77.520551 Z-6.000000 I-45.579644 J81.627887
G02 X148.703520 Y76.088040 Z-6.000000 I-13.247629 J26.822407
G02 X139.013031 Y73.477114 Z-6.000000 I-29.078732 J88.637461
G02 X120.654620 Y69.770050 Z-6.000000 I-192.400778 J905.510665
G02 X102.259003 Y66.328218 Z-6.000000 I-421.898134 J2204.045316
G03 X91.820020 Y64.233830 Z-6.000000 I55.621332 J-304.293951
G03 X82.398717 Y60.570511 Z-6.000000 I13.066764 J-47.551525
G03 X75.957670 Y56.587159 Z-6.000000 I21.513973 J-41.987142
G03 X70.171942 Y51.476481 Z-6.000000 I25.641756 J-34.858995
G03 X67.724020 Y48.358840 Z-6.000000 I15.613810 J-14.779566
G03 X65.093065 Y44.231358 Z-6.000000 I208.276778 J-135.662800
G03 X62.085907 Y38.522346 Z-6.000000 I37.622222 J-23.463582
G03 X60.023156 Y32.500473 Z-6.000000 I35.620916 J-15.565930
G03 X58.664120 Y23.463190 Z-6.000000 I44.911810 J-11.374712
G01 X6.492020 Y4.418770 Z-6.000000
G01 X6.274320 Y425.369990 Z-6.000000
G00 Z5.000000

(End cutting path id: path4643-5-8-3-6-7)


(Start cutting path id: path4643-5-8-3-6-7)
(Change tool to Cylindrical cutter)

G00 Z5.000000
G00 X6.274320 Y425.369990

G01 Z-9.000000 F400.0(Penetrate)
G01 X123.516620 Y468.032050 Z-9.000000 F400.000000
G02 X134.994723 Y455.064317 Z-9.000000 I-85.037596 J-86.832819
G02 X145.164920 Y440.037285 Z-9.000000 I-123.753499 J-94.710632
G02 X153.591734 Y423.921077 Z-9.000000 I-142.290792 J-84.661960
G02 X159.855620 Y407.908970 Z-9.000000 I-145.147720 J-66.012590
G02 X165.936395 Y385.225874 Z-9.000000 I-180.752640 J-60.611899
G02 X169.385732 Y363.893454 Z-9.000000 I-264.923825 J-53.781833
G02 X171.371726 Y342.276043 Z-9.000000 I-375.323143 J-45.380899
G02 X172.612320 Y322.013780 Z-9.000000 I-5795.531750 J-365.011176
G03 X173.305527 Y309.263177 Z-9.000000 I150.106514 J1.766637
G03 X175.479107 Y294.896431 Z-9.000000 I135.741393 J13.188855
G03 X179.157010 Y280.867660 Z-9.000000 I134.191174 J27.684202
G03 X185.369120 Y264.655970 Z-9.000000 I146.210356 J46.729874
G03 X188.530301 Y257.623530 Z-9.000000 I32.569692 J10.413818
G03 X203.651011 Y232.778722 Z-9.000000 I1107.730869 J657.148481
G03 X218.663204 Y208.916636 Z-9.000000 I3373.841871 J2105.908946
G02 X231.293210 Y188.493670 Z-9.000000 I-901.483293 J-571.613684
G03 X239.205122 Y174.527737 Z-9.000000 I3046.085701 J1716.429554
G02 X246.767985 Y160.855660 Z-9.000000 I-544.709724 J-310.240070
G02 X253.877588 Y146.963880 Z-9.000000 I-347.675801 J-186.700403
G02 X260.491810 Y132.175270 Z-9.000000 I-222.792248 J-108.517491
G02 X262.225373 Y127.306790 Z-9.000000 I-171.022243 J-63.640278
G02 X264.599060 Y118.610214 Z-9.000000 I-69.468813 J-23.633400
G02 X265.792957 Y109.875344 Z-9.000000 I-62.460933 J-12.986296
G02 X265.356510 Y98.884950 Z-9.000000 I-51.679255 J-3.451592
G01 X234.118310 Y87.483220 Z-9.000000
G02 X229.824932 Y90.826713 Z-9.000000 I187.991831 J245.828497
G03 X224.147273 Y94.475947 Z-9.000000 I-21.173093 J-26.700740
G03 X217.895433 Y96.884813 Z-9.000000 I-14.633560 J-28.661876
G03 X205.779910 Y98.913230 Z-9.000000 I-16.415585 J-60.851990
G03 X192.449779 Y97.148065 Z-9.000000 I1.889217 J-65.482605
G03 X182.726456 Y93.976681 Z-9.000000 I14.715839 J-61.609447
G03 X173.405685 Y89.416909 Z-9.000000 I34.020661 J-81.349005
G02 X164.578520 Y84.497990 Z-9.000000 I-455.144289 J806.391918
G03 X160.397333 Y82.071649 Z-9.000000 I144.823414 J-254.382382
G02 X156.301120 Y79.717270 Z-9.000000 I-96.944171 J163.925606
G02 X152.122580 Y77.520551 Z-9.000000 I-45.579644 J81.627887
G02 X148.703520 Y76.088040 Z-9.000000 I-13.247629 J26.822407
G02 X139.013031 Y73.477114 Z-9.000000 I-29.078732 J88.637461
G02 X120.654620 Y69.770050 Z-9.000000 I-192.400778 J905.510665
G02 X102.259003 Y66.328218 Z-9.000000 I-421.898134 J2204.045316
G03 X91.820020 Y64.233830 Z-9.000000 I55.621332 J-304.293951
G03 X82.398717 Y60.570511 Z-9.000000 I13.066764 J-47.551525
G03 X75.957670 Y56.587159 Z-9.000000 I21.513973 J-41.987142
G03 X70.171942 Y51.476481 Z-9.000000 I25.641756 J-34.858995
G03 X67.724020 Y48.358840 Z-9.000000 I15.613810 J-14.779566
G03 X65.093065 Y44.231358 Z-9.000000 I208.276778 J-135.662800
G03 X62.085907 Y38.522346 Z-9.000000 I37.622222 J-23.463582
G03 X60.023156 Y32.500473 Z-9.000000 I35.620916 J-15.565930
G03 X58.664120 Y23.463190 Z-9.000000 I44.911810 J-11.374712
G01 X6.492020 Y4.418770 Z-9.000000
G01 X6.274320 Y425.369990 Z-9.000000
G00 Z5.000000

(End cutting path id: path4643-5-8-3-6-7)


(Start cutting path id: path4643-5-8-3-6-7)
(Change tool to Cylindrical cutter)

G00 Z5.000000
G00 X6.274320 Y425.369990

G01 Z-12.000000 F400.0(Penetrate)
G01 X123.516620 Y468.032050 Z-12.000000 F400.000000
G02 X134.994723 Y455.064317 Z-12.000000 I-85.037596 J-86.832819
G02 X145.164920 Y440.037285 Z-12.000000 I-123.753499 J-94.710632
G02 X153.591734 Y423.921077 Z-12.000000 I-142.290792 J-84.661960
G02 X159.855620 Y407.908970 Z-12.000000 I-145.147720 J-66.012590
G02 X165.936395 Y385.225874 Z-12.000000 I-180.752640 J-60.611899
G02 X169.385732 Y363.893454 Z-12.000000 I-264.923825 J-53.781833
G02 X171.371726 Y342.276043 Z-12.000000 I-375.323143 J-45.380899
G02 X172.612320 Y322.013780 Z-12.000000 I-5795.531750 J-365.011176
G03 X173.305527 Y309.263177 Z-12.000000 I150.106514 J1.766637
G03 X175.479107 Y294.896431 Z-12.000000 I135.741393 J13.188855
G03 X179.157010 Y280.867660 Z-12.000000 I134.191174 J27.684202
G03 X185.369120 Y264.655970 Z-12.000000 I146.210356 J46.729874
G03 X188.530301 Y257.623530 Z-12.000000 I32.569692 J10.413818
G03 X203.651011 Y232.778722 Z-12.000000 I1107.730869 J657.148481
G03 X218.663204 Y208.916636 Z-12.000000 I3373.841871 J2105.908946
G02 X231.293210 Y188.493670 Z-12.000000 I-901.483293 J-571.613684
G03 X239.205122 Y174.527737 Z-12.000000 I3046.085701 J1716.429554
G02 X246.767985 Y160.855660 Z-12.000000 I-544.709724 J-310.240070
G02 X253.877588 Y146.963880 Z-12.000000 I-347.675801 J-186.700403
G02 X260.491810 Y132.175270 Z-12.000000 I-222.792248 J-108.517491
G02 X262.225373 Y127.306790 Z-12.000000 I-171.022243 J-63.640278
G02 X264.599060 Y118.610214 Z-12.000000 I-69.468813 J-23.633400
G02 X265.792957 Y109.875344 Z-12.000000 I-62.460933 J-12.986296
G02 X265.356510 Y98.884950 Z-12.000000 I-51.679255 J-3.451592
G01 X234.118310 Y87.483220 Z-12.000000
G02 X229.824932 Y90.826713 Z-12.000000 I187.991831 J245.828497
G03 X224.147273 Y94.475947 Z-12.000000 I-21.173093 J-26.700740
G03 X217.895433 Y96.884813 Z-12.000000 I-14.633560 J-28.661876
G03 X205.779910 Y98.913230 Z-12.000000 I-16.415585 J-60.851990
G03 X192.449779 Y97.148065 Z-12.000000 I1.889217 J-65.482605
G03 X182.726456 Y93.976681 Z-12.000000 I14.715839 J-61.609447
G03 X173.405685 Y89.416909 Z-12.000000 I34.020661 J-81.349005
G02 X164.578520 Y84.497990 Z-12.000000 I-455.144289 J806.391918
G03 X160.397333 Y82.071649 Z-12.000000 I144.823414 J-254.382382
G02 X156.301120 Y79.717270 Z-12.000000 I-96.944171 J163.925606
G02 X152.122580 Y77.520551 Z-12.000000 I-45.579644 J81.627887
G02 X148.703520 Y76.088040 Z-12.000000 I-13.247629 J26.822407
G02 X139.013031 Y73.477114 Z-12.000000 I-29.078732 J88.637461
G02 X120.654620 Y69.770050 Z-12.000000 I-192.400778 J905.510665
G02 X102.259003 Y66.328218 Z-12.000000 I-421.898134 J2204.045316
G03 X91.820020 Y64.233830 Z-12.000000 I55.621332 J-304.293951
G03 X82.398717 Y60.570511 Z-12.000000 I13.066764 J-47.551525
G03 X75.957670 Y56.587159 Z-12.000000 I21.513973 J-41.987142
G03 X70.171942 Y51.476481 Z-12.000000 I25.641756 J-34.858995
G03 X67.724020 Y48.358840 Z-12.000000 I15.613810 J-14.779566
G03 X65.093065 Y44.231358 Z-12.000000 I208.276778 J-135.662800
G03 X62.085907 Y38.522346 Z-12.000000 I37.622222 J-23.463582
G03 X60.023156 Y32.500473 Z-12.000000 I35.620916 J-15.565930
G03 X58.664120 Y23.463190 Z-12.000000 I44.911810 J-11.374712
G01 X6.492020 Y4.418770 Z-12.000000
G01 X6.274320 Y425.369990 Z-12.000000
G00 Z5.000000

(End cutting path id: path4643-5-8-3-6-7)


(Start cutting path id: path4643-5-8-3-6-7)
(Change tool to Cylindrical cutter)

G00 Z5.000000
G00 X6.274320 Y425.369990

G01 Z-15.000000 F400.0(Penetrate)
G01 X123.516620 Y468.032050 Z-15.000000 F400.000000
G02 X134.994723 Y455.064317 Z-15.000000 I-85.037596 J-86.832819
G02 X145.164920 Y440.037285 Z-15.000000 I-123.753499 J-94.710632
G02 X153.591734 Y423.921077 Z-15.000000 I-142.290792 J-84.661960
G02 X159.855620 Y407.908970 Z-15.000000 I-145.147720 J-66.012590
G02 X165.936395 Y385.225874 Z-15.000000 I-180.752640 J-60.611899
G02 X169.385732 Y363.893454 Z-15.000000 I-264.923825 J-53.781833
G02 X171.371726 Y342.276043 Z-15.000000 I-375.323143 J-45.380899
G02 X172.612320 Y322.013780 Z-15.000000 I-5795.531750 J-365.011176
G03 X173.305527 Y309.263177 Z-15.000000 I150.106514 J1.766637
G03 X175.479107 Y294.896431 Z-15.000000 I135.741393 J13.188855
G03 X179.157010 Y280.867660 Z-15.000000 I134.191174 J27.684202
G03 X185.369120 Y264.655970 Z-15.000000 I146.210356 J46.729874
G03 X188.530301 Y257.623530 Z-15.000000 I32.569692 J10.413818
G03 X203.651011 Y232.778722 Z-15.000000 I1107.730869 J657.148481
G03 X218.663204 Y208.916636 Z-15.000000 I3373.841871 J2105.908946
G02 X231.293210 Y188.493670 Z-15.000000 I-901.483293 J-571.613684
G03 X239.205122 Y174.527737 Z-15.000000 I3046.085701 J1716.429554
G02 X246.767985 Y160.855660 Z-15.000000 I-544.709724 J-310.240070
G02 X253.877588 Y146.963880 Z-15.000000 I-347.675801 J-186.700403
G02 X260.491810 Y132.175270 Z-15.000000 I-222.792248 J-108.517491
G02 X262.225373 Y127.306790 Z-15.000000 I-171.022243 J-63.640278
G02 X264.599060 Y118.610214 Z-15.000000 I-69.468813 J-23.633400
G02 X265.792957 Y109.875344 Z-15.000000 I-62.460933 J-12.986296
G02 X265.356510 Y98.884950 Z-15.000000 I-51.679255 J-3.451592
G01 X234.118310 Y87.483220 Z-15.000000
G02 X229.824932 Y90.826713 Z-15.000000 I187.991831 J245.828497
G03 X224.147273 Y94.475947 Z-15.000000 I-21.173093 J-26.700740
G03 X217.895433 Y96.884813 Z-15.000000 I-14.633560 J-28.661876
G03 X205.779910 Y98.913230 Z-15.000000 I-16.415585 J-60.851990
G03 X192.449779 Y97.148065 Z-15.000000 I1.889217 J-65.482605
G03 X182.726456 Y93.976681 Z-15.000000 I14.715839 J-61.609447
G03 X173.405685 Y89.416909 Z-15.000000 I34.020661 J-81.349005
G02 X164.578520 Y84.497990 Z-15.000000 I-455.144289 J806.391918
G03 X160.397333 Y82.071649 Z-15.000000 I144.823414 J-254.382382
G02 X156.301120 Y79.717270 Z-15.000000 I-96.944171 J163.925606
G02 X152.122580 Y77.520551 Z-15.000000 I-45.579644 J81.627887
G02 X148.703520 Y76.088040 Z-15.000000 I-13.247629 J26.822407
G02 X139.013031 Y73.477114 Z-15.000000 I-29.078732 J88.637461
G02 X120.654620 Y69.770050 Z-15.000000 I-192.400778 J905.510665
G02 X102.259003 Y66.328218 Z-15.000000 I-421.898134 J2204.045316
G03 X91.820020 Y64.233830 Z-15.000000 I55.621332 J-304.293951
G03 X82.398717 Y60.570511 Z-15.000000 I13.066764 J-47.551525
G03 X75.957670 Y56.587159 Z-15.000000 I21.513973 J-41.987142
G03 X70.171942 Y51.476481 Z-15.000000 I25.641756 J-34.858995
G03 X67.724020 Y48.358840 Z-15.000000 I15.613810 J-14.779566
G03 X65.093065 Y44.231358 Z-15.000000 I208.276778 J-135.662800
G03 X62.085907 Y38.522346 Z-15.000000 I37.622222 J-23.463582
G03 X60.023156 Y32.500473 Z-15.000000 I35.620916 J-15.565930
G03 X58.664120 Y23.463190 Z-15.000000 I44.911810 J-11.374712
G01 X6.492020 Y4.418770 Z-15.000000
G01 X6.274320 Y425.369990 Z-15.000000
G00 Z5.000000

(End cutting path id: path4643-5-8-3-6-7)


(Start cutting path id: path4643-5-8-3-6-7)
(Change tool to Cylindrical cutter)

G00 Z5.000000
G00 X6.274320 Y425.369990

G01 Z-18.000000 F400.0(Penetrate)
G01 X123.516620 Y468.032050 Z-18.000000 F400.000000
G02 X134.994723 Y455.064317 Z-18.000000 I-85.037596 J-86.832819
G02 X145.164920 Y440.037285 Z-18.000000 I-123.753499 J-94.710632
G02 X153.591734 Y423.921077 Z-18.000000 I-142.290792 J-84.661960
G02 X159.855620 Y407.908970 Z-18.000000 I-145.147720 J-66.012590
G02 X165.936395 Y385.225874 Z-18.000000 I-180.752640 J-60.611899
G02 X169.385732 Y363.893454 Z-18.000000 I-264.923825 J-53.781833
G02 X171.371726 Y342.276043 Z-18.000000 I-375.323143 J-45.380899
G02 X172.612320 Y322.013780 Z-18.000000 I-5795.531750 J-365.011176
G03 X173.305527 Y309.263177 Z-18.000000 I150.106514 J1.766637
G03 X175.479107 Y294.896431 Z-18.000000 I135.741393 J13.188855
G03 X179.157010 Y280.867660 Z-18.000000 I134.191174 J27.684202
G03 X185.369120 Y264.655970 Z-18.000000 I146.210356 J46.729874
G03 X188.530301 Y257.623530 Z-18.000000 I32.569692 J10.413818
G03 X203.651011 Y232.778722 Z-18.000000 I1107.730869 J657.148481
G03 X218.663204 Y208.916636 Z-18.000000 I3373.841871 J2105.908946
G02 X231.293210 Y188.493670 Z-18.000000 I-901.483293 J-571.613684
G03 X239.205122 Y174.527737 Z-18.000000 I3046.085701 J1716.429554
G02 X246.767985 Y160.855660 Z-18.000000 I-544.709724 J-310.240070
G02 X253.877588 Y146.963880 Z-18.000000 I-347.675801 J-186.700403
G02 X260.491810 Y132.175270 Z-18.000000 I-222.792248 J-108.517491
G02 X262.225373 Y127.306790 Z-18.000000 I-171.022243 J-63.640278
G02 X264.599060 Y118.610214 Z-18.000000 I-69.468813 J-23.633400
G02 X265.792957 Y109.875344 Z-18.000000 I-62.460933 J-12.986296
G02 X265.356510 Y98.884950 Z-18.000000 I-51.679255 J-3.451592
G01 X234.118310 Y87.483220 Z-18.000000
G02 X229.824932 Y90.826713 Z-18.000000 I187.991831 J245.828497
G03 X224.147273 Y94.475947 Z-18.000000 I-21.173093 J-26.700740
G03 X217.895433 Y96.884813 Z-18.000000 I-14.633560 J-28.661876
G03 X205.779910 Y98.913230 Z-18.000000 I-16.415585 J-60.851990
G03 X192.449779 Y97.148065 Z-18.000000 I1.889217 J-65.482605
G03 X182.726456 Y93.976681 Z-18.000000 I14.715839 J-61.609447
G03 X173.405685 Y89.416909 Z-18.000000 I34.020661 J-81.349005
G02 X164.578520 Y84.497990 Z-18.000000 I-455.144289 J806.391918
G03 X160.397333 Y82.071649 Z-18.000000 I144.823414 J-254.382382
G02 X156.301120 Y79.717270 Z-18.000000 I-96.944171 J163.925606
G02 X152.122580 Y77.520551 Z-18.000000 I-45.579644 J81.627887
G02 X148.703520 Y76.088040 Z-18.000000 I-13.247629 J26.822407
G02 X139.013031 Y73.477114 Z-18.000000 I-29.078732 J88.637461
G02 X120.654620 Y69.770050 Z-18.000000 I-192.400778 J905.510665
G02 X102.259003 Y66.328218 Z-18.000000 I-421.898134 J2204.045316
G03 X91.820020 Y64.233830 Z-18.000000 I55.621332 J-304.293951
G03 X82.398717 Y60.570511 Z-18.000000 I13.066764 J-47.551525
G03 X75.957670 Y56.587159 Z-18.000000 I21.513973 J-41.987142
G03 X70.171942 Y51.476481 Z-18.000000 I25.641756 J-34.858995
G03 X67.724020 Y48.358840 Z-18.000000 I15.613810 J-14.779566
G03 X65.093065 Y44.231358 Z-18.000000 I208.276778 J-135.662800
G03 X62.085907 Y38.522346 Z-18.000000 I37.622222 J-23.463582
G03 X60.023156 Y32.500473 Z-18.000000 I35.620916 J-15.565930
G03 X58.664120 Y23.463190 Z-18.000000 I44.911810 J-11.374712
G01 X6.492020 Y4.418770 Z-18.000000
G01 X6.274320 Y425.369990 Z-18.000000
G00 Z5.000000

(End cutting path id: path4643-5-8-3-6-7)


(Start cutting path id: path4643-5-8-3-6-7)
(Change tool to Cylindrical cutter)

G00 Z5.000000
G00 X6.274320 Y425.369990

G01 Z-19.500000 F400.0(Penetrate)
G01 X123.516620 Y468.032050 Z-19.500000 F400.000000
G02 X134.994723 Y455.064317 Z-19.500000 I-85.037596 J-86.832819
G02 X145.164920 Y440.037285 Z-19.500000 I-123.753499 J-94.710632
G02 X153.591734 Y423.921077 Z-19.500000 I-142.290792 J-84.661960
G02 X159.855620 Y407.908970 Z-19.500000 I-145.147720 J-66.012590
G02 X165.936395 Y385.225874 Z-19.500000 I-180.752640 J-60.611899
G02 X169.385732 Y363.893454 Z-19.500000 I-264.923825 J-53.781833
G02 X171.371726 Y342.276043 Z-19.500000 I-375.323143 J-45.380899
G02 X172.612320 Y322.013780 Z-19.500000 I-5795.531750 J-365.011176
G03 X173.305527 Y309.263177 Z-19.500000 I150.106514 J1.766637
G03 X175.479107 Y294.896431 Z-19.500000 I135.741393 J13.188855
G03 X179.157010 Y280.867660 Z-19.500000 I134.191174 J27.684202
G03 X185.369120 Y264.655970 Z-19.500000 I146.210356 J46.729874
G03 X188.530301 Y257.623530 Z-19.500000 I32.569692 J10.413818
G03 X203.651011 Y232.778722 Z-19.500000 I1107.730869 J657.148481
G03 X218.663204 Y208.916636 Z-19.500000 I3373.841871 J2105.908946
G02 X231.293210 Y188.493670 Z-19.500000 I-901.483293 J-571.613684
G03 X239.205122 Y174.527737 Z-19.500000 I3046.085701 J1716.429554
G02 X246.767985 Y160.855660 Z-19.500000 I-544.709724 J-310.240070
G02 X253.877588 Y146.963880 Z-19.500000 I-347.675801 J-186.700403
G02 X260.491810 Y132.175270 Z-19.500000 I-222.792248 J-108.517491
G02 X262.225373 Y127.306790 Z-19.500000 I-171.022243 J-63.640278
G02 X264.599060 Y118.610214 Z-19.500000 I-69.468813 J-23.633400
G02 X265.792957 Y109.875344 Z-19.500000 I-62.460933 J-12.986296
G02 X265.356510 Y98.884950 Z-19.500000 I-51.679255 J-3.451592
G01 X234.118310 Y87.483220 Z-19.500000
G02 X229.824932 Y90.826713 Z-19.500000 I187.991831 J245.828497
G03 X224.147273 Y94.475947 Z-19.500000 I-21.173093 J-26.700740
G03 X217.895433 Y96.884813 Z-19.500000 I-14.633560 J-28.661876
G03 X205.779910 Y98.913230 Z-19.500000 I-16.415585 J-60.851990
G03 X192.449779 Y97.148065 Z-19.500000 I1.889217 J-65.482605
G03 X182.726456 Y93.976681 Z-19.500000 I14.715839 J-61.609447
G03 X173.405685 Y89.416909 Z-19.500000 I34.020661 J-81.349005
G02 X164.578520 Y84.497990 Z-19.500000 I-455.144289 J806.391918
G03 X160.397333 Y82.071649 Z-19.500000 I144.823414 J-254.382382
G02 X156.301120 Y79.717270 Z-19.500000 I-96.944171 J163.925606
G02 X152.122580 Y77.520551 Z-19.500000 I-45.579644 J81.627887
G02 X148.703520 Y76.088040 Z-19.500000 I-13.247629 J26.822407
G02 X139.013031 Y73.477114 Z-19.500000 I-29.078732 J88.637461
G02 X120.654620 Y69.770050 Z-19.500000 I-192.400778 J905.510665
G02 X102.259003 Y66.328218 Z-19.500000 I-421.898134 J2204.045316
G03 X91.820020 Y64.233830 Z-19.500000 I55.621332 J-304.293951
G03 X82.398717 Y60.570511 Z-19.500000 I13.066764 J-47.551525
G03 X75.957670 Y56.587159 Z-19.500000 I21.513973 J-41.987142
G03 X70.171942 Y51.476481 Z-19.500000 I25.641756 J-34.858995
G03 X67.724020 Y48.358840 Z-19.500000 I15.613810 J-14.779566
G03 X65.093065 Y44.231358 Z-19.500000 I208.276778 J-135.662800
G03 X62.085907 Y38.522346 Z-19.500000 I37.622222 J-23.463582
G03 X60.023156 Y32.500473 Z-19.500000 I35.620916 J-15.565930
G03 X58.664120 Y23.463190 Z-19.500000 I44.911810 J-11.374712
G01 X6.492020 Y4.418770 Z-19.500000
G01 X6.274320 Y425.369990 Z-19.500000
G00 Z5.000000

(End cutting path id: path4643-5-8-3-6-7)


(Start cutting path id: path4645-8-4-5-6-5)
(Change tool to Cylindrical cutter)

G00 Z5.000000
G00 X68.654620 Y285.984540

G01 Z-3.000000 F400.0(Penetrate)
G02 X63.966220 Y285.786949 Z-3.000000 I-2.873197 J12.453150 F400.000000
G02 X61.942220 Y286.684637 Z-3.000000 I0.579170 J4.036423
G02 X60.522629 Y288.641980 Z-3.000000 I3.108324 J3.747817
G02 X59.701020 Y291.329990 Z-3.000000 I16.369819 J6.473122
G01 X60.101920 Y390.754130 Z-3.000000
G02 X59.868653 Y392.962677 Z-3.000000 I4.610869 J1.603592
G02 X60.536882 Y395.262607 Z-3.000000 I7.527743 J-0.940095
G02 X61.897599 Y397.284001 Z-3.000000 I7.313537 J-3.454479
G02 X63.576520 Y398.505040 Z-3.000000 I3.877640 J-3.566958
G03 X64.681481 Y398.829571 Z-3.000000 I-1.865600 J8.395339
G03 X76.263082 Y403.109456 Z-3.000000 I-1637.398549 J4448.699007
G03 X87.517258 Y407.292737 Z-3.000000 I-3460.840297 J9327.841169
G02 X90.570620 Y408.393950 Z-3.000000 I54.723769 J-146.950406
G02 X93.072726 Y408.639974 Z-3.000000 I2.235767 J-9.891693
G02 X95.922032 Y408.264901 Z-3.000000 I-0.361385 J-13.755485
G02 X98.584050 Y407.286618 Z-3.000000 I-2.842317 J-11.845227
G02 X100.459620 Y405.854960 Z-3.000000 I-2.927489 J-5.779602
G03 X104.459563 Y398.882303 Z-3.000000 I307.346936 J171.679373
G02 X108.523745 Y391.450544 Z-3.000000 I-114.742773 J-67.576175
G02 X111.962719 Y383.761769 Z-3.000000 I-78.241502 J-39.608703
G02 X115.025920 Y373.916250 Z-3.000000 I-67.775858 J-26.486140
G02 X115.776247 Y373.183292 Z-3.000000 I-0.091391 J-0.844089
G02 X117.805607 Y355.449392 Z-3.000000 I-510.546001 J-67.406869
G02 X119.245502 Y338.045916 Z-3.000000 I-618.187457 J-59.907692
G02 X119.302120 Y332.623070 Z-3.000000 I-46.628479 J-3.198547
G02 X119.293809 Y328.709475 Z-3.000000 I-918.575328 J-0.006196
G02 X119.268757 Y324.421237 Z-3.000000 I-1350.075508 J5.742961
G02 X119.186045 Y316.822059 Z-3.000000 I-1100.113707 J8.174103
G02 X119.034920 Y311.508820 Z-3.000000 I-188.510686 J2.703044
G02 X118.786215 Y308.851306 Z-3.000000 I-21.959229 J0.714672
G02 X118.127745 Y306.611290 Z-3.000000 I-8.777064 J1.363297
G02 X116.904677 Y304.687266 Z-3.000000 I-7.040746 J3.124927
G02 X114.491320 Y302.555230 Z-3.000000 I-9.208825 J7.992004
G02 X110.039361 Y300.672618 Z-3.000000 I-20.278870 J41.749774
G02 X89.819057 Y293.417962 Z-3.000000 I-1047.313616 J2887.284308
G02 X79.092815 Y289.630991 Z-3.000000 I-1201.290785 J3385.459633
G02 X68.654620 Y285.984530 Z-3.000000 I-1061.020598 J3020.466682
G01 X68.654620 Y285.984540 Z-3.000000
G00 Z5.000000

(End cutting path id: path4645-8-4-5-6-5)


(Start cutting path id: path4645-8-4-5-6-5)
(Change tool to Cylindrical cutter)

G00 Z5.000000
G00 X68.654620 Y285.984540

G01 Z-6.000000 F400.0(Penetrate)
G02 X63.966220 Y285.786949 Z-6.000000 I-2.873197 J12.453150 F400.000000
G02 X61.942220 Y286.684637 Z-6.000000 I0.579170 J4.036423
G02 X60.522629 Y288.641980 Z-6.000000 I3.108324 J3.747817
G02 X59.701020 Y291.329990 Z-6.000000 I16.369819 J6.473122
G01 X60.101920 Y390.754130 Z-6.000000
G02 X59.868653 Y392.962677 Z-6.000000 I4.610869 J1.603592
G02 X60.536882 Y395.262607 Z-6.000000 I7.527743 J-0.940095
G02 X61.897599 Y397.284001 Z-6.000000 I7.313537 J-3.454479
G02 X63.576520 Y398.505040 Z-6.000000 I3.877640 J-3.566958
G03 X64.681481 Y398.829571 Z-6.000000 I-1.865600 J8.395339
G03 X76.263082 Y403.109456 Z-6.000000 I-1637.398549 J4448.699007
G03 X87.517258 Y407.292737 Z-6.000000 I-3460.840297 J9327.841169
G02 X90.570620 Y408.393950 Z-6.000000 I54.723769 J-146.950406
G02 X93.072726 Y408.639974 Z-6.000000 I2.235767 J-9.891693
G02 X95.922032 Y408.264901 Z-6.000000 I-0.361385 J-13.755485
G02 X98.584050 Y407.286618 Z-6.000000 I-2.842317 J-11.845227
G02 X100.459620 Y405.854960 Z-6.000000 I-2.927489 J-5.779602
G03 X104.459563 Y398.882303 Z-6.000000 I307.346936 J171.679373
G02 X108.523745 Y391.450544 Z-6.000000 I-114.742773 J-67.576175
G02 X111.962719 Y383.761769 Z-6.000000 I-78.241502 J-39.608703
G02 X115.025920 Y373.916250 Z-6.000000 I-67.775858 J-26.486140
G02 X115.776247 Y373.183292 Z-6.000000 I-0.091391 J-0.844089
G02 X117.805607 Y355.449392 Z-6.000000 I-510.546001 J-67.406869
G02 X119.245502 Y338.045916 Z-6.000000 I-618.187457 J-59.907692
G02 X119.302120 Y332.623070 Z-6.000000 I-46.628479 J-3.198547
G02 X119.293809 Y328.709475 Z-6.000000 I-918.575328 J-0.006196
G02 X119.268757 Y324.421237 Z-6.000000 I-1350.075508 J5.742961
G02 X119.186045 Y316.822059 Z-6.000000 I-1100.113707 J8.174103
G02 X119.034920 Y311.508820 Z-6.000000 I-188.510686 J2.703044
G02 X118.786215 Y308.851306 Z-6.000000 I-21.959229 J0.714672
G02 X118.127745 Y306.611290 Z-6.000000 I-8.777064 J1.363297
G02 X116.904677 Y304.687266 Z-6.000000 I-7.040746 J3.124927
G02 X114.491320 Y302.555230 Z-6.000000 I-9.208825 J7.992004
G02 X110.039361 Y300.672618 Z-6.000000 I-20.278870 J41.749774
G02 X89.819057 Y293.417962 Z-6.000000 I-1047.313616 J2887.284308
G02 X79.092815 Y289.630991 Z-6.000000 I-1201.290785 J3385.459633
G02 X68.654620 Y285.984530 Z-6.000000 I-1061.020598 J3020.466682
G01 X68.654620 Y285.984540 Z-6.000000
G00 Z5.000000

(End cutting path id: path4645-8-4-5-6-5)


(Start cutting path id: path4645-8-4-5-6-5)
(Change tool to Cylindrical cutter)

G00 Z5.000000
G00 X68.654620 Y285.984540

G01 Z-9.000000 F400.0(Penetrate)
G02 X63.966220 Y285.786949 Z-9.000000 I-2.873197 J12.453150 F400.000000
G02 X61.942220 Y286.684637 Z-9.000000 I0.579170 J4.036423
G02 X60.522629 Y288.641980 Z-9.000000 I3.108324 J3.747817
G02 X59.701020 Y291.329990 Z-9.000000 I16.369819 J6.473122
G01 X60.101920 Y390.754130 Z-9.000000
G02 X59.868653 Y392.962677 Z-9.000000 I4.610869 J1.603592
G02 X60.536882 Y395.262607 Z-9.000000 I7.527743 J-0.940095
G02 X61.897599 Y397.284001 Z-9.000000 I7.313537 J-3.454479
G02 X63.576520 Y398.505040 Z-9.000000 I3.877640 J-3.566958
G03 X64.681481 Y398.829571 Z-9.000000 I-1.865600 J8.395339
G03 X76.263082 Y403.109456 Z-9.000000 I-1637.398549 J4448.699007
G03 X87.517258 Y407.292737 Z-9.000000 I-3460.840297 J9327.841169
G02 X90.570620 Y408.393950 Z-9.000000 I54.723769 J-146.950406
G02 X93.072726 Y408.639974 Z-9.000000 I2.235767 J-9.891693
G02 X95.922032 Y408.264901 Z-9.000000 I-0.361385 J-13.755485
G02 X98.584050 Y407.286618 Z-9.000000 I-2.842317 J-11.845227
G02 X100.459620 Y405.854960 Z-9.000000 I-2.927489 J-5.779602
G03 X104.459563 Y398.882303 Z-9.000000 I307.346936 J171.679373
G02 X108.523745 Y391.450544 Z-9.000000 I-114.742773 J-67.576175
G02 X111.962719 Y383.761769 Z-9.000000 I-78.241502 J-39.608703
G02 X115.025920 Y373.916250 Z-9.000000 I-67.775858 J-26.486140
G02 X115.776247 Y373.183292 Z-9.000000 I-0.091391 J-0.844089
G02 X117.805607 Y355.449392 Z-9.000000 I-510.546001 J-67.406869
G02 X119.245502 Y338.045916 Z-9.000000 I-618.187457 J-59.907692
G02 X119.302120 Y332.623070 Z-9.000000 I-46.628479 J-3.198547
G02 X119.293809 Y328.709475 Z-9.000000 I-918.575328 J-0.006196
G02 X119.268757 Y324.421237 Z-9.000000 I-1350.075508 J5.742961
G02 X119.186045 Y316.822059 Z-9.000000 I-1100.113707 J8.174103
G02 X119.034920 Y311.508820 Z-9.000000 I-188.510686 J2.703044
G02 X118.786215 Y308.851306 Z-9.000000 I-21.959229 J0.714672
G02 X118.127745 Y306.611290 Z-9.000000 I-8.777064 J1.363297
G02 X116.904677 Y304.687266 Z-9.000000 I-7.040746 J3.124927
G02 X114.491320 Y302.555230 Z-9.000000 I-9.208825 J7.992004
G02 X110.039361 Y300.672618 Z-9.000000 I-20.278870 J41.749774
G02 X89.819057 Y293.417962 Z-9.000000 I-1047.313616 J2887.284308
G02 X79.092815 Y289.630991 Z-9.000000 I-1201.290785 J3385.459633
G02 X68.654620 Y285.984530 Z-9.000000 I-1061.020598 J3020.466682
G01 X68.654620 Y285.984540 Z-9.000000
G00 Z5.000000

(End cutting path id: path4645-8-4-5-6-5)


(Start cutting path id: path4645-8-4-5-6-5)
(Change tool to Cylindrical cutter)

G00 Z5.000000
G00 X68.654620 Y285.984540

G01 Z-12.000000 F400.0(Penetrate)
G02 X63.966220 Y285.786949 Z-12.000000 I-2.873197 J12.453150 F400.000000
G02 X61.942220 Y286.684637 Z-12.000000 I0.579170 J4.036423
G02 X60.522629 Y288.641980 Z-12.000000 I3.108324 J3.747817
G02 X59.701020 Y291.329990 Z-12.000000 I16.369819 J6.473122
G01 X60.101920 Y390.754130 Z-12.000000
G02 X59.868653 Y392.962677 Z-12.000000 I4.610869 J1.603592
G02 X60.536882 Y395.262607 Z-12.000000 I7.527743 J-0.940095
G02 X61.897599 Y397.284001 Z-12.000000 I7.313537 J-3.454479
G02 X63.576520 Y398.505040 Z-12.000000 I3.877640 J-3.566958
G03 X64.681481 Y398.829571 Z-12.000000 I-1.865600 J8.395339
G03 X76.263082 Y403.109456 Z-12.000000 I-1637.398549 J4448.699007
G03 X87.517258 Y407.292737 Z-12.000000 I-3460.840297 J9327.841169
G02 X90.570620 Y408.393950 Z-12.000000 I54.723769 J-146.950406
G02 X93.072726 Y408.639974 Z-12.000000 I2.235767 J-9.891693
G02 X95.922032 Y408.264901 Z-12.000000 I-0.361385 J-13.755485
G02 X98.584050 Y407.286618 Z-12.000000 I-2.842317 J-11.845227
G02 X100.459620 Y405.854960 Z-12.000000 I-2.927489 J-5.779602
G03 X104.459563 Y398.882303 Z-12.000000 I307.346936 J171.679373
G02 X108.523745 Y391.450544 Z-12.000000 I-114.742773 J-67.576175
G02 X111.962719 Y383.761769 Z-12.000000 I-78.241502 J-39.608703
G02 X115.025920 Y373.916250 Z-12.000000 I-67.775858 J-26.486140
G02 X115.776247 Y373.183292 Z-12.000000 I-0.091391 J-0.844089
G02 X117.805607 Y355.449392 Z-12.000000 I-510.546001 J-67.406869
G02 X119.245502 Y338.045916 Z-12.000000 I-618.187457 J-59.907692
G02 X119.302120 Y332.623070 Z-12.000000 I-46.628479 J-3.198547
G02 X119.293809 Y328.709475 Z-12.000000 I-918.575328 J-0.006196
G02 X119.268757 Y324.421237 Z-12.000000 I-1350.075508 J5.742961
G02 X119.186045 Y316.822059 Z-12.000000 I-1100.113707 J8.174103
G02 X119.034920 Y311.508820 Z-12.000000 I-188.510686 J2.703044
G02 X118.786215 Y308.851306 Z-12.000000 I-21.959229 J0.714672
G02 X118.127745 Y306.611290 Z-12.000000 I-8.777064 J1.363297
G02 X116.904677 Y304.687266 Z-12.000000 I-7.040746 J3.124927
G02 X114.491320 Y302.555230 Z-12.000000 I-9.208825 J7.992004
G02 X110.039361 Y300.672618 Z-12.000000 I-20.278870 J41.749774
G02 X89.819057 Y293.417962 Z-12.000000 I-1047.313616 J2887.284308
G02 X79.092815 Y289.630991 Z-12.000000 I-1201.290785 J3385.459633
G02 X68.654620 Y285.984530 Z-12.000000 I-1061.020598 J3020.466682
G01 X68.654620 Y285.984540 Z-12.000000
G00 Z5.000000

(End cutting path id: path4645-8-4-5-6-5)


(Start cutting path id: path4645-8-4-5-6-5)
(Change tool to Cylindrical cutter)

G00 Z5.000000
G00 X68.654620 Y285.984540

G01 Z-15.000000 F400.0(Penetrate)
G02 X63.966220 Y285.786949 Z-15.000000 I-2.873197 J12.453150 F400.000000
G02 X61.942220 Y286.684637 Z-15.000000 I0.579170 J4.036423
G02 X60.522629 Y288.641980 Z-15.000000 I3.108324 J3.747817
G02 X59.701020 Y291.329990 Z-15.000000 I16.369819 J6.473122
G01 X60.101920 Y390.754130 Z-15.000000
G02 X59.868653 Y392.962677 Z-15.000000 I4.610869 J1.603592
G02 X60.536882 Y395.262607 Z-15.000000 I7.527743 J-0.940095
G02 X61.897599 Y397.284001 Z-15.000000 I7.313537 J-3.454479
G02 X63.576520 Y398.505040 Z-15.000000 I3.877640 J-3.566958
G03 X64.681481 Y398.829571 Z-15.000000 I-1.865600 J8.395339
G03 X76.263082 Y403.109456 Z-15.000000 I-1637.398549 J4448.699007
G03 X87.517258 Y407.292737 Z-15.000000 I-3460.840297 J9327.841169
G02 X90.570620 Y408.393950 Z-15.000000 I54.723769 J-146.950406
G02 X93.072726 Y408.639974 Z-15.000000 I2.235767 J-9.891693
G02 X95.922032 Y408.264901 Z-15.000000 I-0.361385 J-13.755485
G02 X98.584050 Y407.286618 Z-15.000000 I-2.842317 J-11.845227
G02 X100.459620 Y405.854960 Z-15.000000 I-2.927489 J-5.779602
G03 X104.459563 Y398.882303 Z-15.000000 I307.346936 J171.679373
G02 X108.523745 Y391.450544 Z-15.000000 I-114.742773 J-67.576175
G02 X111.962719 Y383.761769 Z-15.000000 I-78.241502 J-39.608703
G02 X115.025920 Y373.916250 Z-15.000000 I-67.775858 J-26.486140
G02 X115.776247 Y373.183292 Z-15.000000 I-0.091391 J-0.844089
G02 X117.805607 Y355.449392 Z-15.000000 I-510.546001 J-67.406869
G02 X119.245502 Y338.045916 Z-15.000000 I-618.187457 J-59.907692
G02 X119.302120 Y332.623070 Z-15.000000 I-46.628479 J-3.198547
G02 X119.293809 Y328.709475 Z-15.000000 I-918.575328 J-0.006196
G02 X119.268757 Y324.421237 Z-15.000000 I-1350.075508 J5.742961
G02 X119.186045 Y316.822059 Z-15.000000 I-1100.113707 J8.174103
G02 X119.034920 Y311.508820 Z-15.000000 I-188.510686 J2.703044
G02 X118.786215 Y308.851306 Z-15.000000 I-21.959229 J0.714672
G02 X118.127745 Y306.611290 Z-15.000000 I-8.777064 J1.363297
G02 X116.904677 Y304.687266 Z-15.000000 I-7.040746 J3.124927
G02 X114.491320 Y302.555230 Z-15.000000 I-9.208825 J7.992004
G02 X110.039361 Y300.672618 Z-15.000000 I-20.278870 J41.749774
G02 X89.819057 Y293.417962 Z-15.000000 I-1047.313616 J2887.284308
G02 X79.092815 Y289.630991 Z-15.000000 I-1201.290785 J3385.459633
G02 X68.654620 Y285.984530 Z-15.000000 I-1061.020598 J3020.466682
G01 X68.654620 Y285.984540 Z-15.000000
G00 Z5.000000

(End cutting path id: path4645-8-4-5-6-5)


(Start cutting path id: path4645-8-4-5-6-5)
(Change tool to Cylindrical cutter)

G00 Z5.000000
G00 X68.654620 Y285.984540

G01 Z-18.000000 F400.0(Penetrate)
G02 X63.966220 Y285.786949 Z-18.000000 I-2.873197 J12.453150 F400.000000
G02 X61.942220 Y286.684637 Z-18.000000 I0.579170 J4.036423
G02 X60.522629 Y288.641980 Z-18.000000 I3.108324 J3.747817
G02 X59.701020 Y291.329990 Z-18.000000 I16.369819 J6.473122
G01 X60.101920 Y390.754130 Z-18.000000
G02 X59.868653 Y392.962677 Z-18.000000 I4.610869 J1.603592
G02 X60.536882 Y395.262607 Z-18.000000 I7.527743 J-0.940095
G02 X61.897599 Y397.284001 Z-18.000000 I7.313537 J-3.454479
G02 X63.576520 Y398.505040 Z-18.000000 I3.877640 J-3.566958
G03 X64.681481 Y398.829571 Z-18.000000 I-1.865600 J8.395339
G03 X76.263082 Y403.109456 Z-18.000000 I-1637.398549 J4448.699007
G03 X87.517258 Y407.292737 Z-18.000000 I-3460.840297 J9327.841169
G02 X90.570620 Y408.393950 Z-18.000000 I54.723769 J-146.950406
G02 X93.072726 Y408.639974 Z-18.000000 I2.235767 J-9.891693
G02 X95.922032 Y408.264901 Z-18.000000 I-0.361385 J-13.755485
G02 X98.584050 Y407.286618 Z-18.000000 I-2.842317 J-11.845227
G02 X100.459620 Y405.854960 Z-18.000000 I-2.927489 J-5.779602
G03 X104.459563 Y398.882303 Z-18.000000 I307.346936 J171.679373
G02 X108.523745 Y391.450544 Z-18.000000 I-114.742773 J-67.576175
G02 X111.962719 Y383.761769 Z-18.000000 I-78.241502 J-39.608703
G02 X115.025920 Y373.916250 Z-18.000000 I-67.775858 J-26.486140
G02 X115.776247 Y373.183292 Z-18.000000 I-0.091391 J-0.844089
G02 X117.805607 Y355.449392 Z-18.000000 I-510.546001 J-67.406869
G02 X119.245502 Y338.045916 Z-18.000000 I-618.187457 J-59.907692
G02 X119.302120 Y332.623070 Z-18.000000 I-46.628479 J-3.198547
G02 X119.293809 Y328.709475 Z-18.000000 I-918.575328 J-0.006196
G02 X119.268757 Y324.421237 Z-18.000000 I-1350.075508 J5.742961
G02 X119.186045 Y316.822059 Z-18.000000 I-1100.113707 J8.174103
G02 X119.034920 Y311.508820 Z-18.000000 I-188.510686 J2.703044
G02 X118.786215 Y308.851306 Z-18.000000 I-21.959229 J0.714672
G02 X118.127745 Y306.611290 Z-18.000000 I-8.777064 J1.363297
G02 X116.904677 Y304.687266 Z-18.000000 I-7.040746 J3.124927
G02 X114.491320 Y302.555230 Z-18.000000 I-9.208825 J7.992004
G02 X110.039361 Y300.672618 Z-18.000000 I-20.278870 J41.749774
G02 X89.819057 Y293.417962 Z-18.000000 I-1047.313616 J2887.284308
G02 X79.092815 Y289.630991 Z-18.000000 I-1201.290785 J3385.459633
G02 X68.654620 Y285.984530 Z-18.000000 I-1061.020598 J3020.466682
G01 X68.654620 Y285.984540 Z-18.000000
G00 Z5.000000

(End cutting path id: path4645-8-4-5-6-5)


(Start cutting path id: path4645-8-4-5-6-5)
(Change tool to Cylindrical cutter)

G00 Z5.000000
G00 X68.654620 Y285.984540

G01 Z-19.500000 F400.0(Penetrate)
G02 X63.966220 Y285.786949 Z-19.500000 I-2.873197 J12.453150 F400.000000
G02 X61.942220 Y286.684637 Z-19.500000 I0.579170 J4.036423
G02 X60.522629 Y288.641980 Z-19.500000 I3.108324 J3.747817
G02 X59.701020 Y291.329990 Z-19.500000 I16.369819 J6.473122
G01 X60.101920 Y390.754130 Z-19.500000
G02 X59.868653 Y392.962677 Z-19.500000 I4.610869 J1.603592
G02 X60.536882 Y395.262607 Z-19.500000 I7.527743 J-0.940095
G02 X61.897599 Y397.284001 Z-19.500000 I7.313537 J-3.454479
G02 X63.576520 Y398.505040 Z-19.500000 I3.877640 J-3.566958
G03 X64.681481 Y398.829571 Z-19.500000 I-1.865600 J8.395339
G03 X76.263082 Y403.109456 Z-19.500000 I-1637.398549 J4448.699007
G03 X87.517258 Y407.292737 Z-19.500000 I-3460.840297 J9327.841169
G02 X90.570620 Y408.393950 Z-19.500000 I54.723769 J-146.950406
G02 X93.072726 Y408.639974 Z-19.500000 I2.235767 J-9.891693
G02 X95.922032 Y408.264901 Z-19.500000 I-0.361385 J-13.755485
G02 X98.584050 Y407.286618 Z-19.500000 I-2.842317 J-11.845227
G02 X100.459620 Y405.854960 Z-19.500000 I-2.927489 J-5.779602
G03 X104.459563 Y398.882303 Z-19.500000 I307.346936 J171.679373
G02 X108.523745 Y391.450544 Z-19.500000 I-114.742773 J-67.576175
G02 X111.962719 Y383.761769 Z-19.500000 I-78.241502 J-39.608703
G02 X115.025920 Y373.916250 Z-19.500000 I-67.775858 J-26.486140
G02 X115.776247 Y373.183292 Z-19.500000 I-0.091391 J-0.844089
G02 X117.805607 Y355.449392 Z-19.500000 I-510.546001 J-67.406869
G02 X119.245502 Y338.045916 Z-19.500000 I-618.187457 J-59.907692
G02 X119.302120 Y332.623070 Z-19.500000 I-46.628479 J-3.198547
G02 X119.293809 Y328.709475 Z-19.500000 I-918.575328 J-0.006196
G02 X119.268757 Y324.421237 Z-19.500000 I-1350.075508 J5.742961
G02 X119.186045 Y316.822059 Z-19.500000 I-1100.113707 J8.174103
G02 X119.034920 Y311.508820 Z-19.500000 I-188.510686 J2.703044
G02 X118.786215 Y308.851306 Z-19.500000 I-21.959229 J0.714672
G02 X118.127745 Y306.611290 Z-19.500000 I-8.777064 J1.363297
G02 X116.904677 Y304.687266 Z-19.500000 I-7.040746 J3.124927
G02 X114.491320 Y302.555230 Z-19.500000 I-9.208825 J7.992004
G02 X110.039361 Y300.672618 Z-19.500000 I-20.278870 J41.749774
G02 X89.819057 Y293.417962 Z-19.500000 I-1047.313616 J2887.284308
G02 X79.092815 Y289.630991 Z-19.500000 I-1201.290785 J3385.459633
G02 X68.654620 Y285.984530 Z-19.500000 I-1061.020598 J3020.466682
G01 X68.654620 Y285.984540 Z-19.500000
G00 Z5.000000

(End cutting path id: path4645-8-4-5-6-5)


(Start cutting path id: path4647-8-9-9-7-1)
(Change tool to Cylindrical cutter)

G00 Z5.000000
G00 X58.652220 Y194.825740

G01 Z-3.000000 F400.0(Penetrate)
G02 X59.565183 Y200.260309 Z-3.000000 I18.113049 J-0.248875 F400.000000
G02 X60.853520 Y202.367882 Z-3.000000 I5.154067 J-1.703064
G02 X63.048796 Y203.847405 Z-3.000000 I4.755601 J-4.687827
G03 X65.833720 Y205.031140 Z-3.000000 I-68.875247 J165.907756
G02 X70.272823 Y206.829163 Z-3.000000 I37.510092 J-86.229068
G02 X99.035620 Y217.597806 Z-3.000000 I4752.590269 J-12650.262650
G02 X114.044385 Y223.188625 Z-3.000000 I5348.083080 J-14334.196787
G02 X128.766820 Y228.654700 Z-3.000000 I4925.774649 J-13244.614028
G02 X132.151332 Y229.717463 Z-3.000000 I34.454620 J-103.804742
G02 X135.276757 Y230.200427 Z-3.000000 I3.344258 J-11.287506
G02 X138.068484 Y229.647534 Z-3.000000 I0.124490 J-6.695992
G02 X141.051020 Y227.331760 Z-3.000000 I-3.032290 J-6.983878
G01 X186.786120 Y158.918050 Z-3.000000
G02 X189.360458 Y152.647691 Z-3.000000 I-15.516233 J-10.033930
G02 X189.093250 Y149.594667 Z-3.000000 I-5.204323 J-1.082710
G02 X187.063430 Y146.925155 Z-3.000000 I-5.830418 J2.326815
G02 X183.573320 Y144.744000 Z-3.000000 I-13.600051 J17.878846
G01 X71.881420 Y102.977580 Z-3.000000
G02 X65.909933 Y102.155790 Z-3.000000 I-5.754166 J19.705668
G02 X62.410707 Y103.072077 Z-3.000000 I0.078772 J7.440591
G02 X59.987232 Y105.541843 Z-3.000000 I2.878092 J5.248059
G02 X58.652220 Y110.348050 Z-3.000000 I10.510322 J5.507949
G01 X58.652220 Y194.825740 Z-3.000000
G00 Z5.000000

(End cutting path id: path4647-8-9-9-7-1)


(Start cutting path id: path4647-8-9-9-7-1)
(Change tool to Cylindrical cutter)

G00 Z5.000000
G00 X58.652220 Y194.825740

G01 Z-6.000000 F400.0(Penetrate)
G02 X59.565183 Y200.260309 Z-6.000000 I18.113049 J-0.248875 F400.000000
G02 X60.853520 Y202.367882 Z-6.000000 I5.154067 J-1.703064
G02 X63.048796 Y203.847405 Z-6.000000 I4.755601 J-4.687827
G03 X65.833720 Y205.031140 Z-6.000000 I-68.875247 J165.907756
G02 X70.272823 Y206.829163 Z-6.000000 I37.510092 J-86.229068
G02 X99.035620 Y217.597806 Z-6.000000 I4752.590269 J-12650.262650
G02 X114.044385 Y223.188625 Z-6.000000 I5348.083080 J-14334.196787
G02 X128.766820 Y228.654700 Z-6.000000 I4925.774649 J-13244.614028
G02 X132.151332 Y229.717463 Z-6.000000 I34.454620 J-103.804742
G02 X135.276757 Y230.200427 Z-6.000000 I3.344258 J-11.287506
G02 X138.068484 Y229.647534 Z-6.000000 I0.124490 J-6.695992
G02 X141.051020 Y227.331760 Z-6.000000 I-3.032290 J-6.983878
G01 X186.786120 Y158.918050 Z-6.000000
G02 X189.360458 Y152.647691 Z-6.000000 I-15.516233 J-10.033930
G02 X189.093250 Y149.594667 Z-6.000000 I-5.204323 J-1.082710
G02 X187.063430 Y146.925155 Z-6.000000 I-5.830418 J2.326815
G02 X183.573320 Y144.744000 Z-6.000000 I-13.600051 J17.878846
G01 X71.881420 Y102.977580 Z-6.000000
G02 X65.909933 Y102.155790 Z-6.000000 I-5.754166 J19.705668
G02 X62.410707 Y103.072077 Z-6.000000 I0.078772 J7.440591
G02 X59.987232 Y105.541843 Z-6.000000 I2.878092 J5.248059
G02 X58.652220 Y110.348050 Z-6.000000 I10.510322 J5.507949
G01 X58.652220 Y194.825740 Z-6.000000
G00 Z5.000000

(End cutting path id: path4647-8-9-9-7-1)


(Start cutting path id: path4647-8-9-9-7-1)
(Change tool to Cylindrical cutter)

G00 Z5.000000
G00 X58.652220 Y194.825740

G01 Z-9.000000 F400.0(Penetrate)
G02 X59.565183 Y200.260309 Z-9.000000 I18.113049 J-0.248875 F400.000000
G02 X60.853520 Y202.367882 Z-9.000000 I5.154067 J-1.703064
G02 X63.048796 Y203.847405 Z-9.000000 I4.755601 J-4.687827
G03 X65.833720 Y205.031140 Z-9.000000 I-68.875247 J165.907756
G02 X70.272823 Y206.829163 Z-9.000000 I37.510092 J-86.229068
G02 X99.035620 Y217.597806 Z-9.000000 I4752.590269 J-12650.262650
G02 X114.044385 Y223.188625 Z-9.000000 I5348.083080 J-14334.196787
G02 X128.766820 Y228.654700 Z-9.000000 I4925.774649 J-13244.614028
G02 X132.151332 Y229.717463 Z-9.000000 I34.454620 J-103.804742
G02 X135.276757 Y230.200427 Z-9.000000 I3.344258 J-11.287506
G02 X138.068484 Y229.647534 Z-9.000000 I0.124490 J-6.695992
G02 X141.051020 Y227.331760 Z-9.000000 I-3.032290 J-6.983878
G01 X186.786120 Y158.918050 Z-9.000000
G02 X189.360458 Y152.647691 Z-9.000000 I-15.516233 J-10.033930
G02 X189.093250 Y149.594667 Z-9.000000 I-5.204323 J-1.082710
G02 X187.063430 Y146.925155 Z-9.000000 I-5.830418 J2.326815
G02 X183.573320 Y144.744000 Z-9.000000 I-13.600051 J17.878846
G01 X71.881420 Y102.977580 Z-9.000000
G02 X65.909933 Y102.155790 Z-9.000000 I-5.754166 J19.705668
G02 X62.410707 Y103.072077 Z-9.000000 I0.078772 J7.440591
G02 X59.987232 Y105.541843 Z-9.000000 I2.878092 J5.248059
G02 X58.652220 Y110.348050 Z-9.000000 I10.510322 J5.507949
G01 X58.652220 Y194.825740 Z-9.000000
G00 Z5.000000

(End cutting path id: path4647-8-9-9-7-1)


(Start cutting path id: path4647-8-9-9-7-1)
(Change tool to Cylindrical cutter)

G00 Z5.000000
G00 X58.652220 Y194.825740

G01 Z-12.000000 F400.0(Penetrate)
G02 X59.565183 Y200.260309 Z-12.000000 I18.113049 J-0.248875 F400.000000
G02 X60.853520 Y202.367882 Z-12.000000 I5.154067 J-1.703064
G02 X63.048796 Y203.847405 Z-12.000000 I4.755601 J-4.687827
G03 X65.833720 Y205.031140 Z-12.000000 I-68.875247 J165.907756
G02 X70.272823 Y206.829163 Z-12.000000 I37.510092 J-86.229068
G02 X99.035620 Y217.597806 Z-12.000000 I4752.590269 J-12650.262650
G02 X114.044385 Y223.188625 Z-12.000000 I5348.083080 J-14334.196787
G02 X128.766820 Y228.654700 Z-12.000000 I4925.774649 J-13244.614028
G02 X132.151332 Y229.717463 Z-12.000000 I34.454620 J-103.804742
G02 X135.276757 Y230.200427 Z-12.000000 I3.344258 J-11.287506
G02 X138.068484 Y229.647534 Z-12.000000 I0.124490 J-6.695992
G02 X141.051020 Y227.331760 Z-12.000000 I-3.032290 J-6.983878
G01 X186.786120 Y158.918050 Z-12.000000
G02 X189.360458 Y152.647691 Z-12.000000 I-15.516233 J-10.033930
G02 X189.093250 Y149.594667 Z-12.000000 I-5.204323 J-1.082710
G02 X187.063430 Y146.925155 Z-12.000000 I-5.830418 J2.326815
G02 X183.573320 Y144.744000 Z-12.000000 I-13.600051 J17.878846
G01 X71.881420 Y102.977580 Z-12.000000
G02 X65.909933 Y102.155790 Z-12.000000 I-5.754166 J19.705668
G02 X62.410707 Y103.072077 Z-12.000000 I0.078772 J7.440591
G02 X59.987232 Y105.541843 Z-12.000000 I2.878092 J5.248059
G02 X58.652220 Y110.348050 Z-12.000000 I10.510322 J5.507949
G01 X58.652220 Y194.825740 Z-12.000000
G00 Z5.000000

(End cutting path id: path4647-8-9-9-7-1)


(Start cutting path id: path4647-8-9-9-7-1)
(Change tool to Cylindrical cutter)

G00 Z5.000000
G00 X58.652220 Y194.825740

G01 Z-15.000000 F400.0(Penetrate)
G02 X59.565183 Y200.260309 Z-15.000000 I18.113049 J-0.248875 F400.000000
G02 X60.853520 Y202.367882 Z-15.000000 I5.154067 J-1.703064
G02 X63.048796 Y203.847405 Z-15.000000 I4.755601 J-4.687827
G03 X65.833720 Y205.031140 Z-15.000000 I-68.875247 J165.907756
G02 X70.272823 Y206.829163 Z-15.000000 I37.510092 J-86.229068
G02 X99.035620 Y217.597806 Z-15.000000 I4752.590269 J-12650.262650
G02 X114.044385 Y223.188625 Z-15.000000 I5348.083080 J-14334.196787
G02 X128.766820 Y228.654700 Z-15.000000 I4925.774649 J-13244.614028
G02 X132.151332 Y229.717463 Z-15.000000 I34.454620 J-103.804742
G02 X135.276757 Y230.200427 Z-15.000000 I3.344258 J-11.287506
G02 X138.068484 Y229.647534 Z-15.000000 I0.124490 J-6.695992
G02 X141.051020 Y227.331760 Z-15.000000 I-3.032290 J-6.983878
G01 X186.786120 Y158.918050 Z-15.000000
G02 X189.360458 Y152.647691 Z-15.000000 I-15.516233 J-10.033930
G02 X189.093250 Y149.594667 Z-15.000000 I-5.204323 J-1.082710
G02 X187.063430 Y146.925155 Z-15.000000 I-5.830418 J2.326815
G02 X183.573320 Y144.744000 Z-15.000000 I-13.600051 J17.878846
G01 X71.881420 Y102.977580 Z-15.000000
G02 X65.909933 Y102.155790 Z-15.000000 I-5.754166 J19.705668
G02 X62.410707 Y103.072077 Z-15.000000 I0.078772 J7.440591
G02 X59.987232 Y105.541843 Z-15.000000 I2.878092 J5.248059
G02 X58.652220 Y110.348050 Z-15.000000 I10.510322 J5.507949
G01 X58.652220 Y194.825740 Z-15.000000
G00 Z5.000000

(End cutting path id: path4647-8-9-9-7-1)


(Start cutting path id: path4647-8-9-9-7-1)
(Change tool to Cylindrical cutter)

G00 Z5.000000
G00 X58.652220 Y194.825740

G01 Z-18.000000 F400.0(Penetrate)
G02 X59.565183 Y200.260309 Z-18.000000 I18.113049 J-0.248875 F400.000000
G02 X60.853520 Y202.367882 Z-18.000000 I5.154067 J-1.703064
G02 X63.048796 Y203.847405 Z-18.000000 I4.755601 J-4.687827
G03 X65.833720 Y205.031140 Z-18.000000 I-68.875247 J165.907756
G02 X70.272823 Y206.829163 Z-18.000000 I37.510092 J-86.229068
G02 X99.035620 Y217.597806 Z-18.000000 I4752.590269 J-12650.262650
G02 X114.044385 Y223.188625 Z-18.000000 I5348.083080 J-14334.196787
G02 X128.766820 Y228.654700 Z-18.000000 I4925.774649 J-13244.614028
G02 X132.151332 Y229.717463 Z-18.000000 I34.454620 J-103.804742
G02 X135.276757 Y230.200427 Z-18.000000 I3.344258 J-11.287506
G02 X138.068484 Y229.647534 Z-18.000000 I0.124490 J-6.695992
G02 X141.051020 Y227.331760 Z-18.000000 I-3.032290 J-6.983878
G01 X186.786120 Y158.918050 Z-18.000000
G02 X189.360458 Y152.647691 Z-18.000000 I-15.516233 J-10.033930
G02 X189.093250 Y149.594667 Z-18.000000 I-5.204323 J-1.082710
G02 X187.063430 Y146.925155 Z-18.000000 I-5.830418 J2.326815
G02 X183.573320 Y144.744000 Z-18.000000 I-13.600051 J17.878846
G01 X71.881420 Y102.977580 Z-18.000000
G02 X65.909933 Y102.155790 Z-18.000000 I-5.754166 J19.705668
G02 X62.410707 Y103.072077 Z-18.000000 I0.078772 J7.440591
G02 X59.987232 Y105.541843 Z-18.000000 I2.878092 J5.248059
G02 X58.652220 Y110.348050 Z-18.000000 I10.510322 J5.507949
G01 X58.652220 Y194.825740 Z-18.000000
G00 Z5.000000

(End cutting path id: path4647-8-9-9-7-1)


(Start cutting path id: path4647-8-9-9-7-1)
(Change tool to Cylindrical cutter)

G00 Z5.000000
G00 X58.652220 Y194.825740

G01 Z-19.500000 F400.0(Penetrate)
G02 X59.565183 Y200.260309 Z-19.500000 I18.113049 J-0.248875 F400.000000
G02 X60.853520 Y202.367882 Z-19.500000 I5.154067 J-1.703064
G02 X63.048796 Y203.847405 Z-19.500000 I4.755601 J-4.687827
G03 X65.833720 Y205.031140 Z-19.500000 I-68.875247 J165.907756
G02 X70.272823 Y206.829163 Z-19.500000 I37.510092 J-86.229068
G02 X99.035620 Y217.597806 Z-19.500000 I4752.590269 J-12650.262650
G02 X114.044385 Y223.188625 Z-19.500000 I5348.083080 J-14334.196787
G02 X128.766820 Y228.654700 Z-19.500000 I4925.774649 J-13244.614028
G02 X132.151332 Y229.717463 Z-19.500000 I34.454620 J-103.804742
G02 X135.276757 Y230.200427 Z-19.500000 I3.344258 J-11.287506
G02 X138.068484 Y229.647534 Z-19.500000 I0.124490 J-6.695992
G02 X141.051020 Y227.331760 Z-19.500000 I-3.032290 J-6.983878
G01 X186.786120 Y158.918050 Z-19.500000
G02 X189.360458 Y152.647691 Z-19.500000 I-15.516233 J-10.033930
G02 X189.093250 Y149.594667 Z-19.500000 I-5.204323 J-1.082710
G02 X187.063430 Y146.925155 Z-19.500000 I-5.830418 J2.326815
G02 X183.573320 Y144.744000 Z-19.500000 I-13.600051 J17.878846
G01 X71.881420 Y102.977580 Z-19.500000
G02 X65.909933 Y102.155790 Z-19.500000 I-5.754166 J19.705668
G02 X62.410707 Y103.072077 Z-19.500000 I0.078772 J7.440591
G02 X59.987232 Y105.541843 Z-19.500000 I2.878092 J5.248059
G02 X58.652220 Y110.348050 Z-19.500000 I10.510322 J5.507949
G01 X58.652220 Y194.825740 Z-19.500000
G00 Z5.000000

(End cutting path id: path4647-8-9-9-7-1)


(Footer)
M5
G00 X0.0000 Y0.0000
M2
(Using default footer. To add your own footer create file "footer" in the output dir.)
(end)
%